simple shadows highlights lut test sat.cube
# Created by: G'MIC (https://gmic.eu)
TITLE "simple shadows highlights lut test sat"
# LUT size
LUT_3D_SIZE 32
# Data domain
DOMAIN_MIN 0.0 0.0 0.0
DOMAIN_MAX 1.0 1.0 1.0
# LUT data points
0.0052740098908543587 0.0052740089595317841 0.0052740080282092094
0.017931394279003143 0.0059486706741154194 0.0059486697427928448
0.031228283420205116 0.0066574141383171082 0.0066574178636074066
0.04484432190656662 0.007367259357124567 0.0073672612197697163
0.058296278119087219 0.0080388607457280159 0.008038865402340889
0.071475237607955933 0.0086619285866618156 0.0086619304493069649
0.084751889109611511 0.0092902779579162598 0.0092902826145291328
0.098363257944583893 0.0099829528480768204 0.0099829640239477158
0.11232312768697739 0.010746601969003677 0.010746609419584274
0.12664453685283661 0.01158704049885273 0.011587049812078476
0.14181563258171082 0.012542140670120716 0.012542152777314186
0.15836444497108459 0.0136589165776968 0.013658930547535419
0.17394912242889404 0.014785522595047951 0.014785539358854294
0.1900164783000946 0.015996690839529037 0.016023881733417511
0.20693248510360718 0.016862349584698677 0.017417494207620621
0.225092813372612 0.016762569546699524 0.019025690853595734
0.24463294446468353 0.01539364829659462 0.020866546779870987
0.26555964350700378 0.013157867826521397 0.022804876789450645
0.28767982125282288 0.010797062888741493 0.024691704660654068
0.31090590357780457 0.0089463545009493828 0.026397451758384705
0.33538752794265747 0.0080577721819281578 0.027872471138834953
0.36381980776786804 0.0090367896482348442 0.02966177836060524
0.3924156129360199 0.012965020723640919 0.031748611479997635
0.42212378978729248 0.020559819415211678 0.034168820828199387
0.4540068507194519 0.030904557555913925 0.036803353577852249
0.4885086715221405 0.043920360505580902 0.039635106921195984
0.52629572153091431 0.058713696897029877 0.042709141969680786
0.56838202476501465 0.074902795255184174 0.046098582446575165
0.61644625663757324 0.093146346509456635 0.049949940294027328
0.67366874217987061 0.11467419564723969 0.054611746221780777
0.74778896570205688 0.14240129292011261 0.060993269085884094
0.87893444299697876 0.19131770730018616 0.074288159608840942
0.0074479151517152786 0.019430635496973991 0.0074479137547314167
0.020105304196476936 0.020105298608541489 0.008122575469315052
0.033402193337678909 0.020814042538404465 0.0088313231244683266
0.046828847378492355 0.021523887291550636 0.0095411669462919235
0.059963211417198181 0.022195491939783096 0.010212772525846958
0.072907060384750366 0.022818556055426598 0.010835833847522736
0.085998833179473877 0.023446904495358467 0.011464185081422329
0.099459283053874969 0.024139590561389923 0.012156868353486061
0.11329410225152969 0.024903234094381332 0.012920516543090343
0.12751060724258423 0.025743672624230385 0.013760956935584545
0.14259026944637299 0.026698770001530647 0.014716057106852531
0.15905643999576569 0.027815548703074455 0.015832835808396339
0.17457851767539978 0.028939617797732353 0.016959631815552711
0.19073463976383209 0.029974069446325302 0.018210968002676964
0.20795908570289612 0.030350672081112862 0.019640544429421425
0.22642043232917786 0.029743747785687447 0.021275235339999199
0.24614500999450684 0.028384178876876831 0.023025387898087502
0.26717540621757507 0.026533067226409912 0.024788103997707367
0.28932097554206848 0.024791333824396133 0.026456182822585106
0.31256213784217834 0.023715656250715256 0.027917822822928429
0.33704295754432678 0.023791743442416191 0.029338251799345016
0.36546111106872559 0.026102893054485321 0.031217491254210472
0.39403411746025085 0.031552489846944809 0.033389534801244736
0.42367446422576904 0.039925388991832733 0.035811852663755417
0.45547324419021606 0.049969833344221115 0.038412190973758698
0.48989120125770569 0.061256986111402512 0.041208118200302124
0.52759444713592529 0.073870889842510223 0.044242881238460541
0.56959623098373413 0.088162429630756378 0.047589082270860672
0.61757397651672363 0.10472910106182098 0.051407303661108017
0.6747056245803833 0.12471908330917358 0.056052945554256439
0.74872428178787231 0.15094627439975739 0.062438305467367172
0.87969303131103516 0.19806800782680511 0.075771339237689972
0.0097316540777683258 0.034301429986953735 0.0097316494211554527
0.022389041259884834 0.034973755478858948 0.010406313464045525
0.03568195179104805 0.035679101943969727 0.011115062981843948
0.048856273293495178 0.036383245140314102 0.011824906803667545
0.061678808182477951 0.037047676742076874 0.012496510520577431
0.074387580156326294 0.03766254335641861 0.013119570910930634
0.087292462587356567 0.038279980421066284 0.013747927732765675
0.10059916228055954 0.038958292454481125 0.014440607279539108
0.11430584639310837 0.039702825248241425 0.015204253606498241
0.1284143477678299 0.040517121553421021 0.016044694930315018
0.14339952170848846 0.041436564177274704 0.016999796032905579
0.15978015959262848 0.042501866817474365 0.018116584047675133
0.17530329525470734 0.043494101613759995 0.019248992204666138
0.19172537326812744 0.044095486402511597 0.020529709756374359
0.20925742387771606 0.04400697723031044 0.021985562518239021
0.2279171347618103 0.043390035629272461 0.02354833297431469
0.2477719783782959 0.042396150529384613 0.025139672681689262
0.26888895034790039 0.04106450080871582 0.026707787066698074
0.29105153679847717 0.040046993643045425 0.028138911351561546
0.31429857015609741 0.039827696979045868 0.029442450031638145
0.33876910805702209 0.040911983698606491 0.030919879674911499
0.36716896295547485 0.044434618204832077 0.032893169671297073
0.3957056999206543 0.050546526908874512 0.035129837691783905
0.42526739835739136 0.058081191033124924 0.037525784224271774
0.45698314905166626 0.066666670143604279 0.040088199079036713
0.49131792783737183 0.076444610953330994 0.042843718081712723
0.52893739938735962 0.0876312255859375 0.045833040028810501
0.57085412740707397 0.10056789964437485 0.049134746193885803
0.6187443733215332 0.11583464592695236 0.052923101931810379
0.67578327655792236 0.1345493346452713 0.057555031031370163
0.74969840049743652 0.15945941209793091 0.063946552574634552
0.88040453195571899 0.20491454005241394 0.07732054591178894
0.01201892364770174 0.04900776594877243 0.012018919922411442
0.024676311761140823 0.049595102667808533 0.012693584896624088
0.037948586046695709 0.050207190215587616 0.013402329757809639
0.050832439213991165 0.050815239548683167 0.01411217637360096
0.063362300395965576 0.051386043429374695 0.01478378102183342
0.075846955180168152 0.051911745220422745 0.015406842343509197
0.088571794331073761 0.052438203245401382 0.01603519544005394
0.10172919929027557 0.053014364093542099 0.016727875918149948
0.11531072854995728 0.053644567728042603 0.017491523176431656
0.12931327521800995 0.05433223769068718 0.018331967294216156
0.14420546591281891 0.055106300860643387 0.019287068396806717
0.16053378582000732 0.055976670235395432 0.02040628157556057
0.17625643312931061 0.056577309966087341 0.021560493856668472
0.1929730623960495 0.056764423847198486 0.022859759628772736
0.21069337427616119 0.056670509278774261 0.024246048182249069
0.22947688400745392 0.056384086608886719 0.025663994252681732
0.24945917725563049 0.05583181232213974 0.027083979919552803
0.27063801884651184 0.055147752165794373 0.028443602845072746
0.29280993342399597 0.054899550974369049 0.029672631993889809
0.31605032086372375 0.055456090718507767 0.030979638919234276
0.34050643444061279 0.057244356721639633 0.032537393271923065
0.36888420581817627 0.061275504529476166 0.034602090716362
0.39736682176589966 0.067031703889369965 0.036858879029750824
0.42685043811798096 0.073660053312778473 0.039217535406351089
0.45848724246025085 0.081290237605571747 0.041740164160728455
0.49274221062660217 0.09008297324180603 0.044451851397752762
0.5302807092666626 0.10026568174362183 0.047393664717674255
0.57211476564407349 0.11218487471342087 0.050656665116548538
0.61991947889328003 0.12641781568527222 0.054420437663793564
0.67686742544174194 0.1440654993057251 0.059043291956186295
0.75067996978759766 0.16782134771347046 0.065445363521575928
0.88111960887908936 0.21174393594264984 0.07886563241481781
0.014182984828948975 0.062911167740821838 0.014182979241013527
0.026840370148420334 0.063404031097888947 0.01485764142125845
0.040067732334136963 0.063918739557266235 0.015566388145089149
0.052655536681413651 0.064431130886077881 0.016276232898235321
0.064924739301204681 0.064913094043731689 0.016947833821177483
0.077207021415233612 0.065357804298400879 0.017570899799466133
0.089767679572105408 0.065803907811641693 0.01819925382733345
0.10278794169425964 0.066293030977249146 0.018891932442784309
0.11625389754772186 0.066829055547714233 0.019655583426356316
0.13015817105770111 0.067415155470371246 0.020496020093560219
0.1449798047542572 0.068066522479057312 0.021452227607369423
0.16145183145999908 0.068661466240882874 0.022587062790989876
0.17744101583957672 0.068979658186435699 0.023743407800793648
0.19432395696640015 0.069183021783828735 0.024963609874248505
0.21216346323490143 0.069298669695854187 0.026215484365820885
0.23107138276100159 0.069282256066799164 0.02747657522559166
0.25117915868759155 0.069078534841537476 0.028714684769511223
0.27239716053009033 0.068920686841011047 0.029871495440602303
0.29456734657287598 0.069263935089111328 0.031048674136400223
0.31779590249061584 0.070400208234786987 0.032427139580249786
0.3422362208366394 0.072696298360824585 0.034065242856740952
0.37058448791503906 0.077006071805953979 0.036201521754264832
0.39900165796279907 0.082315981388092041 0.03844011202454567
0.42841255664825439 0.08830687403678894 0.040761709213256836
0.45997512340545654 0.095236264169216156 0.043245039880275726
0.49415439367294312 0.10327274352312088 0.045914027839899063
0.53161561489105225 0.11265038698911667 0.048815507441759109
0.57337009906768799 0.12371902912855148 0.052050620317459106
0.62109196186065674 0.13705313205718994 0.055799797177314758
0.67795121669769287 0.15373814105987549 0.060423631221055984
0.75166314840316772 0.17641487717628479 0.066847346723079681
0.88183736801147461 0.21884742379188538 0.080330975353717804
0.016190625727176666 0.076333068311214447 0.016190612688660622
0.028848011046648026 0.076757006347179413 0.016865275800228119
0.042003653943538666 0.077200330793857574 0.017574025318026543
0.05430879071354866 0.077642254531383514 0.018283866345882416
0.066349051892757416 0.078058481216430664 0.018955474719405174
0.078451402485370636 0.078442983329296112 0.019578536972403526
0.09086482971906662 0.078829176723957062 0.020206889137625694
0.10376133769750595 0.079253077507019043 0.020899571478366852
0.11712241172790527 0.079718254506587982 0.021663220599293709
0.13094975054264069 0.08022163063287735 0.022504387423396111
0.1458640992641449 0.080709658563137054 0.023465575650334358
0.16257065534591675 0.081146806478500366 0.024573840200901031
0.17869867384433746 0.081521712243556976 0.025637630373239517
0.19569867849349976 0.081867843866348267 0.02673204243183136
0.21366101503372192 0.082159556448459625 0.02783917635679245
0.23269912600517273 0.082360208034515381 0.028933918103575706
0.25292292237281799 0.082447975873947144 0.029988834634423256
0.27415543794631958 0.082725219428539276 0.031062435358762741
0.29631629586219788 0.083533704280853271 0.032297980040311813
0.31953194737434387 0.085121989250183105 0.033752080053091049
0.34395554661750793 0.087815247476100922 0.035468172281980515
0.37226095795631409 0.092146135866641998 0.037634599953889847
0.40061172842979431 0.097029469907283783 0.039840396493673325
0.42995509505271912 0.10252676159143448 0.042127322405576706
0.46144798398017883 0.1088993027806282 0.04457397386431694
0.49555560946464539 0.11631797254085541 0.047205399721860886
0.53294306993484497 0.12501834332942963 0.050077922642230988
0.57462114095687866 0.13534972071647644 0.05329592153429985
0.62226283550262451 0.14788109064102173 0.057041067630052567
0.67903578281402588 0.16368025541305542 0.06167694553732872
0.75264900922775269 0.1853335052728653 0.068134941160678864
0.88255870342254639 0.22630211710929871 0.081701673567295074
0.018215321004390717 0.089768551290035248 0.018215306103229523
0.030872704461216927 0.090138554573059082 0.018889967352151871
0.043919209390878677 0.090525850653648376 0.019598713144659996
0.055940721184015274 0.090912275016307831 0.020308559760451317
0.067761726677417755 0.091276593506336212 0.020980166271328926
0.079689845442771912 0.091613441705703735 0.021603228524327278
0.091959528625011444 0.091952025890350342 0.022231582552194595
0.10473356395959854 0.092325232923030853 0.022923758253455162
0.11800790578126907 0.092741742730140686 0.023681061342358589
0.13189563155174255 0.093182943761348724 0.024499570950865746
0.14697284996509552 0.093653641641139984 0.02539631724357605
0.16381824016571045 0.09417165070772171 0.026391604915261269
0.18006952106952667 0.094652913510799408 0.02733122929930687
0.19719806313514709 0.095127210021018982 0.028283519670367241
0.21529528498649597 0.095574289560317993 0.02922779880464077
0.23447512090206146 0.0959649458527565 0.03014923632144928
0.25479114055633545 0.096328660845756531 0.031124807894229889
0.27601724863052368 0.096993975341320038 0.032249405980110168
0.29816561937332153 0.098205089569091797 0.033559910953044891
0.32136595249176025 0.10018708556890488 0.035092964768409729
0.34576606750488281 0.10317085683345795 0.036874111741781235
0.37401300668716431 0.10730373114347458 0.039025742560625076
0.40229779481887817 0.11182957142591476 0.041197121143341064
0.43157428503036499 0.11692017316818237 0.043449390679597855
0.46299764513969421 0.12282566726207733 0.045860040932893753
0.49703317880630493 0.12971514463424683 0.04845891147851944
0.53434580564498901 0.13782200217247009 0.051309950649738312
0.57594579458236694 0.14749124646186829 0.054518155753612518
0.6235048770904541 0.15928299725055695 0.058267205953598022
0.68018841743469238 0.17424385249614716 0.062924087047576904
0.75369894504547119 0.19490063190460205 0.069427609443664551
0.88332867622375488 0.23439331352710724 0.083096511662006378
0.020447282120585442 0.10353539139032364 0.020447270944714546
0.033104676753282547 0.10386127978563309 0.021121934056282043
0.045980893075466156 0.10420262813568115 0.021830681711435318
0.057700388133525848 0.10454410314559937 0.022540252655744553
0.069282181560993195 0.10487260669469833 0.023208793252706528
0.080997668206691742 0.1051936075091362 0.0238215122371912
0.093072883784770966 0.10554493963718414 0.024425709620118141
0.10573132336139679 0.10595699399709702 0.025071626529097557
0.1190531849861145 0.10641476511955261 0.025758760049939156
0.13307128846645355 0.10690878331661224 0.026484167203307152
0.1482854038476944 0.10745435953140259 0.027266083285212517
0.1652790755033493 0.10806746035814285 0.028121275827288628
0.18167060613632202 0.10865306109189987 0.028913393616676331
0.19894510507583618 0.10925178974866867 0.029698353260755539
0.21719303727149963 0.10984843969345093 0.03048517182469368
0.23652037978172302 0.11042272299528122 0.031361944973468781
0.25688710808753967 0.11107893288135529 0.032400034368038177
0.27809759974479675 0.11211268603801727 0.033602271229028702
0.30022862553596497 0.11370552331209183 0.034995120018720627
0.32340759038925171 0.11605002731084824 0.036607068032026291
0.34776568412780762 0.11908824741840363 0.038406006991863251
0.37594512104988098 0.12296323478221893 0.040521420538425446
0.40416154265403748 0.12718671560287476 0.042656153440475464
0.43336790800094604 0.13192974030971527 0.044871103018522263
0.4647178053855896 0.13743047416210175 0.047244284301996231
0.49867662787437439 0.143853560090065 0.049814444035291672
0.53590893745422363 0.1514272540807724 0.052647944539785385
0.57742470502853394 0.16048902273178101 0.055851012468338013
0.62489426136016846 0.1715865284204483 0.059609673917293549
0.68148016929626465 0.18574090301990509 0.064294926822185516
0.75487792491912842 0.20541277527809143 0.070854194462299347
0.88419497013092041 0.24339435994625092 0.084643423557281494
0.022849498316645622 0.11767546832561493 0.022895894944667816
0.035421401262283325 0.11799989640712738 0.023553429171442986
0.047934960573911667 0.11836566030979156 0.024231802672147751
0.059211798012256622 0.11876567453145981 0.024894319474697113
0.070454135537147522 0.11917927861213684 0.025500692427158356
0.081983678042888641 0.11958880722522736 0.02604185976088047
0.094051703810691833 0.12001208961009979 0.026566669344902039
0.10682676732540131 0.12047827988862991 0.02712351456284523
0.12029626965522766 0.12098941951990128 0.02770974300801754
0.13446228206157684 0.12154613435268402 0.028319600969552994
0.1498306542634964 0.12216812372207642 0.028964756056666374
0.16699159145355225 0.12287717312574387 0.02965485118329525
0.18353945016860962 0.12356720119714737 0.030294492840766907
0.20097021758556366 0.12429001927375793 0.030985241755843163
0.21937330067157745 0.12503506243228912 0.031790308654308319
0.23884032666683197 0.12580032646656036 0.032751142978668213
0.25921544432640076 0.12676739692687988 0.033872157335281372
0.28040412068367004 0.12815605103969574 0.035158831626176834
0.30251127481460571 0.130109503865242 0.036634765565395355
0.32565382122993469 0.13261808454990387 0.03828318789601326
0.34995576739311218 0.13551455736160278 0.040054000914096832
0.37806585431098938 0.1391599178314209 0.042130287736654282
0.40621167421340942 0.14312183856964111 0.044225849211215973
0.4353451132774353 0.14756278693675995 0.046401288360357285
0.46661797165870667 0.1527087390422821 0.048739764839410782
0.50049567222595215 0.15871836245059967 0.051285885274410248
0.5376427173614502 0.16581244766712189 0.054106645286083221
0.57906830310821533 0.17431862652301788 0.057310007512569427
0.62644124031066895 0.18476885557174683 0.061084754765033722
0.68292140960693359 0.19815491139888763 0.065806448459625244
0.75619590282440186 0.2168649435043335 0.072432331740856171
0.88516569137573242 0.25332045555114746 0.086360812187194824
0.024173669517040253 0.13268764317035675 0.025316448882222176
0.036422960460186005 0.13312683999538422 0.025890406221151352
0.048659432679414749 0.13359975814819336 0.026479650288820267
0.059886801987886429 0.13407836854457855 0.027055064216256142
0.071252584457397461 0.13454344868659973 0.02757721021771431
0.082959026098251343 0.13499143719673157 0.028034437447786331
0.095199301838874817 0.13545496761798859 0.028468161821365356
0.10814186185598373 0.13596858084201813 0.028920276090502739
0.12177650630474091 0.13653543591499329 0.029387563467025757
0.13610658049583435 0.13715739548206329 0.029870098456740379
0.15164288878440857 0.13785849511623383 0.030395589768886566
0.16897949576377869 0.13866667449474335 0.031011562794446945
0.18568642437458038 0.13946413993835449 0.031663071364164352
0.20328022539615631 0.14031308889389038 0.032423954457044601
0.22185558080673218 0.14120642840862274 0.033320985734462738
0.24142448604106903 0.14219121634960175 0.034375846385955811
0.26177558302879333 0.1434796154499054 0.035582315176725388
0.28293499350547791 0.145199254155159 0.036950729787349701
0.30500596761703491 0.14731805026531219 0.038463160395622253
0.32809817790985107 0.14973694086074829 0.040087070316076279
0.35234183073043823 0.15247997641563416 0.041822846978902817
0.38038128614425659 0.15592135488986969 0.043857894837856293
0.40845474600791931 0.15965212881565094 0.045912276953458786
0.43751281499862671 0.16382615268230438 0.048049408942461014
0.46870556473731995 0.16865746676921844 0.050359103828668594
0.50249826908111572 0.17429770529270172 0.052886556833982468
0.53955531120300293 0.18095900118350983 0.055700227618217468
0.58088499307632446 0.18895724415779114 0.058910183608531952
0.62815481424331665 0.19880643486976624 0.062708280980587006
0.68452101945877075 0.21146591007709503 0.067475169897079468
0.75766211748123169 0.22924600541591644 0.074179157614707947
0.88624823093414307 0.26417851448059082 0.088266462087631226
0.023806827142834663 0.14950121939182281 0.027419039979577065
0.036393437534570694 0.14998719096183777 0.027900688350200653
0.049049880355596542 0.15049523115158081 0.028396349400281906
0.060630887746810913 0.15100590884685516 0.028880033642053604
0.072273761034011841 0.15150609612464905 0.029314056038856506
0.084199406206607819 0.15199309587478638 0.029689565300941467
0.096630237996578217 0.15250132977962494 0.030048094689846039
0.10975509136915207 0.15306751430034637 0.03043690137565136
0.12356574833393097 0.15369591116905212 0.030867224559187889
0.1380678117275238 0.15438970923423767 0.031350914388895035
0.15378110110759735 0.1551772803068161 0.031918730586767197
0.17130999267101288 0.15609240531921387 0.032611239701509476
0.18820106983184814 0.1570039689540863 0.03334711492061615
0.20598915219306946 0.15798524022102356 0.034202910959720612
0.22474907338619232 0.15904234349727631 0.035203266888856888
0.24433775246143341 0.16029618680477142 0.03634866327047348
0.26465123891830444 0.16184893250465393 0.037623852491378784
0.28577211499214172 0.16365703940391541 0.039009731262922287
0.3077966570854187 0.1656939685344696 0.040495269000530243
0.33083474636077881 0.16799044609069824 0.042084541171789169
0.35501739382743835 0.17058801651000977 0.043782614171504974
0.38298279047012329 0.17383880913257599 0.045773260295391083
0.41097989678382874 0.17735527455806732 0.047785922884941101
0.43995803594589233 0.18128275871276855 0.049890723079442978
0.47106510400772095 0.18582338094711304 0.052177336066961288
0.50476658344268799 0.19112114608287811 0.054692186415195465
0.54172617197036743 0.19737845659255981 0.057505495846271515
0.58295130729675293 0.20489804446697235 0.060729790478944778
0.63010811805725098 0.21417370438575745 0.064560391008853912
0.68634849786758423 0.22612892091274261 0.069383852183818817
0.75934112071990967 0.24298971891403198 0.076181121170520782
0.88749140501022339 0.27637052536010742 0.090453416109085083
0.023225992918014526 0.16868223249912262 0.029144285246729851
0.036392513662576675 0.16920334100723267 0.029587294906377792
0.049580678343772888 0.16974867880344391 0.030059564858675003
0.061564859002828598 0.17029820382595062 0.03053617849946022
0.073519133031368256 0.17084042727947235 0.030978089198470116
0.08569008857011795 0.17137326300144196 0.031374800950288773
0.098335281014442444 0.17193339765071869 0.031767889857292175
0.11166862398386002 0.17256006598472595 0.032205253839492798
0.12568627297878265 0.17325855791568756 0.032695520669221878
0.14039710164070129 0.17403319478034973 0.033248044550418854
0.15633030235767365 0.17491711676120758 0.033896405249834061
0.17410001158714294 0.17595043778419495 0.034685339778661728
0.19122067093849182 0.17698702216148376 0.03551984578371048
0.2092466801404953 0.17810289561748505 0.036480192095041275
0.2281235009431839 0.17931598424911499 0.037563145160675049
0.24767760932445526 0.18068721890449524 0.038739986717700958
0.26795166730880737 0.18222270905971527 0.040004145354032516
0.28902783989906311 0.18394270539283752 0.041359610855579376
0.31100049614906311 0.18587344884872437 0.042810600250959396
0.33397951722145081 0.18804629147052765 0.044361647218465805
0.35809612274169922 0.19049952924251556 0.046018153429031372
0.38598129153251648 0.19356372952461243 0.047963138669729233
0.41389560699462891 0.19687242805957794 0.049940086901187897
0.44278669357299805 0.20056240260601044 0.052018880844116211
0.47380012273788452 0.20482362806797028 0.054289035499095917
0.50740104913711548 0.20979192852973938 0.056798584759235382
0.54425275325775146 0.21565929055213928 0.059619873762130737
0.58536171913146973 0.22271378338336945 0.062868267297744751
0.63239145278930664 0.23142695426940918 0.066743150353431702
0.68848979473114014 0.24268245697021484 0.071637876331806183
0.76131349802017212 0.25861415266990662 0.078548133373260498
0.88895601034164429 0.290382981300354 0.093039557337760925
0.022388974204659462 0.18762284517288208 0.030860019847750664
0.03615773469209671 0.18818053603172302 0.031341817229986191
0.049928229302167892 0.18876443803310394 0.031855251640081406
