simple shadows highlights lut test sat.cube
# Created by: G'MIC (https://gmic.eu)
TITLE "simple shadows highlights lut test sat"
# LUT size
LUT_3D_SIZE 5
# Data domain
# LUT data points
DOMAIN_MIN 0.000000 0.000000 0.000000
DOMAIN_MAX 0.903226 0.903226 0.903226
0.0052740098908543587 0.0052740089595317841 0.0052740080282092094
0.098363257944583893 0.0099829528480768204 0.0099829640239477158
0.20693248510360718 0.016862349584698677 0.017417494207620621
0.36381980776786804 0.0090367896482348442 0.02966177836060524
0.61644625663757324 0.093146346509456635 0.049949940294027328
0.020447282120585442 0.10353539139032364 0.020447270944714546
0.10573132336139679 0.10595699399709702 0.025071626529097557
0.21719303727149963 0.10984843969345093 0.03048517182469368
0.37594512104988098 0.12296323478221893 0.040521420538425446
0.62489426136016846 0.1715865284204483 0.059609673917293549
0.019233450293540955 0.23009930551052094 0.035719592124223709
0.11840909719467163 0.23410519957542419 0.039485443383455276
0.23901998996734619 0.23985385894775391 0.045289020985364914
0.39561641216278076 0.25202259421348572 0.055115122348070145
0.63991665840148926 0.28405147790908813 0.074234426021575928
0.095770843327045441 0.411446213722229 0.06777026504278183
0.1722806841135025 0.4131467342376709 0.071265563368797302
0.27978527545928955 0.4165806770324707 0.076601170003414154
0.42943358421325684 0.42449155449867249 0.086471572518348694
0.66720843315124512 0.44584482908248901 0.10808404535055161
0.2479645162820816 0.68953871726989746 0.16735342144966125
0.28953129053115845 0.69053548574447632 0.16993436217308044
0.36777225136756897 0.69253551959991455 0.17445845901966095
0.49738183617591858 0.69713854789733887 0.18356767296791077
0.72086602449417114 0.70989406108856201 0.20452874898910522
0.0065567754209041595 0.0065567856654524803 0.096615783870220184
0.099011391401290894 0.01126573421061039 0.099014043807983398
0.20796813070774078 0.017185080796480179 0.10273190587759018
0.3654676079750061 0.0098860664293169975 0.11294329166412354
0.61693978309631348 0.095278255641460419 0.13809904456138611
0.02171865850687027 0.10415460169315338 0.10417892038822174
0.10665757954120636 0.10666414350271225 0.10666320472955704
0.21936227381229401 0.1102074459195137 0.1114346981048584
0.37729072570800781 0.12414335459470749 0.12310713529586792
0.62518024444580078 0.17295221984386444 0.14634148776531219
0.021747231483459473 0.23123724758625031 0.1202300563454628
0.12120371311903 0.23497574031352997 0.12340381741523743
0.2408066987991333 0.24058511853218079 0.12887965142726898
0.39633652567863464 0.25284084677696228 0.13914822041988373
0.63980942964553833 0.28499725461006165 0.160702183842659
0.097242377698421478 0.41190844774246216 0.15479733049869537
0.17271794378757477 0.41363829374313354 0.15747720003128052
0.27963566780090332 0.4171183705329895 0.16210612654685974
0.42889350652694702 0.42509576678276062 0.17130535840988159
0.66631388664245605 0.44654372334480286 0.19235141575336456
0.24463643133640289 0.68989044427871704 0.23633293807506561
0.2866206169128418 0.69089716672897339 0.23838905990123749
0.36539888381958008 0.69291490316390991 0.24208985269069672
0.49550393223762512 0.69754797220230103 0.24967418611049652
0.71940046548843384 0.71034961938858032 0.26747888326644897
0.0076206340454518795 0.0086365062743425369 0.20507502555847168
0.098862186074256897 0.013438379392027855 0.20714370906352997
0.20968076586723328 0.015991438180208206 0.21188327670097351
0.36742189526557922 0.012449817731976509 0.22505877912044525
0.61711490154266357 0.099702775478363037 0.25524827837944031
0.016363047063350677 0.10542686283588409 0.21298930048942566
0.10575299710035324 0.1078948974609375 0.21593590080738068
0.22192822396755219 0.1108887568116188 0.2219855785369873
0.37859818339347839 0.12665928900241852 0.2358444482088089
0.62501198053359985 0.17579680681228638 0.26321721076965332
0.019980311393737793 0.2333298921585083 0.23300881683826447
0.12393072992563248 0.23652760684490204 0.23624707758426666
0.2421375960111618 0.24213370680809021 0.24212940037250519
0.39656507968902588 0.25455358624458313 0.25349780917167664
0.63908183574676514 0.28692835569381714 0.27723878622055054
0.097424812614917755 0.41285425424575806 0.26914206147193909
0.17219993472099304 0.41463539004325867 0.27150443196296692
0.278707355260849 0.41819581389427185 0.2758333683013916
0.42768457531929016 0.42628622055053711 0.2845880389213562
0.66488641500473022 0.44787430763244629 0.30431696772575378
0.24112047255039215 0.6905217170715332 0.3364136815071106
0.28343918919563293 0.691547691822052 0.33812382817268372
0.36265859007835388 0.69360017776489258 0.3412896990776062
0.49315741658210754 0.69829243421554565 0.34787037968635559
0.71737563610076904 0.7111859917640686 0.36349284648895264
0.0018875038949772716 0.013330762274563313 0.34499087929725647
0.095330014824867249 0.017087601125240326 0.34788048267364502
0.21533882617950439 0.010495974682271481 0.35422101616859436
0.37187555432319641 0.02054106816649437 0.36955448985099792
0.61874598264694214 0.10825278609991074 0.401571124792099
0.0093833925202488899 0.10767889767885208 0.35499858856201172
0.1099478006362915 0.10937588661909103 0.3583817183971405
0.22787518799304962 0.11338797211647034 0.36539173126220703
0.38225260376930237 0.13191360235214233 0.38025027513504028
0.62621855735778809 0.18140725791454315 0.40918877720832825
0.041125673800706863 0.23662187159061432 0.37711846828460693
0.13416309654712677 0.23961250483989716 0.38031879067420959
0.24725566804409027 0.24537919461727142 0.38630279898643494
0.39911502599716187 0.25804606080055237 0.39806261658668518
0.63960140943527222 0.29072791337966919 0.42281070351600647
0.11026050895452499 0.41480359435081482 0.41342553496360779
0.17896686494350433 0.41666945815086365 0.41566553711891174
0.28185001015663147 0.42036530375480652 0.41991820931434631
0.42866042256355286 0.42864969372749329 0.42864462733268738
0.66437077522277832 0.45048296451568604 0.44841417670249939
0.24144014716148376 0.69177627563476562 0.47593298554420471
0.28321757912635803 0.69283974170684814 0.47746133804321289
0.36181125044822693 0.69496041536331177 0.48036989569664001
0.49170228838920593 0.69976985454559326 0.48648899793624878
0.715412437915802 0.71284765005111694 0.50112581253051758
0.031234666705131531 0.0049219327047467232 0.56296736001968384
0.12257540971040726 0.0045211999677121639 0.5665619969367981
0.23433475196361542 0.0088868606835603714 0.57407122850418091
0.38540932536125183 0.045560382306575775 0.58994364738464355
0.62614768743515015 0.12705793976783752 0.6208568811416626
0.065992087125778198 0.11124906688928604 0.57477134466171265
0.1410890519618988 0.1157325878739357 0.57857078313827515
0.24686984717845917 0.12478705495595932 0.58580994606018066
0.39479285478591919 0.14478278160095215 0.59973883628845215
0.63297313451766968 0.19434952735900879 0.62809646129608154
0.10190321505069733 0.24439308047294617 0.59676247835159302
0.16626925766468048 0.24750480055809021 0.59970968961715698
0.2660335898399353 0.25349533557891846 0.60536891222000122
0.41043245792388916 0.26652789115905762 0.6167449951171875
0.64530682563781738 0.29961925745010376 0.64135217666625977
0.1542138010263443 0.41983744502067566 0.63177061080932617
0.20772421360015869 0.42182862758636475 0.63389235734939575
0.29900535941123962 0.42573520541191101 0.63802164793014526
0.43813386559486389 0.43433892726898193 0.64661544561386108
0.66843318939208984 0.45658856630325317 0.66636353731155396
0.26010268926620483 0.69481813907623291 0.69232416152954102
0.29807201027870178 0.69595515727996826 0.69374829530715942
0.37181863188743591 0.69821083545684814 0.69652628898620605
0.49700790643692017 0.70325726270675659 0.70243740081787109
0.71674072742462158 0.71671491861343384 0.71670699119567871
