subtle niceties LUT V2 beta 6 (SSH-TS reimagined).cube
TITLE "Generated by Resolve"
LUT_3D_SIZE 9
0.00817884 0.00727855 0.0100862
0.0587778 0.0127718 0.0104524
0.111315 0.02121 0.0148775
0.178027 0.0255436 0.0227207
0.251972 0.0265049 0.0371862
0.334417 0.0323644 0.0633402
0.441688 0.0520485 0.095201
0.579095 0.0857862 0.14609
0.847333 0.162692 0.259846
0.0148928 0.0694285 0.0121462
0.074876 0.0723735 0.0113222
0.151415 0.0627451 0.00967422
0.20441 0.0706645 0.0260624
0.270298 0.0829938 0.0392767
0.352865 0.0939956 0.0581369
0.462684 0.0959793 0.0902266
0.604425 0.103502 0.134005
0.871427 0.18262 0.250217
0.0198978 0.135729 0.0237888
0.0765698 0.144305 0.0232548
0.159762 0.148852 0.0121767
0.243015 0.141802 0.0112459
0.312261 0.147402 0.0179294
0.386954 0.163073 0.0442054
0.486061 0.183642 0.0830549
0.620829 0.20853 0.137118
0.892912 0.270253 0.237919
0.0106966 0.215137 0.0341344
0.0886549 0.221439 0.0437324
0.170977 0.233631 0.0149996
0.266087 0.236271 0.0033875
0.352316 0.236988 0.00366217
0.44213 0.241428 0.000610361
0.534813 0.263981 0.0412757
0.658137 0.296254 0.116533
0.912673 0.370962 0.230823
0 0.30869 0.0416876
0.0876631 0.31194 0.0771344
0.181537 0.32636 0.0324712
0.283207 0.338094 0.00537118
0.386267 0.34226 0
0.483955 0.347692 0.0034638
0.594003 0.359365 3.0518e-05
0.71754 0.386084 0.0578317
0.947082 0.462959 0.222034
0 0.418631 0.0554208
0.0603799 0.422431 0.101442
0.200824 0.4318 0.106218
0.292943 0.452903 0.0283665
0.414664 0.463432 0
0.525353 0.47332 0.00979629
0.647791 0.481621 0.046479
0.786267 0.498314 0.0838483
1 0.557137 0.240787
0 0.55433 0.0819867
0.0201419 0.558785 0.13846
0.228916 0.563638 0.181872
0.337972 0.584451 0.123644
0.443198 0.606119 0.0592355
0.568994 0.622446 0.0464485
0.685573 0.644678 0.108339
0.821469 0.66659 0.173083
1 0.676616 0.259098
0 0.720226 0.136522
0.0479591 0.723079 0.200031
0.292775 0.726024 0.255665
0.41207 0.745357 0.223072
0.506462 0.770016 0.206073
0.620722 0.79057 0.232502
0.737514 0.81474 0.260273
0.865568 0.836332 0.325521
1 0.858045 0.486976
0.306538 0.958862 0.347478
0.426825 0.963165 0.396017
0.514199 0.977401 0.398581
0.598444 0.991989 0.417853
0.690608 1 0.423056
0.815061 1 0.438834
0.901823 1 0.595422
0.936187 1 0.682277
1 1 0.656535
0.0205997 0.0210727 0.0669566
0.0707103 0.0232548 0.0756542
0.124681 0.027863 0.0816663
0.192523 0.0302892 0.0802777
0.266545 0.032105 0.0799268
0.349447 0.0361181 0.104005
0.451987 0.0574502 0.137423
0.586343 0.0934005 0.184421
0.852644 0.16849 0.29073
0.0297704 0.0785077 0.0722515
0.0854047 0.0848249 0.0745098
0.158846 0.0797589 0.0765087
0.22707 0.0802472 0.0643168
0.286854 0.0955673 0.0686351
0.361227 0.114214 0.081529
0.470405 0.118563 0.11162
0.610269 0.126497 0.163272
0.879149 0.199527 0.275807
0.01178 0.15407 0.0656901
0.0994125 0.157626 0.0722362
0.183841 0.160937 0.0623178
0.256077 0.15819 0.0818799
0.337133 0.156588 0.0579538
0.404562 0.171527 0.0959793
0.497627 0.197177 0.129656
0.629511 0.226139 0.168215
0.902708 0.286015 0.256992
0 0.236149 0.0536812
0.0988937 0.24242 0.0595712
0.185565 0.250767 0.0671855
0.271717 0.2589 0.0648661
0.367681 0.255787 0.069688
0.46595 0.250767 0.0688792
0.552331 0.273259 0.126925
0.671656 0.30602 0.184649
0.921523 0.386236 0.265843
0 0.323095 0.0629587
0.104509 0.328847 0.0959029
0.193332 0.342397 0.101152
0.28809 0.357 0.0876173
0.385397 0.368811 0.073106
0.496605 0.370398 0.0829786
0.624964 0.365957 0.0882887
0.738155 0.396353 0.166751
0.960494 0.472313 0.304387
0 0.427573 0.0775006
0.105715 0.433341 0.131014
0.218448 0.446586 0.14757
0.306966 0.469062 0.120134
0.419318 0.484321 0.10312
0.525063 0.500847 0.108492
0.654261 0.510689 0.132128
0.814145 0.51162 0.159625
1 0.568963 0.275151
0 0.563256 0.105531
0.0973068 0.568353 0.164324
0.254719 0.577295 0.207446
0.353597 0.600397 0.193668
0.45272 0.625177 0.174289
0.572824 0.64535 0.175326
0.691539 0.669902 0.205905
0.831373 0.689052 0.266087
1 0.701213 0.380743
0 0.729503 0.160281
0.143389 0.73254 0.222065
0.319448 0.739376 0.291173
0.425483 0.762921 0.285222
0.520531 0.788495 0.286641
0.631083 0.809735 0.314321
0.783795 0.826688 0.300145
0.930022 0.833402 0.386969
1 0.866224 0.546685
0.30515 0.975052 0.364172
0.429892 0.9823 0.396933
0.526513 0.994675 0.411826
0.622751 1 0.422705
0.724285 1 0.424949
0.841962 1 0.545647
0.908888 1 0.672709
0.945159 1 0.732647
0.984863 1 0.708171
0.0361791 0.0400244 0.133486
0.0879683 0.039353 0.139193
0.142565 0.039704 0.150179
0.202655 0.0445106 0.155337
0.272801 0.049012 0.161379
0.359014 0.0493019 0.167071
0.465385 0.0607156 0.186236
0.603052 0.0948501 0.225895
0.867109 0.170657 0.325399
0.0459754 0.0945907 0.13257
0.100114 0.0960861 0.141802
0.150683 0.106386 0.153887
0.224201 0.105653 0.163561
0.303639 0.105913 0.15758
0.393576 0.106279 0.141314
0.497887 0.112978 0.155962
0.626856 0.137957 0.204273
0.892134 0.215503 0.2981
0.0519112 0.161181 0.147616
0.11165 0.167346 0.156573
0.17882 0.177523 0.160861
0.261952 0.177569 0.171649
0.352544 0.173373 0.158984
0.429816 0.185336 0.1561
0.519966 0.211566 0.170428
0.641718 0.251164 0.19762
0.91104 0.311482 0.27776
0.0249638 0.247318 0.141466
0.0747997 0.263111 0.142565
0.204013 0.262379 0.170916
0.293812 0.275135 0.152285
0.380514 0.273671 0.183139
0.48394 0.271046 0.169146
0.586084 0.284092 0.162768
0.697398 0.319936 0.218616
0.932219 0.408713 0.31017
0 0.339162 0.149676
0.0612955 0.357473 0.132753
0.211032 0.365942 0.145068
0.327962 0.373724 0.14435
0.439628 0.373465 0.160983
0.509453 0.390967 0.203571
0.644114 0.386358 0.198093
0.77116 0.408682 0.208621
0.987625 0.483909 0.322942
0 0.450416 0.130526
0.061265 0.462333 0.150561
0.224018 0.474754 0.164767
0.325673 0.491859 0.179629
0.450706 0.503334 0.17731
0.557107 0.517128 0.199985
0.666728 0.533547 0.246693
0.833555 0.530068 0.274571
1 0.582498 0.313619
0 0.581842 0.138888
0.0734417 0.592615 0.189151
0.256397 0.604898 0.223835
0.36286 0.62501 0.244312
0.466865 0.647562 0.25388
0.608042 0.663615 0.240146
0.736324 0.68043 0.284291
0.85037 0.706645 0.36083
1 0.731609 0.483146
0 0.744884 0.192477
0.142733 0.754177 0.253239
0.317723 0.767849 0.296727
0.434928 0.788067 0.31812
0.540169 0.811017 0.332433
0.67628 0.827771 0.34078
0.85391 0.828397 0.356497
0.947265 0.851591 0.463325
1 0.90016 0.602502
0.294026 0.995514 0.377798
0.433417 1 0.402564
0.545815 1 0.415259
0.652338 1 0.426383
0.763317 1 0.52163
0.861357 1 0.647196
0.921447 1 0.723369
0.981598 1 0.82211
0.984146 1 0.818158
0.0591135 0.068986 0.205753
0.10573 0.0666667 0.213397
0.163516 0.0605325 0.223529
0.22385 0.0609293 0.234699
0.291752 0.0649729 0.240589
0.368414 0.074876 0.252644
0.476356 0.0769513 0.266606
0.615488 0.0944076 0.289128
0.885054 0.17113 0.370565
0.0709392 0.109041 0.217594
0.123919 0.116945 0.216281
0.171221 0.125673 0.225849
0.233097 0.132219 0.24181
0.307546 0.132692 0.256565
0.39353 0.138613 0.261097
0.505058 0.143374 0.263355
0.64509 0.155459 0.276921
0.913573 0.212512 0.356878
0.0821241 0.183276 0.208713
0.134447 0.185962 0.223224
0.194217 0.189639 0.242008
0.258518 0.201633 0.256657
0.337163 0.207507 0.271168
0.438819 0.20679 0.267735
0.550958 0.214664 0.256886
0.685374 0.23917 0.246433
0.928618 0.341039 0.303487
0.0715801 0.258717 0.236789
0.145617 0.263813 0.253422
0.198383 0.280598 0.259403
0.292256 0.290089 0.268971
0.384009 0.294469 0.286931
0.495125 0.293294 0.281758
0.609918 0.299611 0.270893
0.725017 0.335912 0.288045
0.95668 0.423224 0.352193
0.0378729 0.353567 0.238712
0.0884871 0.37113 0.246342
0.190249 0.387533 0.253117
0.32575 0.390158 0.281758
0.423957 0.407782 0.270848
0.518502 0.415396 0.307408
0.661112 0.409964 0.305425
0.801419 0.42359 0.297932
1 0.500786 0.358755
0 0.464332 0.236011
0.0267338 0.482338 0.263478
0.196475 0.502297 0.250813
0.350301 0.510384 0.279545
0.463371 0.524941 0.289738
0.590219 0.534508 0.291569
0.700679 0.545724 0.349386
0.838788 0.561074 0.385336
1 0.60415 0.41004
0 0.599939 0.256474
0 0.626627 0.235889
0.222354 0.640909 0.246067
0.37911 0.656596 0.26392
0.497826 0.674235 0.291127
0.649409 0.681697 0.313146
0.780316 0.69221 0.368063
0.891936 0.714549 0.446097
1 0.758877 0.554452
0 0.772976 0.252003
0.0336004 0.78677 0.287098
0.296742 0.801282 0.312367
0.448203 0.819623 0.323842
0.569848 0.839231 0.339132
0.712077 0.846052 0.402502
0.820005 0.863279 0.478248
0.927886 0.887648 0.541863
1 0.926299 0.697887
0.280293 1 0.402152
0.437644 1 0.415198
0.569284 1 0.42472
0.692149 1 0.52491
0.804196 1 0.636728
0.89134 1 0.722515
0.968338 1 0.811597
0.99147 1 0.920562
0.985367 0.996017 0.961013
0.0945449 0.106325 0.287312
0.131167 0.0978561 0.300465
0.180316 0.10869 0.298131
0.249027 0.0845502 0.319051
0.314611 0.0868849 0.329473
0.394522 0.0887312 0.338354
0.489708 0.108919 0.357076
0.632303 0.126772 0.382071
0.903319 0.175463 0.435798
0.103914 0.139605 0.301427
0.148241 0.146181 0.302068
0.191852 0.153948 0.309194
0.260334 0.149828 0.326024
0.327993 0.157626 0.340826
0.412482 0.160906 0.35436
0.511757 0.176059 0.367819
0.654414 0.18555 0.386313
0.932998 0.235767 0.424414
0.114733 0.196048 0.312169
0.162127 0.199741 0.318273
0.220508 0.210193 0.3205
0.276692 0.222461 0.336568
0.343145 0.237736 0.354116
0.434699 0.240055 0.376989
0.545495 0.251942 0.386557
0.690761 0.267277 0.386892
0.971252 0.31725 0.380362
0.118029 0.286549 0.296345
0.161822 0.291386 0.31696
0.234089 0.297078 0.332433
0.307362 0.301808 0.361654
0.39147 0.316518 0.373281
0.494118 0.31725 0.396414
0.609216 0.331075 0.396857
0.751766 0.347509 0.391394
0.988266 0.432166 0.415839
0.0994888 0.36878 0.336873
0.178912 0.376928 0.35378
0.256596 0.38378 0.380713
0.353277 0.405783 0.363073
0.425162 0.422339 0.394247
0.531487 0.429114 0.423377
0.667002 0.436088 0.423789
0.813138 0.449485 0.422751
1 0.517845 0.45716
0.0826886 0.474617 0.355291
0.155352 0.492927 0.363226
0.214618 0.515511 0.375418
0.33022 0.534112 0.388327
0.467414 0.543832 0.40853
0.579095 0.565499 0.407507
0.688319 0.583185 0.451713
0.852644 0.587121 0.480079
1 0.617136 0.495384
0 0.619867 0.338903
0.0724041 0.636545 0.374792
0.17641 0.662623 0.380926
0.370367 0.67689 0.398688
0.518563 0.685359 0.441093
0.628107 0.709438 0.453727
0.76524 0.729137 0.463478
0.886961 0.74844 0.529732
1 0.793927 0.637003
0 0.783673 0.391684
0 0.808454 0.401205
0.23122 0.831861 0.392981
0.455039 0.840482 0.428367
0.594903 0.849744 0.483238
0.714137 0.86154 0.537667
0.808728 0.889372 0.573602
0.924636 0.910369 0.635538
1 0.948455 0.801099
0.244404 1 0.438575
0.445502 1 0.478645
0.604334 1 0.542367
0.730999 1 0.632898
0.847944 1 0.731304
0.924437 1 0.772671
0.992737 1 0.914168
0.985367 0.996017 0.961013
0.985367 0.996017 0.961013
0.139727 0.148165 0.384878
0.168185 0.143999 0.394781
0.207248 0.145205 0.401068
0.267735 0.148867 0.403784
0.345693 0.112108 0.429541
0.420966 0.118532 0.440726
0.522423 0.12314 0.454994
0.652216 0.1635 0.487022
0.929061 0.207996 0.537972
0.146304 0.181659 0.397162
0.181903 0.185672 0.400183
0.22005 0.182589 0.414969
0.279957 0.197391 0.413062
0.360616 0.175784 0.440604
0.436561 0.188708 0.454551
0.539925 0.19617 0.470527
0.666285 0.226612 0.494667
0.946975 0.268696 0.53106
0.155413 0.219669 0.418952
0.19443 0.228809 0.417319
0.247196 0.238911 0.419532
0.298299 0.254765 0.426749
0.376974 0.253162 0.451072
0.45333 0.272068 0.468864
0.562234 0.279225 0.492866
0.692668 0.305638 0.512596
0.970718 0.356298 0.531945
0.154971 0.298985 0.422751
0.206928 0.305547 0.428794
0.266087 0.311437 0.439628
0.336416 0.325063 0.447242
0.401663 0.340398 0.469337
0.476158 0.365988 0.489387
0.589303 0.378378 0.518364
0.737957 0.392905 0.536507
1 0.447318 0.545251
0.149371 0.402655 0.404211
0.203616 0.411719 0.419104
0.264042 0.419684 0.444297
0.359899 0.426413 0.46508
0.44036 0.433845 0.504204
0.545968 0.446433 0.527474
0.681788 0.450492 0.545434
0.809277 0.484245 0.553658
1 0.529259 0.558358
0.137789 0.496818 0.454093
0.219547 0.507729 0.472908
0.310369 0.517052 0.497673
0.393729 0.534218 0.515282
0.489982 0.562844 0.501823
0.581949 0.580423 0.542
0.708385 0.590021 0.587121
0.857649 0.611612 0.597803
1 0.656687 0.624674
0.138506 0.625895 0.4869
0.218112 0.645579 0.496437
0.279805 0.669139 0.511711
0.384085 0.693507 0.520607
0.502327 0.712322 0.545052
0.642481 0.728496 0.560922
0.763821 0.752194 0.58323
0.876326 0.769589 0.663676
1 0.828 0.72578
0.0128939 0.806027 0.471778
0.161151 0.822187 0.510582
0.247501 0.848356 0.521935
0.404379 0.86894 0.534951
0.596674 0.866911 0.598032
0.734737 0.871717 0.651881
0.815442 0.913634 0.644617
0.931258 0.925765 0.732174
0.983764 0.978851 0.86836
0.223056 1 0.548745
0.444785 1 0.580179
0.630106 1 0.646357
0.773297 1 0.730587
0.886137 1 0.793194
0.978042 1 0.84715
0.985367 0.996017 0.961013
0.985367 0.996017 0.961013
0.985367 0.996017 0.961013
0.202716 0.208804 0.514015
0.222721 0.201984 0.520302
0.250904 0.193652 0.531273
0.30219 0.205203 0.528069
0.370687 0.199435 0.536843
0.462226 0.151247 0.56788
0.55819 0.164569 0.584161
0.692638 0.181689 0.608255
0.962478 0.280354 0.677989
0.20531 0.241535 0.520073
0.230411 0.241306 0.52253
0.262776 0.235767 0.534936
0.314229 0.239002 0.541924
0.38439 0.244175 0.547158
0.476814 0.21323 0.578546
0.571267 0.231083 0.595361
0.703334 0.248692 0.617868
0.964096 0.328222 0.668498
0.207889 0.269535 0.541787
0.239734 0.275303 0.540932
0.284825 0.282429 0.543572
0.332845 0.285649 0.558755
0.401022 0.305592 0.557244
0.494224 0.292103 0.589654
0.588037 0.316747 0.609583
0.721019 0.334432 0.635554
0.972824 0.403388 0.680385
0.213642 0.318334 0.567529
0.25301 0.329564 0.56492
0.303807 0.342489 0.562875
0.372244 0.356115 0.565377
0.4271 0.378866 0.574838
0.517143 0.383459 0.604685
0.608118 0.415564 0.627115
0.745922 0.431464 0.663539
0.992432 0.494545 0.702571
0.20415 0.416831 0.562661
0.259937 0.425803 0.567636
0.322591 0.434989 0.576364
0.394919 0.443412 0.592828
0.474098 0.461067 0.60412
0.55082 0.481575 0.631144
0.643473 0.516045 0.655253
0.784833 0.536324 0.689632
1 0.583749 0.714046
0.192828 0.538491 0.539498
0.261616 0.55079 0.547448
0.312734 0.559503 0.580468
0.392905 0.574228 0.600687
0.509407 0.580682 0.626398
0.599619 0.590097 0.676753
0.719112 0.605035 0.717708
0.887922 0.619638 0.718868
1 0.688899 0.746731
0.199069 0.652964 0.598901
0.287587 0.664469 0.620584
0.383261 0.675868 0.6439
0.471 0.68751 0.679545
0.549493 0.710552 0.700267
0.671351 0.745068 0.66833
0.76849 0.766903 0.718135
0.888792 0.781338 0.781674
1 0.847456 0.831891
0.238071 0.808179 0.64152
0.331197 0.82472 0.656245
0.39939 0.845884 0.673106
0.469291 0.870741 0.68957
0.603876 0.883055 0.714565
0.751598 0.889845 0.739559
0.862791 0.916091 0.745495
0.945022 0.93669 0.827558
0.986709 0.99881 0.92372
0.330159 1 0.66067
0.479393 1 0.681025
0.653101 1 0.740047
0.826673 1 0.81706
0.94342 1 0.833844
0.98587 0.995926 0.9552
0.985367 0.996017 0.961013
0.985367 0.996017 0.961013
0.985367 0.996017 0.961013
0.297429 0.301717 0.700725
0.310262 0.291005 0.701411
0.331289 0.279011 0.707012
0.368383 0.271046 0.712505
0.425696 0.285908 0.703578
0.504494 0.273182 0.715953
0.617853 0.212818 0.753796
0.741054 0.236606 0.775189
0.987259 0.314397 0.820264
0.294835 0.33344 0.696025
0.309743 0.325673 0.69604
0.333806 0.316243 0.701946
0.370245 0.303365 0.715084
0.43064 0.314855 0.709987
0.511604 0.311345 0.719188
0.625238 0.267475 0.756695
0.745586 0.296391 0.777325
0.986526 0.367636 0.820859
0.291112 0.353048 0.71284
0.314 0.353277 0.706966
0.345846 0.352377 0.707042
0.385855 0.346746 0.719005
0.444572 0.35555 0.722103
0.525551 0.367422 0.725643
0.639185 0.344121 0.762783
0.755047 0.379171 0.783932
0.985702 0.446906 0.829847
0.288609 0.385748 0.734752
0.317357 0.389624 0.728191
0.35819 0.39556 0.725246
0.414633 0.406729 0.723751
0.469352 0.414878 0.738369
0.545602 0.443381 0.73463
0.657893 0.438804 0.77142
0.768917 0.48127 0.794217
0.987884 0.541665 0.849378
0.287449 0.445884 0.753277
0.327108 0.449928 0.751842
0.376806 0.462913 0.747112
0.43978 0.479423 0.744106
0.520348 0.495796 0.74519
0.579812 0.526146 0.754696
0.684337 0.540368 0.786358
0.786221 0.589975 0.808927
0.996002 0.649409 0.856687
0.270451 0.557534 0.742092
0.326894 0.565774 0.743175
0.392798 0.57705 0.748028
0.467353 0.588937 0.757671
0.546807 0.599741 0.776455
0.636347 0.621576 0.787564
0.724041 0.650721 0.81471
0.833936 0.69163 0.835187
1 0.718868 0.871717
0.258915 0.70399 0.704601
0.33901 0.716899 0.706981
0.391501 0.726833 0.736507
0.468467 0.738689 0.763104
0.574807 0.751507 0.779751
0.689097 0.760723 0.806287
0.788342 0.772183 0.85713
0.903578 0.803571 0.872953
1 0.882246 0.906432
0.316777 0.832685 0.771664
0.409949 0.841657 0.790265
0.51017 0.848371 0.813733
0.595956 0.855619 0.847135
0.680369 0.877974 0.846525
0.790906 0.906523 0.814664
0.900053 0.921798 0.836088
0.954604 0.953582 0.894194
0.982406 0.998016 0.958419
0.508507 1 0.819776
0.594232 1 0.81709
0.72755 1 0.850187
0.886458 1 0.867964
0.987884 1 0.89633
0.985367 0.996017 0.961013
0.985367 0.996017 0.961013
0.985367 0.996017 0.961013
0.985367 0.996017 0.961013
0.5561 0.517968 1
0.555734 0.500328 1
0.561654 0.482292 1
0.577798 0.465095 1
0.612329 0.4654 1
0.661952 0.470665 1
0.74168 0.448295 1
0.863478 0.38471 1
0.985962 0.413504 1
0.53753 0.528862 1
0.538781 0.51284 1
0.546365 0.496727 1
0.562768 0.479301 1
0.595254 0.470695 1
0.648371 0.478721 1
0.729397 0.471672 1
0.853773 0.420569 1
0.984909 0.455055 1
0.522881 0.545449 1
0.526253 0.531991 1
0.535683 0.518959 1
0.554452 0.505409 1
0.583871 0.490974 1
0.640024 0.499107 1
0.721447 0.511498 1
0.847486 0.478248 1
0.983063 0.523445 1
0.499641 0.562585 1
0.511055 0.555505 1
0.52958 0.550729 1
0.552422 0.543481 1
0.586389 0.535973 1
0.639826 0.535622 1
0.721691 0.568536 1
0.847471 0.556802 1
0.979553 0.618479 1
0.475502 0.589822 1
0.491493 0.58616 1
0.515755 0.585779 1
0.551858 0.588098 1
0.603494 0.594049 1
0.658579 0.598428 1
0.739406 0.633158 1
0.855619 0.646403 1
0.973816 0.722728 1
0.452537 0.633951 1
0.476753 0.635416 1
0.5122 0.640589 1
0.561044 0.650767 1
0.624292 0.665095 1
0.707637 0.683253 1
0.775464 0.713817 1
0.87013 0.74313 1
0.966186 0.829755 1
0.417227 0.743877 1
0.462715 0.747494 1
0.519738 0.754574 1
0.585977 0.765332 1
0.658457 0.776349 1
0.737957 0.790677 1
0.827253 0.814725 1
0.900267 0.847517 1
0.984543 0.927794 0.97644
0.43856 0.896468 0.988464
0.505974 0.903716 0.977401
0.558785 0.909316 0.980529
0.615961 0.915465 0.98677
0.695247 0.924773 0.980072
0.805631 0.929885 0.967559
0.920821 0.926497 0.976532
0.974121 0.974914 0.924895
0.985367 0.996017 0.961013
0.679744 1 0.98999
0.771634 0.989151 1
0.809659 1 1
0.951904 1 0.931548
0.985534 0.997299 0.956008
0.985367 0.996017 0.961013
0.985367 0.996017 0.961013
0.985367 0.996017 0.961013
0.985367 0.996017 0.961013
