subtle niceties LUT V2 beta 8 (SSH-TS reimagined).cube
TITLE "Generated by Resolve"
LUT_3D_SIZE 33
0.0135653 0.0119173 0.0166323
0.0270237 0.0133059 0.018204
0.0361028 0.0162356 0.0200198
0.0533761 0.0155184 0.0177462
0.0662394 0.0163272 0.0164645
0.0725414 0.0201877 0.0189975
0.0795911 0.0235904 0.0212406
0.0898909 0.0268101 0.0231937
0.105379 0.0274815 0.0231479
0.122072 0.0278782 0.0226444
0.138598 0.0279088 0.022446
0.156619 0.0273289 0.0219577
0.172045 0.0287327 0.0226749
0.187106 0.0305333 0.0239109
0.202625 0.0323033 0.02533
0.21886 0.0345617 0.0270848
0.235798 0.0370489 0.0290837
0.253285 0.039765 0.0311894
0.271748 0.0425269 0.0335699
0.29073 0.0457008 0.0361181
0.310369 0.0493629 0.0390784
0.332525 0.0538949 0.0424964
0.357031 0.0597391 0.0467994
0.380972 0.0657054 0.0510109
0.406241 0.0718853 0.0552987
0.433814 0.0783856 0.0607614
0.463706 0.0854505 0.0670481
0.496376 0.0944686 0.0751965
0.532219 0.105852 0.0856794
0.573419 0.11931 0.0975357
0.620325 0.13434 0.111742
0.679973 0.153124 0.130755
0.781826 0.185153 0.163165
0.0153048 0.0271 0.0206607
0.0292668 0.0274815 0.0222324
0.04448 0.0277562 0.0198825
0.0584268 0.0287022 0.0175021
0.0698863 0.0286259 0.0196536
0.080415 0.029221 0.0221256
0.0914168 0.0302281 0.0223697
0.102541 0.0320287 0.0231479
0.114275 0.0344854 0.0239719
0.12755 0.0366064 0.0239567
0.141497 0.0383154 0.0244755
0.157565 0.039704 0.0248722
0.173953 0.0403601 0.0252079
0.190066 0.0415198 0.0260471
0.205905 0.043061 0.0279698
0.22237 0.0450294 0.0297246
0.2392 0.0471504 0.0314183
0.256931 0.0495918 0.0335241
0.275364 0.0521859 0.035874
0.29453 0.055024 0.0384527
0.314275 0.0583047 0.0413367
0.336339 0.0626078 0.0447089
0.360525 0.0683604 0.0488289
0.384039 0.0740978 0.0530098
0.409339 0.0787671 0.057023
0.43714 0.0834363 0.0617838
0.467155 0.0875715 0.0674144
0.49987 0.0960098 0.0754253
0.535714 0.107729 0.0860914
0.576974 0.121645 0.0975814
0.624704 0.136263 0.111742
0.684306 0.15494 0.130877
0.785458 0.18674 0.163256
0.0212558 0.0398566 0.021912
0.0295872 0.0417639 0.0234531
0.0422522 0.043534 0.0213474
0.0577249 0.0430304 0.0205234
0.0725719 0.0435492 0.0172885
0.0872816 0.0432746 0.0161746
0.098436 0.0435187 0.0178225
0.110948 0.0437934 0.0196231
0.124666 0.0440833 0.0213626
0.137026 0.0456703 0.0224613
0.149401 0.0479591 0.023682
0.162951 0.0508431 0.0247501
0.177539 0.0531472 0.0255131
0.193133 0.0547646 0.0261845
0.209491 0.0557412 0.0281529
0.225864 0.0570687 0.0305638
0.242985 0.0585946 0.033402
0.260639 0.0605936 0.0360876
0.279347 0.0630198 0.0384222
0.298497 0.0657664 0.0409247
0.318364 0.0688182 0.0438239
0.340444 0.0727398 0.0469978
0.36437 0.0773327 0.0508583
0.387793 0.0823987 0.0547951
0.412329 0.0881056 0.0591897
0.440177 0.092195 0.0639963
0.470512 0.0967422 0.0698863
0.503044 0.105913 0.0782788
0.538872 0.11574 0.0877394
0.580438 0.124392 0.0976577
0.628931 0.138216 0.111589
0.688563 0.158556 0.130907
0.789288 0.191531 0.163821
0.0298772 0.0506142 0.0262913
0.0312505 0.0552987 0.02533
0.0416266 0.0581521 0.0224155
0.0574655 0.059144 0.0189517
0.0772106 0.057084 0.0167697
0.0933394 0.057023 0.0127413
0.10428 0.0575113 0.0123293
0.119036 0.0573129 0.0123751
0.133165 0.0566567 0.0157626
0.145541 0.0572213 0.0185092
0.157992 0.0586557 0.0206455
0.171389 0.0609903 0.0229953
0.184512 0.0636606 0.0254215
0.198077 0.0669871 0.0274815
0.213657 0.0686503 0.028809
0.230167 0.070222 0.030808
0.247333 0.0717632 0.033463
0.265019 0.0737163 0.0363928
0.283513 0.0759289 0.0397192
0.302586 0.0787823 0.0433967
0.322316 0.0821698 0.0462196
0.344533 0.0858167 0.0496223
0.368597 0.0902876 0.0534829
0.392203 0.0949111 0.0575723
0.416922 0.100053 0.0621958
0.444022 0.105821 0.0678416
0.473686 0.111955 0.0744793
0.506279 0.11812 0.0818799
0.542336 0.123339 0.0895094
0.583932 0.131029 0.0990616
0.632715 0.146746 0.113207
0.693217 0.162112 0.130907
0.793179 0.19556 0.164126
0.0279088 0.0658579 0.0234226
0.032929 0.0680552 0.0255436
0.0451972 0.0704509 0.0221103
0.057496 0.0731212 0.0181125
0.076173 0.0715953 0.0172885
0.0962539 0.0695659 0.0151675
0.108492 0.070222 0.0134432
0.123018 0.0706645 0.0131991
0.140276 0.0688945 0.0125277
0.153292 0.0681773 0.0159762
0.165988 0.0690623 0.0188602
0.179416 0.0706493 0.0213474
0.192462 0.0731365 0.0238041
0.205905 0.0763867 0.0261997
0.219409 0.0801709 0.0284428
0.234348 0.0842451 0.0305638
0.25156 0.085481 0.0333562
0.269337 0.0875715 0.0361639
0.287907 0.0900587 0.0392462
0.306737 0.0927749 0.0424659
0.326528 0.0953841 0.0466926
0.348486 0.0988022 0.0517433
0.372671 0.102876 0.0562448
0.396368 0.107057 0.0605478
0.421118 0.111681 0.0651713
0.44828 0.11725 0.0709392
0.477638 0.123812 0.0775616
0.509453 0.130907 0.0852216
0.545174 0.137667 0.09337
0.586847 0.145541 0.103365
0.635752 0.155901 0.115633
0.697139 0.169635 0.132219
0.796948 0.202274 0.165362
0.0297856 0.0790112 0.0237278
0.0373541 0.0819409 0.0251011
0.0475624 0.0840925 0.0249943
0.0611582 0.0859236 0.0215915
0.0730602 0.087892 0.0187076
0.0923781 0.0862135 0.0184329
0.114122 0.0833295 0.0147555
0.127565 0.0847486 0.0145113
0.143084 0.0843824 0.0141909
0.15964 0.0828412 0.0131228
0.174563 0.0820172 0.0152285
0.188342 0.0832227 0.0182956
0.201663 0.0852674 0.0210575
0.215076 0.0880751 0.0235752
0.22855 0.0913863 0.026154
0.242771 0.0955367 0.0282902
0.257755 0.0991989 0.0318303
0.27425 0.10219 0.0352483
0.292668 0.104356 0.0382544
0.311711 0.106462 0.0418402
0.331365 0.109178 0.0457313
0.353445 0.112291 0.0508736
0.377218 0.116335 0.0565042
0.400687 0.120745 0.062623
0.425437 0.125521 0.0682536
0.452613 0.130861 0.0738994
0.481987 0.136889 0.0805219
0.513924 0.143755 0.0885481
0.549172 0.150958 0.0973831
0.590021 0.159854 0.107866
0.63888 0.169482 0.119417
0.700877 0.183642 0.135622
0.800793 0.215641 0.16849
0.0328679 0.0924544 0.0260014
0.0408789 0.0949264 0.0263371
0.0495155 0.0975357 0.0266575
0.0634928 0.0994736 0.0240482
0.0759594 0.101427 0.0214237
0.0888533 0.103334 0.0191501
0.111543 0.101808 0.0175021
0.132509 0.100237 0.015198
0.145724 0.101656 0.0150759
0.161105 0.10164 0.0146181
0.179385 0.0996872 0.0141146
0.197742 0.0975967 0.0140536
0.211353 0.0984817 0.0174258
0.224704 0.100282 0.0206607
0.238392 0.103197 0.0228122
0.252094 0.106279 0.0256199
0.266804 0.110033 0.0280766
0.282307 0.11371 0.0318303
0.299001 0.117861 0.0359655
0.316976 0.120958 0.0405585
0.336721 0.123781 0.0446479
0.35874 0.126741 0.0496834
0.382757 0.130663 0.0554818
0.406043 0.134707 0.0613413
0.430625 0.139315 0.0682231
0.457313 0.14432 0.0762341
0.486534 0.149935 0.0839246
0.518334 0.156268 0.0915541
0.553628 0.163897 0.100679
0.594202 0.173297 0.111254
0.642283 0.18436 0.123827
0.704265 0.197299 0.139239
0.804486 0.228397 0.171481
0.0357824 0.109209 0.0290837
0.0445716 0.11191 0.028397
0.0537118 0.114717 0.0271
0.063508 0.117876 0.0251926
0.0768749 0.119341 0.0233921
0.0927749 0.120806 0.0210117
0.108431 0.122621 0.0178836
0.131685 0.120821 0.0179141
0.149859 0.120256 0.0163272
0.164279 0.121218 0.0157168
0.181567 0.120119 0.0153658
0.201556 0.117922 0.0149691
0.220233 0.115419 0.014374
0.235981 0.114839 0.0157015
0.249775 0.116716 0.018677
0.263615 0.119677 0.0213626
0.278111 0.123613 0.0238956
0.293187 0.127153 0.0276951
0.309575 0.131334 0.031754
0.32665 0.135424 0.0364233
0.34461 0.139788 0.0419623
0.365301 0.144106 0.0475624
0.389258 0.147372 0.0533913
0.412421 0.15111 0.0592508
0.436805 0.155657 0.0655833
0.463523 0.160494 0.0737926
0.492363 0.166079 0.0839399
0.524041 0.17261 0.09514
0.55906 0.179675 0.105058
0.599557 0.188479 0.115068
0.647196 0.198947 0.127352
0.70837 0.213825 0.143694
0.80911 0.242832 0.174563
0.0366522 0.126253 0.0344091
0.0469673 0.128435 0.0333104
0.0564736 0.131212 0.0315251
0.0656291 0.134142 0.0295567
0.0756085 0.13666 0.0271763
0.0945144 0.137911 0.0246891
0.11191 0.139254 0.0210727
0.130007 0.140734 0.0167849
0.150835 0.139467 0.0173495
0.167575 0.139666 0.0157473
0.183459 0.140383 0.0151369
0.204959 0.137804 0.0151827
0.224384 0.135286 0.014786
0.24303 0.133333 0.0142519
0.261158 0.131594 0.0139467
0.275685 0.133593 0.016907
0.289616 0.137377 0.0192264
0.304494 0.141024 0.0226902
0.3205 0.145159 0.0262608
0.337316 0.149233 0.0309453
0.354849 0.153521 0.0362402
0.37496 0.158495 0.0427253
0.396857 0.164004 0.0505684
0.419562 0.1682 0.0576791
0.44387 0.172335 0.064271
0.470436 0.176959 0.072343
0.499138 0.182437 0.0819257
0.530358 0.188724 0.0927901
0.564813 0.196017 0.104845
0.604746 0.204898 0.11899
0.65243 0.215457 0.131563
0.712932 0.229603 0.147417
0.814588 0.25774 0.177768
0.0347906 0.143359 0.0399176
0.0488746 0.144854 0.0377813
0.0583963 0.147219 0.0360418
0.0684215 0.150011 0.0335241
0.0795911 0.152865 0.0298466
0.095964 0.155047 0.0260471
0.114015 0.155917 0.0229801
0.133806 0.157244 0.0176242
0.151812 0.158602 0.0152438
0.170397 0.15816 0.0150607
0.186648 0.159014 0.0138857
0.207477 0.157549 0.0141756
0.22829 0.1552 0.0144045
0.247883 0.153277 0.0141146
0.266606 0.151553 0.0138094
0.285206 0.150469 0.0138247
0.301915 0.151644 0.0145571
0.316503 0.155581 0.0175326
0.332021 0.159487 0.0212558
0.348486 0.163668 0.0255131
0.365759 0.16791 0.0303655
0.385504 0.172778 0.0365606
0.407095 0.178073 0.0442512
0.428473 0.183413 0.0521859
0.451179 0.189105 0.0611276
0.477516 0.193912 0.0699168
0.506203 0.199359 0.0794537
0.537331 0.205478 0.0906691
0.571466 0.212619 0.102251
0.611093 0.221118 0.11632
0.657649 0.231586 0.133074
0.71783 0.246067 0.151354
0.819333 0.272312 0.180377
0.0340276 0.160678 0.0429541
0.049546 0.161791 0.0408637
0.0596933 0.164248 0.0386053
0.0710918 0.166674 0.03505
0.0836957 0.169604 0.0312505
0.0965744 0.172702 0.0263981
0.114305 0.17406 0.0234073
0.135714 0.175082 0.0197452
0.155489 0.176455 0.0143282
0.173022 0.177493 0.0136568
0.191653 0.178042 0.0132296
0.21149 0.177722 0.0132906
0.231647 0.176455 0.0138705
0.252369 0.174365 0.0141146
0.272465 0.172335 0.0139773
0.291432 0.171313 0.0131991
0.309804 0.17145 0.0121767
0.328939 0.17113 0.01178
0.34464 0.17496 0.0151369
0.360723 0.179156 0.0189822
0.377874 0.183597 0.0235904
0.397131 0.188251 0.0296941
0.41854 0.193668 0.0369116
0.439567 0.198734 0.0446784
0.461891 0.204364 0.0532387
0.486534 0.210651 0.0636759
0.513771 0.217243 0.075761
0.544594 0.223239 0.0868238
0.578851 0.230091 0.0995804
0.618158 0.238453 0.114153
0.664225 0.248905 0.130404
0.723293 0.26302 0.151614
0.824582 0.288869 0.183825
0.033753 0.179446 0.0434272
0.0489357 0.180621 0.0434119
0.0606394 0.182773 0.0417029
0.0736248 0.185443 0.0387579
0.0867781 0.188037 0.0355993
0.100038 0.191012 0.0313268
0.113176 0.194186 0.0256504
0.135698 0.195514 0.0229191
0.157122 0.196551 0.0187991
0.177035 0.197879 0.012604
0.195727 0.198932 0.012604
0.216388 0.199084 0.0124971
0.236515 0.198627 0.012665
0.256291 0.197665 0.0132296
0.277928 0.195163 0.0135958
0.29839 0.193759 0.0136568
0.31722 0.193805 0.0120851
0.336278 0.19411 0.0110781
0.35613 0.194369 0.0101167
0.374624 0.196246 0.0109712
0.391318 0.200702 0.0152132
0.410208 0.205493 0.0208896
0.431235 0.210758 0.0277562
0.452094 0.2159 0.0356298
0.474037 0.221302 0.0442817
0.498436 0.227634 0.0545815
0.524804 0.234363 0.0665904
0.55375 0.242069 0.0816358
0.586786 0.249363 0.0960555
0.625879 0.257664 0.110246
0.671717 0.267872 0.127321
0.730159 0.281834 0.148455
0.829679 0.307515 0.185092
0.0268406 0.198947 0.0499123
0.0431983 0.200122 0.0504158
0.0603952 0.201755 0.049546
0.0740063 0.204227 0.0472114
0.0879988 0.2065 0.0438087
0.102449 0.209369 0.038819
0.116579 0.212619 0.0325017
0.13402 0.216037 0.0252079
0.157412 0.216739 0.0218509
0.179706 0.217731 0.0162051
0.200732 0.218982 0.00868238
0.220935 0.219928 0.0100557
0.241825 0.219532 0.0102083
0.26215 0.218891 0.0109102
0.282292 0.218189 0.0118715
0.303853 0.216526 0.012665
0.324468 0.215595 0.0121767
0.343313 0.216449 0.00985733
0.363394 0.216983 0.00868238
0.384009 0.217441 0.00823987
0.405356 0.217624 0.00831617
0.423865 0.222492 0.0133974
0.44445 0.227955 0.01944
0.464851 0.233112 0.0264134
0.486397 0.238727 0.0337224
0.510353 0.244602 0.0440375
0.536614 0.251408 0.0565652
0.565255 0.258824 0.0713512
0.59678 0.267384 0.0880446
0.633753 0.277089 0.106401
0.679225 0.287114 0.123461
0.737255 0.300526 0.145525
0.835447 0.325612 0.181643
0.0203555 0.218753 0.0561379
0.0387579 0.219791 0.0566262
0.0583658 0.22089 0.05626
0.0742657 0.222858 0.0539101
0.0891127 0.225452 0.0505531
0.105013 0.22826 0.0447089
0.120211 0.231113 0.0372625
0.1364 0.235065 0.0277256
0.157656 0.237324 0.0208286
0.181292 0.237842 0.0159609
0.203601 0.238972 0.0105745
0.226413 0.240269 0.00454719
0.245853 0.241535 0.00816358
0.26714 0.241276 0.00906386
0.287968 0.240574 0.010605
0.308751 0.240085 0.0120851
0.330892 0.238636 0.0129397
0.351659 0.238285 0.0117647
0.371054 0.23949 0.00889601
0.391485 0.240131 0.00669871
0.41265 0.241077 0.00581369
0.436423 0.241703 0.00534066
0.458091 0.245441 0.00967422
0.47834 0.250858 0.0163882
0.499611 0.256245 0.0240482
0.52311 0.262303 0.033051
0.54876 0.268894 0.0440528
0.577035 0.276219 0.0580301
0.608209 0.284596 0.0753185
0.644358 0.294575 0.0971389
0.686992 0.306645 0.119982
0.744396 0.319844 0.141711
0.841337 0.344396 0.178424
0.0136721 0.238865 0.061265
0.0342718 0.239658 0.0614328
0.0550088 0.240772 0.0604715
0.0750134 0.242374 0.0572366
0.0923171 0.24477 0.0512398
0.109514 0.247532 0.0435645
0.124834 0.250446 0.0354314
0.141238 0.254078 0.0289464
0.157351 0.258274 0.0213474
0.180453 0.259464 0.0200504
0.204273 0.260746 0.0166171
0.228595 0.262013 0.00987259
0.250721 0.263386 0.00476081
0.270893 0.264332 0.00775158
0.292638 0.263706 0.00875868
0.314229 0.263172 0.00987259
0.336263 0.262211 0.0113069
0.358999 0.260822 0.011902
0.379309 0.261997 0.00927749
0.399527 0.263142 0.00654612
0.420554 0.264317 0.00410468
0.4439 0.265354 0.00268559
0.469841 0.26598 0.00247196
0.492454 0.268879 0.0052491
0.513451 0.27454 0.0125277
0.53666 0.280613 0.0214389
0.562081 0.287175 0.0331426
0.58967 0.294423 0.0463417
0.620462 0.302678 0.0628672
0.65594 0.312291 0.0838331
0.698161 0.324239 0.108736
0.751949 0.340047 0.138231
0.847486 0.364172 0.174792
0.0127718 0.258824 0.0629435
0.0332341 0.259968 0.0627909
0.0543069 0.261021 0.0620737
0.076585 0.262531 0.0608377
0.0938735 0.264897 0.0589761
0.109895 0.267842 0.0559854
0.12578 0.270665 0.0513619
0.143679 0.274617 0.0442359
0.160555 0.27834 0.0352789
0.177859 0.28217 0.0247807
0.204211 0.282841 0.02121
0.230304 0.284047 0.0146944
0.254704 0.285389 0.00526436
0.276982 0.286336 0.000762951
0.298024 0.286839 0.00296025
0.32015 0.286625 0.00468452
0.342718 0.285924 0.00703441
0.365347 0.285069 0.00952163
0.387793 0.284779 0.0100557
0.408377 0.286107 0.00761425
0.429496 0.287816 0.00520333
0.452873 0.289372 0.00288396
0.47834 0.290425 0.00146487
0.50341 0.291463 0.000839246
0.528191 0.293217 0.00158694
0.551064 0.299443 0.00973526
0.575936 0.305867 0.0209812
0.603265 0.313436 0.0338445
0.633539 0.321569 0.0493324
0.668635 0.330983 0.0690929
0.709743 0.342596 0.0948959
0.762844 0.358312 0.126757
0.854032 0.38468 0.171084
0.00062562 0.281041 0.0719615
0.0210575 0.282246 0.0741436
0.0441138 0.283467 0.075349
0.0690776 0.284871 0.0755627
0.0919509 0.286549 0.0742351
0.110246 0.289204 0.0691844
0.128115 0.292073 0.0625772
0.147173 0.295308 0.0533608
0.164828 0.299184 0.042649
0.182223 0.303151 0.0298161
0.203952 0.305898 0.0193637
0.232288 0.306737 0.0121614
0.257755 0.307881 0.00535592
0.28159 0.309285 0
0.304509 0.310292 0
0.325368 0.311452 0.00161746
0.348226 0.311498 0.00416571
0.371145 0.310948 0.00764477
0.394629 0.31043 0.010544
0.417975 0.309865 0.011841
0.439094 0.311498 0.0084535
0.462272 0.313542 0.00462348
0.487495 0.315084 0.00167849
0.512032 0.317052 0
0.537942 0.318349 0
0.566232 0.319554 0
0.590967 0.325856 0.00646983
0.617746 0.333074 0.0185397
0.647471 0.34107 0.034638
0.682063 0.350637 0.0560006
0.72253 0.362112 0.0801556
0.774502 0.377172 0.113176
0.862425 0.404761 0.163317
0 0.304631 0.0846265
0.00857557 0.305287 0.0856794
0.0344549 0.30631 0.0859693
0.0623484 0.307774 0.0851606
0.088716 0.308705 0.0831769
0.112322 0.310903 0.076524
0.131518 0.313771 0.0671702
0.15169 0.31722 0.0546273
0.170962 0.321019 0.0397498
0.188159 0.324727 0.0290684
0.205341 0.328984 0.0205997
0.231647 0.331014 0.0180056
0.257877 0.332341 0.015259
0.283116 0.333822 0.00848402
0.307378 0.335393 0
0.331106 0.336431 0
0.353414 0.337224 0.000808728
0.377584 0.336858 0.00277714
0.401877 0.336233 0.00531014
0.425818 0.335866 0.00843824
0.448493 0.336538 0.00868238
0.471977 0.338491 0.0056611
0.497429 0.340475 0.00282292
0.521996 0.342535 0.000885023
0.547616 0.344503 0
0.575418 0.34638 0
0.605875 0.347433 0
0.63357 0.353521 0.00601205
0.662593 0.36173 0.0204929
0.696437 0.371145 0.0388342
0.736065 0.3823 0.064744
0.78703 0.397177 0.0990616
0.873228 0.423987 0.151659
0 0.328252 0.093019
0.000122072 0.328817 0.0928054
0.0274205 0.33022 0.0927749
0.0574197 0.331044 0.0915236
0.0865339 0.332341 0.0895399
0.113634 0.334096 0.0853895
0.132891 0.337011 0.0788281
0.153414 0.340291 0.0720226
0.172869 0.343984 0.0637369
0.191119 0.34789 0.0536202
0.209934 0.352193 0.0405127
0.228901 0.356863 0.0249027
0.258457 0.357824 0.0198672
0.284947 0.359075 0.0126345
0.311543 0.360327 0.00154116
0.336126 0.362066 0
0.360906 0.362737 0
0.38349 0.363867 0
0.408286 0.36379 0.000885023
0.432761 0.363607 0.00485237
0.457404 0.36347 0.00906386
0.482902 0.364263 0.0110628
0.508309 0.366629 0.00851453
0.53286 0.368566 0.00538643
0.558099 0.371084 0.00190738
0.585718 0.37322 0
0.615808 0.375143 0
0.648081 0.377234 0
0.679072 0.383108 0.00477607
0.71191 0.392599 0.0221256
0.750851 0.403708 0.0484627
0.800656 0.418296 0.0827039
0.884657 0.444327 0.138872
0 0.351003 0.111437
0 0.353704 0.104036
0.0125277 0.354635 0.104189
0.0451362 0.355993 0.104234
0.0767529 0.357305 0.104021
0.108141 0.358526 0.102846
0.132128 0.360861 0.0991531
0.155428 0.364263 0.090013
0.175708 0.368002 0.0793164
0.195483 0.37171 0.0662242
0.214969 0.375692 0.0506142
0.235386 0.380423 0.0313573
0.258274 0.383749 0.0175784
0.286961 0.385061 0.0139925
0.314199 0.386252 0.00703441
0.340505 0.387884 0
0.365316 0.390143 0
0.390158 0.391135 0
0.413855 0.391928 0
0.439323 0.392065 0.00149538
0.464805 0.391897 0.00476081
0.492042 0.391852 0.00935378
0.519005 0.393042 0.0109865
0.543832 0.395407 0.00860609
0.569131 0.398032 0.00560006
0.596796 0.400549 0.00361639
0.626291 0.403037 0.00224308
0.658854 0.405264 0.0031281
0.694347 0.40708 0.00567636
0.729122 0.414115 0.0137179
0.766613 0.425361 0.0334783
0.815137 0.439963 0.0670176
0.896864 0.46537 0.125216
0 0.37467 0.131075
0 0.379049 0.117617
0 0.380591 0.116884
0.0312963 0.381582 0.116991
0.0658427 0.382864 0.116258
0.102052 0.384146 0.114275
0.133471 0.385702 0.110674
0.158541 0.388754 0.0996872
0.180682 0.392309 0.0870222
0.201083 0.39617 0.0725719
0.220401 0.400275 0.0626993
0.241154 0.404974 0.0489967
0.260075 0.409766 0.0339971
0.285756 0.412497 0.0242771
0.314763 0.413581 0.0183413
0.34287 0.414908 0.00807202
0.370138 0.416724 0
0.396353 0.418524 0
0.422156 0.419791 0
0.445853 0.421271 0
0.471748 0.421424 0.00158694
0.499748 0.421485 0.00657664
0.528893 0.421561 0.0126345
0.555245 0.422873 0.0157015
0.581018 0.425315 0.0145876
0.608927 0.427909 0.0126497
0.638224 0.430838 0.00996414
0.669917 0.43357 0.00915541
0.704662 0.436286 0.0102998
0.744717 0.438865 0.0143282
0.784298 0.447395 0.0308385
0.83122 0.462165 0.0600748
0.910445 0.487114 0.121965
0 0.40116 0.15108
0 0.405859 0.136706
0 0.409094 0.128862
0.0162051 0.410117 0.129061
0.0520027 0.411337 0.128649
0.0944381 0.412528 0.127016
0.12845 0.413901 0.124392
0.158862 0.416495 0.119554
0.182757 0.42005 0.109957
0.204181 0.423697 0.0982834
0.225971 0.427741 0.0831311
0.247288 0.432441 0.0657664
0.267597 0.437079 0.0467536
0.286961 0.441886 0.0261692
0.316518 0.443427 0.0193027
0.344884 0.445212 0.016083
0.373388 0.447074 0.00787366
0.400946 0.449165 0
0.427695 0.451057 0
0.454322 0.452491 0
0.478996 0.453819 0
0.507515 0.4542 0.00251774
0.537621 0.454414 0.0087892
0.565408 0.455146 0.0152285
0.593835 0.45565 0.0213169
0.621927 0.458427 0.0215305
0.651362 0.461357 0.0209659
0.683177 0.464302 0.0228428
0.717418 0.467689 0.0238193
0.756573 0.470726 0.0267796
0.802121 0.473899 0.03122
0.85008 0.486213 0.0602579
0.926406 0.511284 0.119783
0 0.430014 0.171649
0 0.434745 0.158297
0 0.439811 0.142947
0 0.440894 0.143114
0.0362554 0.442161 0.143114
0.0814984 0.44332 0.142214
0.121584 0.444709 0.140444
0.158679 0.446723 0.137194
0.185 0.450126 0.128573
0.20885 0.453468 0.116274
0.231739 0.457603 0.100893
0.254185 0.462043 0.08365
0.27509 0.466773 0.068513
0.294759 0.471717 0.0515602
0.314702 0.476844 0.0309453
0.346517 0.477867 0.0251164
0.376501 0.479698 0.0150607
0.406897 0.480629 0.000228885
0.434897 0.483589 0
0.461845 0.485634 0
0.488487 0.487633 0
0.515267 0.489403 0.000259403
0.545571 0.490349 0.00743114
0.57409 0.490837 0.0151064
0.602899 0.492195 0.0228122
0.633417 0.492744 0.0314336
0.66569 0.494179 0.0363012
0.697459 0.497032 0.036759
0.731456 0.500679 0.0405127
0.77055 0.503731 0.0474098
0.815518 0.507637 0.0530709
0.871107 0.511574 0.0633249
0.944274 0.536477 0.123766
0 0.458274 0.191409
0 0.462913 0.179034
0 0.467872 0.164645
0 0.471122 0.156695
0.0189822 0.472038 0.156817
0.0665751 0.473518 0.156405
0.113863 0.474693 0.154742
0.154665 0.476677 0.151934
0.187442 0.479011 0.146059
0.212467 0.482673 0.13637
0.236271 0.486549 0.123766
0.260319 0.491127 0.106081
0.28275 0.495811 0.0830549
0.304051 0.50042 0.0587167
0.324071 0.505364 0.0361028
0.348775 0.509346 0.0245823
0.378943 0.511223 0.0258488
0.40943 0.513054 0.0209354
0.439094 0.515206 0.0103151
0.467948 0.517555 0
0.495598 0.520134 0
0.524956 0.522072 0
0.553613 0.524086 0.00363165
0.582773 0.525277 0.0124971
0.611627 0.526619 0.0226291
0.641611 0.528405 0.0341497
0.673136 0.530312 0.0456855
0.708904 0.530648 0.0534829
0.745327 0.531975 0.0609598
0.783749 0.535851 0.0679789
0.828336 0.539437 0.0800488
0.88307 0.544167 0.0914931
0.963027 0.55996 0.134569
0 0.487846 0.21088
0 0.492256 0.199634
0 0.497642 0.185687
0 0.502724 0.170764
0 0.503441 0.17113
0.0505379 0.504707 0.170947
0.10341 0.505943 0.169818
0.149447 0.507759 0.167514
0.188159 0.509819 0.163745
0.215915 0.512886 0.154238
0.241428 0.51693 0.141634
0.266743 0.521294 0.125475
0.289586 0.525872 0.109636
0.310903 0.530587 0.094255
0.332036 0.535515 0.0739452
0.353048 0.54078 0.0503243
0.380621 0.544259 0.0348058
0.414023 0.545342 0.0241855
0.444862 0.547494 0.0149538
0.474464 0.54995 0.00593576
0.503304 0.552865 0
0.533135 0.55552 0
0.562371 0.558495 0.00437934
0.59028 0.560845 0.0148318
0.619974 0.562264 0.0241398
0.651026 0.564019 0.0357977
0.681895 0.566583 0.0493477
0.715251 0.568933 0.0645762
0.753109 0.569818 0.0756237
0.794232 0.571466 0.087953
0.839612 0.574258 0.102403
0.893843 0.578882 0.117983
0.980941 0.586175 0.1411
0 0.519768 0.234455
0 0.524529 0.221042
0 0.529717 0.207065
0 0.535302 0.190661
0 0.537438 0.18645
0.0304112 0.538705 0.186603
0.0897231 0.539849 0.185855
0.144091 0.541543 0.183963
0.18497 0.543679 0.181033
0.219684 0.545998 0.174975
0.245869 0.549691 0.164752
0.273152 0.554208 0.150576
0.297292 0.558648 0.133516
0.320623 0.563287 0.111543
0.342931 0.567727 0.0840925
0.363928 0.573358 0.063798
0.384588 0.578927 0.0459907
0.415549 0.581582 0.0416724
0.448753 0.582864 0.0374151
0.480446 0.585122 0.0265049
0.510216 0.587991 0.0137026
0.54168 0.591257 0
0.572549 0.594491 0.000396735
0.600107 0.597864 0.0159915
0.627985 0.60087 0.0327153
0.659037 0.602808 0.0446021
0.690822 0.605127 0.0581826
0.723583 0.608454 0.0741436
0.758709 0.611566 0.0903029
0.80058 0.613169 0.104952
0.846738 0.615488 0.120348
0.900984 0.619974 0.138125
0.987121 0.62591 0.160815
0 0.554742 0.253712
0 0.558892 0.2439
0 0.56408 0.230808
0 0.569696 0.213413
0 0.5738 0.202686
0.00820935 0.574685 0.203021
0.0737163 0.576074 0.202655
0.135866 0.577569 0.201221
0.184207 0.579324 0.198459
0.222354 0.581277 0.194507
0.252857 0.58497 0.184176
0.280583 0.589044 0.170275
0.306294 0.593545 0.156054
0.329397 0.597955 0.140581
0.352682 0.602899 0.12195
0.374365 0.608011 0.100771
0.396551 0.613611 0.0723278
0.419104 0.618967 0.0474861
0.452842 0.621012 0.0505226
