subtle niceties LUT V2 beta 14 (SSH-TS reimagined).cube
TITLE "Generated by Resolve"
LUT_3D_SIZE 5
0.00776684 0.00639353 0.0107271
0.117662 0.0129854 0.00979629
0.289769 0.0238346 0.00169375
0.466972 0.0419318 0.00773632
0.758541 0.0960555 0
0.0491493 0.134356 0.0166629
0.146761 0.146288 0.00755322
0.348913 0.156359 0
0.556085 0.179446 0
0.855833 0.27013 0.0944686
0.0863661 0.30219 0.00288396
0.207767 0.316518 0.0239872
0.36762 0.356603 0
0.613474 0.389609 0
0.941543 0.487022 0.150912
0.17229 0.527047 0.00842298
0.323903 0.555367 0.0470893
0.482795 0.592645 0.117617
0.656901 0.657069 0.0483101
0.957275 0.732509 0.167361
0.409674 0.860059 0.0717632
0.55375 0.883162 0.214908
0.714961 0.927352 0.373663
0.84509 0.980148 0.471412
1 1 0.650706
0.00415045 0.0177005 0.070634
0.126238 0.0240635 0.107286
0.284718 0.0337682 0.125368
0.468498 0.027039 0.10959
0.748623 0.0360418 0.0945907
0 0.144854 0.146242
0.139803 0.135698 0.143053
0.366262 0.152911 0.13022
0.570336 0.171572 0.130282
0.862654 0.272847 0.220615
0.037232 0.326131 0.113298
0.198535 0.333333 0.127611
0.361624 0.358572 0.125994
0.635752 0.399786 0.184588
0.978134 0.484871 0.282643
0.188312 0.539818 0.125536
0.323171 0.553033 0.17554
0.467842 0.585199 0.221759
0.651667 0.652537 0.24509
0.987716 0.74905 0.423972
0.431846 0.865629 0.257908
0.554299 0.888334 0.343343
0.695399 0.931014 0.444862
0.827237 0.983063 0.500206
1 1 0.745281
0.0151827 0.0611276 0.202472
0.123812 0.0789654 0.224079
0.2813 0.0567178 0.258228
0.471031 0.0569924 0.30222
0.735607 0.161608 0.336736
0.0231632 0.168902 0.260136
0.11986 0.151385 0.287907
0.338628 0.126543 0.304051
0.521248 0.207721 0.34461
0.823255 0.275013 0.381399
0 0.34522 0.351675
0.100816 0.350744 0.371542
0.336477 0.329839 0.347539
0.659236 0.407233 0.396063
0.975921 0.489601 0.45948
0.114382 0.580758 0.342123
0.227909 0.596002 0.339986
0.401328 0.616297 0.342092
0.65008 0.646693 0.415641
1 0.768795 0.620417
0.38294 0.90074 0.433494
0.516213 0.912551 0.479454
0.655238 0.945281 0.521874
0.786938 0.981247 0.620356
1 1 0.852094
0.0514687 0.146899 0.368185
0.139254 0.147936 0.397925
0.311864 0.161471 0.411322
0.505013 0.146151 0.470314
0.799466 0.21265 0.559716
0.00909438 0.229175 0.457252
0.137423 0.225681 0.456977
0.314977 0.206668 0.484443
0.554269 0.200092 0.500084
0.817121 0.317433 0.579568
0.0456245 0.413214 0.515511
0.185245 0.379644 0.526604
0.292805 0.336446 0.549905
0.597803 0.37438 0.563821
0.916426 0.50222 0.670604
0 0.637049 0.650736
0.180087 0.626154 0.653407
0.30544 0.627466 0.684199
0.625101 0.614054 0.646159
1 0.794354 0.778393
0.345785 0.963714 0.650141
0.383444 0.976074 0.636927
0.56669 0.977981 0.698116
0.782177 0.9776 0.757641
1 1 0.949096
0.122576 0.3402 0.722301
0.148531 0.325444 0.763378
0.398138 0.363638 0.760189
0.630533 0.348592 0.818601
0.960769 0.388907 0.888502
0.0697032 0.423362 0.824903
0.224582 0.417182 0.828275
0.412879 0.415824 0.836606
0.635309 0.393072 0.860563
0.968566 0.388907 0.896941
0.20824 0.586603 0.942199
0.298024 0.529915 0.955993
0.423362 0.522072 0.871687
0.594736 0.495644 0.84889
0.950988 0.500084 0.88719
0.141482 0.829999 1
0.320912 0.750286 1
0.51107 0.69427 0.887663
0.579355 0.609949 0.869139
1 0.760555 0.964248
0.413993 1 1
0.461097 1 1
0.558816 0.990555 1
0.862272 0.96611 0.949386
1 1 1
