subtle niceties LUT V2 beta 13 (SSH-TS reimagined).cube
TITLE "Generated by Resolve"
LUT_3D_SIZE 33
0.00874342 0.00794995 0.0108339
0.0188754 0.00901808 0.0118563
0.0282292 0.0100404 0.0137484
0.040177 0.0115358 0.0140383
0.0548562 0.0120089 0.0133516
0.068925 0.0132448 0.0131075
0.0813764 0.0154269 0.0140078
0.0950027 0.0175021 0.0154269
0.111513 0.0193484 0.0158541
0.130449 0.019501 0.0141299
0.149569 0.019379 0.011902
0.169986 0.019089 0.00920119
0.189181 0.0204471 0.00926223
0.207691 0.0235294 0.0110933
0.226917 0.0267643 0.0132601
0.246494 0.0301518 0.0157473
0.265812 0.0335241 0.0186007
0.285466 0.0373846 0.0214847
0.306355 0.0414588 0.0248875
0.328771 0.0461128 0.028687
0.352438 0.0511177 0.0330816
0.378775 0.0578927 0.0376593
0.408682 0.0659495 0.0431678
0.439979 0.0750744 0.0491951
0.473198 0.0848707 0.0565499
0.509117 0.0948196 0.0655375
0.547951 0.104738 0.0768749
0.593805 0.119738 0.0869001
0.645731 0.136675 0.097322
0.703807 0.154391 0.111025
0.7682 0.185519 0.141131
0.84271 0.235065 0.191608
0.955825 0.2972 0.255116
0.0107881 0.0193179 0.0141604
0.0214542 0.021622 0.0153658
0.0353399 0.0225528 0.0162356
0.0487678 0.0248875 0.0155795
0.0669108 0.0250248 0.0145571
0.0833448 0.0252842 0.0130312
0.0988327 0.0248569 0.0115053
0.114199 0.0249943 0.0115358
0.129961 0.0258946 0.0124819
0.146014 0.0270848 0.0117494
0.163394 0.0278325 0.00947585
0.182773 0.0284123 0.00639353
0.201755 0.0289158 0.00518807
0.220584 0.0298009 0.00515755
0.238422 0.0324102 0.00822461
0.256489 0.0355077 0.0112306
0.274571 0.0391546 0.0141909
0.293706 0.0428779 0.0176547
0.314183 0.0468299 0.0215915
0.336263 0.0515908 0.0255741
0.359701 0.0572976 0.0296941
0.386084 0.0640879 0.0345922
0.415793 0.0723888 0.0400549
0.447333 0.0817731 0.0462654
0.480735 0.0912947 0.0534829
0.517571 0.101701 0.0619669
0.557748 0.113161 0.0716564
0.603479 0.127199 0.0818341
0.654322 0.142092 0.0940261
0.710079 0.157702 0.111421
0.774105 0.196185 0.147906
0.849928 0.243198 0.196063
0.963241 0.30901 0.263111
0.0148013 0.0333257 0.0148775
0.0261845 0.0374762 0.013138
0.0404974 0.0406806 0.0124514
0.0547799 0.041886 0.0150454
0.0694896 0.0433509 0.0169375
0.0849317 0.0447242 0.0163729
0.100664 0.0451972 0.0150454
0.119677 0.0438392 0.014435
0.139345 0.0418555 0.0137636
0.157076 0.040528 0.0128786
0.17554 0.0397803 0.00978103
0.195361 0.0379644 0.0059205
0.213764 0.0382086 0.00303655
0.23154 0.0387427 0.00207523
0.249561 0.0394446 0.00164797
0.26627 0.0420539 0.00494392
0.283787 0.0453346 0.00854505
0.302495 0.0488289 0.0124514
0.322866 0.0532387 0.0161593
0.344503 0.0586709 0.0199893
0.367895 0.0651865 0.0238956
0.394293 0.0722972 0.0287785
0.424186 0.081529 0.0339361
0.455817 0.0905165 0.0401617
0.489876 0.100099 0.0470283
0.526955 0.110353 0.0550698
0.567788 0.121874 0.0641031
0.613031 0.134432 0.0750134
0.664042 0.149126 0.0885176
0.718196 0.175799 0.118288
0.780499 0.21387 0.159121
0.856703 0.251713 0.201678
0.970703 0.319493 0.2701
0.0232395 0.0487221 0.0152132
0.0338598 0.0534981 0.012665
0.0466011 0.057145 0.0122988
0.0602121 0.059556 0.0137942
0.0743877 0.0609445 0.0167086
0.0884108 0.0621042 0.018967
0.103197 0.0628824 0.0191043
0.124269 0.0620584 0.0178988
0.145602 0.0593118 0.0165866
0.165057 0.0560922 0.0156405
0.18323 0.0551614 0.013138
0.202335 0.0542153 0.00903334
0.221454 0.0520638 0.00440986
0.240558 0.0499428 0.000274662
0.258991 0.0486152 0
0.276799 0.0501411 0
0.294224 0.0534981 0
0.31249 0.0578012 0.00386053
0.332357 0.0627451 0.00746166
0.35378 0.0677958 0.0118105
0.376761 0.0738384 0.0161135
0.402823 0.080827 0.0211948
0.432517 0.0898146 0.0265965
0.464332 0.0986648 0.0326238
0.498482 0.108476 0.0388037
0.535851 0.119081 0.0456855
0.577218 0.130465 0.0540169
0.623316 0.143252 0.0636759
0.671183 0.166354 0.0938735
0.724453 0.195575 0.129793
0.786831 0.230564 0.169467
0.865278 0.273899 0.216037
0.980301 0.33875 0.28394
0.0313268 0.064271 0.0170443
0.0412909 0.0694591 0.0153353
0.0539864 0.0729076 0.0150759
0.0654002 0.0763409 0.0146792
0.0796674 0.0784924 0.016968
0.0926375 0.0795605 0.0196689
0.107912 0.0793927 0.0220951
0.128038 0.0790417 0.0203555
0.149233 0.076463 0.0192416
0.170291 0.0725567 0.0177768
0.189288 0.070222 0.0154879
0.20708 0.0702373 0.0116121
0.22536 0.0697032 0.00688182
0.244282 0.0683452 0.00251774
0.263905 0.0668345 0
0.284459 0.0644999 0
0.305333 0.0624247 0
0.323339 0.0670024 0
0.342748 0.0721904 0
0.363745 0.0778668 0.00210575
0.386633 0.0848096 0.00637827
0.412207 0.0914168 0.0114443
0.44152 0.0992142 0.0167391
0.472709 0.107515 0.0222019
0.506569 0.116869 0.0280308
0.544381 0.12697 0.0350805
0.586328 0.138109 0.0430304
0.629221 0.158328 0.0682383
0.676631 0.183108 0.101137
0.730312 0.212909 0.138064
0.793301 0.248707 0.179858
0.872236 0.291981 0.228702
0.990051 0.358114 0.297963
0.0385748 0.0801251 0.0204929
0.0489815 0.0843519 0.0189517
0.0607309 0.0879988 0.0180056
0.0723583 0.0915541 0.0172732
0.0831464 0.0948043 0.0167697
0.0973526 0.0959029 0.019791
0.11223 0.0964675 0.0232395
0.130388 0.09691 0.0237888
0.151186 0.0961776 0.0178378
0.172107 0.0932479 0.0165408
0.193393 0.0883192 0.0171817
0.210895 0.0892042 0.0137179
0.228809 0.0897993 0.009308
0.247288 0.0893416 0.00434882
0.266865 0.0883192 0
0.28748 0.087129 0
0.307866 0.0868696 0
0.329778 0.0857862 0
0.352605 0.0854047 0
0.374365 0.0891432 0
0.397055 0.0959335 0
0.42266 0.102983 0
0.452018 0.11046 0.00419623
0.483268 0.118593 0.00900282
0.516457 0.126238 0.0153506
0.552789 0.135973 0.0249485
0.591562 0.152499 0.0436408
0.634241 0.172992 0.0702373
0.681971 0.197986 0.105272
0.736324 0.227832 0.144564
0.799649 0.263432 0.187503
0.878981 0.308232 0.238361
0.999191 0.374731 0.309834
0.0459449 0.0962081 0.0237583
0.0569009 0.0998856 0.0226139
0.0683757 0.103914 0.02121
0.0792248 0.107256 0.0205539
0.0897231 0.110765 0.0195926
0.101198 0.113909 0.0183871
0.11606 0.114519 0.0222477
0.131243 0.115068 0.0263828
0.151461 0.115862 0.0174105
0.173159 0.114382 0.0109255
0.195285 0.110369 0.0101472
0.214389 0.107851 0.0137179
0.231983 0.108156 0.010544
0.249821 0.108843 0.00541695
0.269612 0.108782 0.000442512
0.289662 0.108812 0
0.310491 0.109178 0
0.332464 0.109606 0
0.355779 0.110063 0
0.380285 0.110521 0
0.406256 0.111437 0
0.433783 0.114366 0
0.462745 0.12224 0
0.493965 0.129625 0
0.527428 0.138216 0.000198367
0.562509 0.150256 0.0149386
0.599329 0.167529 0.0408484
0.640024 0.188037 0.0734875
0.687526 0.211765 0.107271
0.741863 0.240787 0.146258
0.805585 0.276814 0.191623
0.885801 0.323262 0.246571
1 0.391058 0.320821
0.0543984 0.115084 0.0272679
0.0654612 0.11812 0.0267948
0.0769207 0.121035 0.0256809
0.0869001 0.123903 0.0247196
0.0975357 0.126711 0.0233616
0.108492 0.130053 0.0213321
0.11931 0.132967 0.0195773
0.134997 0.133532 0.0243229
0.152499 0.135363 0.0183719
0.174273 0.136461 0.00273136
0.197177 0.133959 0
0.217212 0.131044 0.00370794
0.235828 0.129076 0.00738537
0.253712 0.129213 0.00798047
0.272312 0.130175 0.00238041
0.292409 0.130968 0
0.313024 0.132067 0
0.334936 0.133165 0
0.358068 0.134493 0
0.382605 0.136522 0
0.408988 0.138506 0
0.438544 0.140291 0
0.471946 0.141115 0
0.506981 0.141985 0
0.539223 0.151461 0
0.573907 0.16463 0
0.611154 0.181613 0.0227817
0.651896 0.201816 0.0572824
0.697139 0.22591 0.102571
0.748745 0.255055 0.149508
0.812619 0.29015 0.194736
0.892882 0.336187 0.250599
1 0.406592 0.329854
0.0608072 0.132677 0.0311589
0.072694 0.134951 0.0304417
0.0839246 0.137026 0.0297704
0.095552 0.139269 0.0284581
0.10753 0.141665 0.026276
0.117876 0.144915 0.0238804
0.127398 0.148486 0.0216373
0.138872 0.152163 0.0202487
0.15552 0.153414 0.020264
0.175662 0.155917 0.00320439
0.198795 0.157748 0
0.220768 0.153277 0
0.240085 0.150729 0
0.258244 0.150088 0.00115969
0.276295 0.15021 0.00218204
0.295277 0.151598 0
0.316258 0.152667 0
0.338003 0.154391 0
0.361242 0.15639 0
0.38558 0.158801 0
0.411582 0.161913 0
0.440589 0.165057 0
0.473198 0.169223 0
0.508644 0.171633 0
0.546319 0.173953 0
0.584756 0.179736 0
0.623056 0.194507 0.00343328
0.664057 0.21416 0.0374914
0.709606 0.237934 0.0844892
0.761242 0.266712 0.137133
0.822095 0.302358 0.193317
0.900465 0.348257 0.253956
1 0.417227 0.328695
0.0691081 0.149172 0.032517
0.0813611 0.150912 0.0320134
0.0929427 0.15259 0.0315557
0.105379 0.154803 0.0307317
0.117586 0.157153 0.0291447
0.126513 0.160449 0.0268406
0.1355 0.163989 0.0249485
0.145708 0.168231 0.0231785
0.157885 0.172015 0.0211643
0.176959 0.173938 0.0128634
0.199649 0.177462 0
0.223835 0.176806 0
0.2448 0.173007 0
0.264179 0.171069 0
0.282628 0.170489 0
0.300786 0.171511 0
0.319539 0.173465 0
0.341085 0.175021 0
0.363638 0.177203 0
0.387518 0.180194 0
0.412726 0.184176 0
0.441642 0.188128 0
0.474723 0.192798 0
0.50927 0.198001 0
0.547189 0.202029 0
0.588022 0.207065 0
0.62945 0.216693 0
0.674449 0.229129 0.0168917
0.722362 0.249058 0.0602121
0.77467 0.277409 0.119173
0.835752 0.312566 0.180758
0.91249 0.358892 0.250187
1 0.427237 0.324056
0.0783703 0.166445 0.0323033
0.089601 0.168109 0.0324254
0.101167 0.17023 0.0322881
0.112932 0.172366 0.0317998
0.12462 0.174853 0.0307012
0.135882 0.177386 0.029221
0.144884 0.181109 0.0277714
0.154849 0.185 0.0267033
0.165087 0.18909 0.0260166
0.178225 0.192889 0.0225376
0.199756 0.196002 0.00588998
0.225147 0.198169 0
0.24889 0.197482 0
0.269718 0.193561 0
0.289311 0.192035 0
0.307591 0.192538 0
0.326223 0.194125 0
0.345785 0.196124 0
0.367529 0.198413 0
0.390646 0.201343 0
0.415961 0.204913 0
0.443549 0.209415 0
0.474739 0.215625 0
0.509026 0.22121 0
0.546517 0.227176 0
0.588617 0.232914 0
0.632349 0.24213 0
0.678096 0.255344 0.00906386
0.728435 0.271778 0.0444648
0.78555 0.291569 0.0978714
0.849775 0.321874 0.163333
0.927428 0.367559 0.235554
1 0.437964 0.314229
0.0865492 0.18526 0.0343023
0.0977035 0.187411 0.0346075
0.10927 0.189242 0.0348058
0.120882 0.191638 0.0346075
0.132219 0.193912 0.0339055
0.143847 0.196551 0.0327306
0.155062 0.199451 0.0307927
0.164797 0.203479 0.0295415
0.174777 0.207416 0.0291142
0.185214 0.211429 0.0291295
0.199817 0.215717 0.0232395
0.225391 0.218753 0
0.251102 0.219532 0
0.274601 0.21973 0
0.29604 0.216068 0
0.316121 0.214771 0
0.33431 0.21619 0
0.353399 0.218006 0
0.373617 0.220172 0
0.395331 0.223178 0
0.420111 0.226123 0
0.44654 0.230991 0
0.476844 0.236683 0
0.509255 0.243412 0
0.544381 0.250889 0
0.584939 0.258915 0
0.631418 0.266941 0
0.679698 0.279423 0
0.731212 0.296452 0.0317235
0.789105 0.317067 0.0865034
0.856001 0.343206 0.147814
0.940368 0.378485 0.218387
1 0.447639 0.297642
0.0930037 0.204486 0.0385138
0.105623 0.206394 0.0377966
0.117556 0.208392 0.0373693
0.129229 0.210544 0.0366827
0.140902 0.213062 0.0354314
0.152804 0.215442 0.0336156
0.164492 0.218021 0.0313268
0.175296 0.221698 0.0304265
0.185397 0.225895 0.0298466
0.196002 0.229847 0.0300145
0.207187 0.23418 0.031632
0.223545 0.239139 0.0232853
0.251423 0.240742 0
0.276982 0.24126 0
0.300847 0.241489 0
0.323171 0.239033 0
0.343038 0.238102 0
0.361913 0.239658 0
0.381247 0.241901 0
0.402045 0.244724 0
0.424399 0.247547 0
0.449943 0.251774 0
0.479057 0.257221 0
0.510292 0.263706 0
0.544167 0.271382 0
0.582528 0.280247 0
0.626581 0.290257 0
0.677897 0.300755 0
0.731151 0.317372 0.0113832
0.790295 0.33901 0.0641337
0.858625 0.366262 0.134035
0.943893 0.401328 0.210254
1 0.46096 0.284825
0.10251 0.223407 0.0394293
0.115297 0.224948 0.0379034
0.127443 0.226673 0.0364538
0.138521 0.229267 0.0341955
0.14963 0.231998 0.0339361
0.160586 0.234806 0.033341
0.172076 0.237476 0.0326543
0.185428 0.240604 0.0310521
0.195636 0.244984 0.0297856
0.207187 0.248676 0.0291447
0.219745 0.252888 0.0288853
0.231922 0.257496 0.0317235
0.250156 0.261814 0.0205386
0.277958 0.262669 0
0.303899 0.262974 0
0.328038 0.263081 0
0.350973 0.261158 0
0.370108 0.262135 0
0.3897 0.263844 0
0.4103 0.2663 0
0.431952 0.269093 0
0.455879 0.27248 0
0.483085 0.277348 0
0.512978 0.283284 0
0.544991 0.29073 0
0.581811 0.299367 0
0.623819 0.309773 0
0.671962 0.322057 0
0.728679 0.335973 0
0.788083 0.357382 0.0320592
0.858457 0.385229 0.110292
0.944869 0.422126 0.193576
1 0.483055 0.284153
0.112123 0.242741 0.033875
0.124254 0.244419 0.0348974
0.135683 0.24686 0.0353094
0.146654 0.249317 0.0359197
0.157717 0.252018 0.03682
0.168719 0.254658 0.0370336
0.180346 0.257664 0.036347
0.193515 0.260822 0.0348058
0.205982 0.264485 0.0328374
0.21735 0.268589 0.0304723
0.230503 0.272648 0.0276493
0.24506 0.27657 0.0255741
0.257954 0.280995 0.0286717
0.277378 0.284764 0.0175784
0.305303 0.285985 0
0.331563 0.286137 0
0.356558 0.286305 0
0.379675 0.285084 0
0.399054 0.286946 0
0.419013 0.288777 0
0.440421 0.291173 0
0.464088 0.294224 0
0.490196 0.298573 0
0.517494 0.303456 0
0.547341 0.310231 0
0.581537 0.318318 0
0.621118 0.328679 0
0.667155 0.341161 0
0.72134 0.355947 0
0.785138 0.374182 0.00268559
0.854871 0.401343 0.0705577
0.942977 0.439078 0.167575
1 0.501778 0.279164
0.117174 0.263828 0.0441596
0.130037 0.265705 0.0447395
0.143618 0.267338 0.0445716
0.155489 0.270008 0.043946
0.166293 0.272786 0.0428779
0.17734 0.275563 0.0409552
0.188785 0.278553 0.0379187
0.201465 0.281865 0.0341955
0.214191 0.285512 0.029633
0.226963 0.289586 0.0272068
0.240772 0.293187 0.0259403
0.256153 0.297475 0.0243076
0.270832 0.301396 0.0239414
0.283497 0.305791 0.0289158
0.305257 0.308858 0.0149996
0.333593 0.309911 0
0.360098 0.310597 0
0.385519 0.310918 0
0.409247 0.31046 0
0.429053 0.312551 0
0.449607 0.314809 0
0.47245 0.317632 0
0.49778 0.321355 0
0.52462 0.32549 0
0.553079 0.330953 0
0.584802 0.337911 0
0.621378 0.347448 0
0.663661 0.35935 0
0.714992 0.373983 0
0.777401 0.392004 0
0.849058 0.416526 0.0256962
0.937163 0.453239 0.128649
1 0.515404 0.262699
0.123629 0.285512 0.0501564
0.137026 0.287343 0.0491646
0.151308 0.289219 0.047303
0.163928 0.291356 0.0450599
0.174517 0.294224 0.0419471
0.185641 0.297154 0.0375219
0.196719 0.300267 0.0353704
0.209644 0.303761 0.0336461
0.222904 0.307408 0.0310674
0.236576 0.311055 0.0286717
0.250675 0.315145 0.0263066
0.266392 0.319081 0.0245975
0.28191 0.322957 0.0238956
0.29691 0.32697 0.0236667
0.310063 0.331243 0.0295567
0.333822 0.334356 0.012604
0.362448 0.335256 0
0.389822 0.335714 0
0.416175 0.335851 0
0.439536 0.337255 0
0.46041 0.339483 0
0.482811 0.341558 0
0.507317 0.344915 0
0.533333 0.348562 0
0.560967 0.353262 0
0.591272 0.359243 0
0.625177 0.3673 0
0.664454 0.37789 0
0.711086 0.391775 0
0.768261 0.409491 0
0.842695 0.431678 0
0.929412 0.466209 0.0764324
1 0.527581 0.229328
0.130831 0.307942 0.0509194
0.145205 0.309606 0.047776
0.159197 0.31136 0.0438087
0.172503 0.313649 0.0424964
0.184024 0.316381 0.0414893
0.195071 0.319417 0.0418097
0.206577 0.322271 0.0413519
0.219883 0.326055 0.0396887
0.232914 0.329625 0.0376593
0.246448 0.33341 0.0342718
0.2607 0.337346 0.0298924
0.276112 0.341588 0.0252232
0.292744 0.345388 0.0212406
0.308766 0.349203 0.0201114
0.324468 0.353399 0.0208743
0.337697 0.357931 0.0317235
0.363149 0.360922 0.0107271
0.392309 0.361822 0
0.420279 0.362203 0
0.446952 0.362936 0
0.471611 0.364691 0
0.494133 0.366949 0
0.518273 0.369558 0
0.543206 0.373175 0
0.569451 0.377188 0
0.598657 0.382406 0
0.630976 0.388983 0
0.668116 0.398154 0
0.712398 0.410407 0
0.765194 0.426627 0
0.832593 0.448508 0
0.921447 0.479927 0.0339208
1 0.538323 0.190707
0.137667 0.331075 0.0565194
0.151247 0.332815 0.0569772
0.165743 0.334951 0.0567178
0.180819 0.33698 0.0554055
0.194095 0.339345 0.0534066
0.205432 0.34229 0.0506905
0.217166 0.345373 0.0467231
0.229541 0.349187 0.0415351
0.242344 0.353002 0.0352636
0.255619 0.356939 0.0306096
0.270558 0.360922 0.0296178
0.286595 0.365026 0.0281224
0.302617 0.368872 0.0261997
0.319142 0.372747 0.0234379
0.336141 0.376806 0.0213474
0.352316 0.380896 0.0213169
0.365896 0.385657 0.0349584
0.393149 0.388479 0.00910964
0.423407 0.389563 0
0.452049 0.390112 0
0.479362 0.391135 0
0.505425 0.393408 0
0.529809 0.396307 0
0.554192 0.398962 0
0.580407 0.402121 0
0.608423 0.406699 0
0.639155 0.412726 0
0.674067 0.420218 0
0.715023 0.430854 0
0.764492 0.445243 0
0.828199 0.465385 0
0.914946 0.494728 0.0118105
1 0.549874 0.15996
0.143984 0.35552 0.0662699
0.158862 0.357198 0.0648356
0.174273 0.359152 0.0627451
0.189425 0.361242 0.0599985
0.20412 0.363348 0.0565805
0.215549 0.366339 0.0519112
0.227024 0.369543 0.0468452
0.240208 0.373327 0.0454261
0.253727 0.376959 0.0431373
0.267216 0.380789 0.0402838
0.281697 0.384985 0.0361944
0.297353 0.389258 0.0318914
0.313436 0.39353 0.0281834
0.330129 0.397421 0.0236973
0.347662 0.400961 0.0194705
0.365087 0.405173 0.018204
0.38172 0.409705 0.0199893
0.396445 0.414466 0.0345312
0.424491 0.417334 0.00735485
0.45481 0.418906 0
0.484352 0.419959 0
0.513451 0.421317 0
0.542367 0.423011 0
0.566873 0.426093 0
0.591684 0.429297 0
0.61915 0.432746 0
0.648661 0.437888 0
0.682673 0.444389 0
0.72108 0.453101 0
0.766522 0.465797 0
0.825559 0.483574 0
0.906828 0.510567 0.00106813
1 0.562203 0.134997
0.151598 0.380484 0.0726329
0.167803 0.382239 0.0694285
0.183841 0.384161 0.0654307
0.198535 0.386267 0.0628824
0.213764 0.388708 0.0625467
0.226902 0.391241 0.0612345
0.238834 0.394629 0.0590982
0.252262 0.398215 0.0552529
0.265339 0.401938 0.050309
0.278752 0.405936 0.0436255
0.292592 0.410437 0.0352483
0.3075 0.414878 0.0262303
0.323751 0.419242 0.0248569
0.34107 0.422919 0.024445
0.359075 0.426841 0.0247654
0.376532 0.430991 0.0242771
0.394202 0.435508 0.0230411
0.411017 0.439948 0.025742
0.426719 0.444938 0.0387884
0.455909 0.448005 0.00788891
0.487877 0.449424 0
0.518715 0.451072 0
0.550484 0.45243 0
0.580011 0.454368 0
0.605158 0.457221 0
0.631739 0.460182 0
0.660533 0.464607 0
0.69218 0.470436 0
0.728893 0.477791 0
0.772061 0.488319 0
0.826001 0.50399 0
0.900481 0.528054 0
1 0.575509 0.114641
0.159731 0.407538 0.0829328
0.176013 0.409613 0.0813611
0.191897 0.411399 0.0785534
0.208103 0.413642 0.0749065
0.224063 0.415839 0.0700084
0.23888 0.418173 0.0649119
0.25095 0.421378 0.0597543
0.263844 0.425101 0.0535592
0.276921 0.428962 0.0462196
0.291051 0.432959 0.0467536
0.305837 0.436973 0.0456855
0.32192 0.44152 0.0425727
0.337316 0.446067 0.0384222
0.353536 0.450401 0.0336919
0.370596 0.454444 0.0292821
0.389136 0.458457 0.0242466
0.407752 0.46273 0.0227054
0.426017 0.467247 0.0220493
0.442634 0.471901 0.0290837
0.458457 0.477653 0.0452735
0.487968 0.481224 0.0125277
0.521645 0.483467 0
0.55491 0.485374 0
0.587259 0.48687 0
0.61799 0.488853 0
0.64564 0.490761 0
0.673533 0.494194 0
0.704524 0.498787 0
0.739635 0.505119 0
0.779965 0.514076 0
0.830335 0.526833 0
0.89868 0.54844 0.00888075
1 0.590097 0.101915
0.168368 0.437308 0.0942397
0.18471 0.438926 0.0918288
0.201968 0.441108 0.088777
0.218952 0.443015 0.0849317
0.234913 0.445212 0.0803998
0.25124 0.447456 0.075349
0.264759 0.450462 0.0739147
0.278477 0.454017 0.0707256
0.292271 0.458015 0.0666667
0.30576 0.461814 0.0611276
0.320134 0.466346 0.052781
0.33489 0.470939 0.0420233
0.349889 0.476036 0.0304723
0.365866 0.480156 0.029221
0.383993 0.484337 0.0293431
0.402441 0.488243 0.0298161
0.421225 0.492668 0.0306401
0.439643 0.497032 0.0310521
0.457908 0.501854 0.0328832
0.475044 0.507134 0.0399481
0.491325 0.5131 0.0563516
0.522622 0.517205 0.0177005
0.558175 0.520333 0
0.591226 0.522789 0
0.623697 0.525505 0
0.656458 0.527977 0
0.688228 0.527581 0
0.718898 0.530282 0
0.752163 0.535592 0
0.790997 0.542779 0
0.837995 0.553765 0
0.900877 0.571221 0
1 0.607202 0.103212
0.177264 0.46714 0.10605
0.194812 0.46891 0.103517
0.212268 0.470954 0.101167
0.229099 0.47303 0.0989395
0.246418 0.47541 0.0955367
0.262684 0.477485 0.0908827
0.27866 0.479927 0.0843824
0.292607 0.483558 0.0736553
0.305501 0.487663 0.062089
0.319142 0.491798 0.0520027
0.334051 0.495842 0.0531014
0.350271 0.500511 0.0526589
0.366171 0.504982 0.0510719
0.381842 0.509361 0.047364
0.398016 0.514138 0.0412146
0.416098 0.518593 0.0352789
0.43537 0.522667 0.0346075
0.45449 0.527031 0.0346075
0.473121 0.531762 0.0366674
0.491127 0.537072 0.0436866
0.506706 0.543175 0.0604715
0.52372 0.550042 0.0759594
0.558282 0.55436 0.025452
0.59382 0.557931 0
0.627573 0.561181 0
0.661494 0.564691 0
0.696071 0.568215 0
0.729763 0.568078 0
0.764752 0.5691 0
0.802976 0.573541 0
0.847562 0.582177 0
0.905516 0.597147 0
1 0.626627 0.104631
0.187335 0.497581 0.117891
0.20502 0.499626 0.115633
0.222721 0.50164 0.112779
0.24123 0.503822 0.109117
0.258015 0.505852 0.105028
0.275303 0.507942 0.099855
0.292287 0.510307 0.0942397
0.307485 0.513832 0.091371
0.321828 0.517647 0.0861524
0.335775 0.521447 0.0793011
0.3505 0.525917 0.071809
0.365774 0.530617 0.062501
0.380667 0.535424 0.0510567
0.39707 0.539788 0.0500954
0.41355 0.544381 0.0485695
0.430854 0.549187 0.0473945
0.449653 0.553429 0.0470588
0.46862 0.558038 0.0488899
0.487602 0.56257 0.0516213
0.506355 0.567636 0.0540475
0.524147 0.573526 0.0623026
0.539925 0.580133 0.0849928
0.557458 0.588266 0.0988174
0.593256 0.593133 0.0379797
0.629053 0.597192 0
0.664591 0.601068 0
0.700084 0.605432 0
0.736553 0.610483 0
0.773205 0.609888 0
0.81181 0.610758 0
0.855558 0.615961 0
0.91133 0.626734 0
1 0.650095 0.0860456
0.197803 0.530144 0.130556
0.215808 0.531899 0.128252
0.236072 0.533639 0.124941
0.253117 0.535943 0.122362
0.271031 0.538155 0.119295
0.288579 0.540398 0.115373
0.305409 0.542748 0.110643
0.323827 0.545785 0.103029
0.33756 0.549523 0.0932326
0.351568 0.553613 0.0793317
0.366537 0.55787 0.0775006
0.383093 0.562356 0.0758831
0.398642 0.566934 0.072282
0.414603 0.57145 0.0666667
0.430304 0.575982 0.0590066
0.447013 0.580941 0.0534066
0.465812 0.58526 0.0542458
0.484672 0.590051 0.0564584
0.504067 0.594476 0.0626383
0.522408 0.599908 0.0733501
0.54052 0.605203 0.0835737
0.558068 0.611612 0.098024
0.573327 0.61944 0.12195
0.591821 0.628275 0.122271
0.627329 0.633844 0.0573129
0.664851 0.638819 0
0.70251 0.643534 0
0.73994 0.649332 0
0.778561 0.655985 0
0.818387 0.654994 0
0.862043 0.655299 0
0.916136 0.661402 0
1 0.677791 0.0711223
0.209689 0.564294 0.143664
0.22977 0.566217 0.141176
0.24831 0.568338 0.138552
0.267536 0.570092 0.134951
0.285389 0.572427 0.131228
0.303349 0.574472 0.126482
0.321538 0.576959 0.121157
0.340459 0.579492 0.116442
0.355795 0.583322 0.109422
0.369787 0.587152 0.100145
0.384695 0.591684 0.0899062
0.400381 0.595834 0.0777447
0.416373 0.600732 0.0751049
0.432639 0.604822 0.0772412
0.449271 0.609705 0.0780041
0.466789 0.613962 0.0764172
0.484184 0.619165 0.0745098
0.502922 0.623301 0.0769513
0.521798 0.628428 0.0829786
0.540276 0.633371 0.0896773
0.558328 0.6392 0.10193
0.575875 0.645167 0.120455
0.592615 0.652827 0.13872
0.605463 0.660822 0.16553
0.626917 0.670115 0.153002
0.661967 0.677302 0.0871901
0.700832 0.683467 0
0.740459 0.68957 0
0.780255 0.6972 0
0.82179 0.704234 0
0.867491 0.701045 0
0.919188 0.702129 0
1 0.711208 0.0424201
0.224582 0.600992 0.157412
0.24361 0.603128 0.155291
0.264012 0.604883 0.152239
0.282826 0.606912 0.14905
0.301778 0.609094 0.145159
0.320439 0.611429 0.140749
0.338247 0.613397 0.135637
0.358907 0.616159 0.128588
0.374792 0.619623 0.120394
