subtle niceties LUT V2 beta 9 (SSH-TS reimagined).cube
TITLE "Generated by Resolve"
LUT_3D_SIZE 5
0.0136721 0.012314 0.018677
0.136767 0.0117494 0.0100862
0.271 0.025391 0.00926223
0.487007 0.0615396 0.0311742
1 0.225345 0.202457
0.0568856 0.131945 0.0318608
0.160739 0.150729 0.0214237
0.320378 0.165438 0
0.553277 0.18349 0
1 0.413077 0.351888
0.100786 0.289555 0.0703136
0.197971 0.318975 0.0328374
0.375509 0.337789 0.00889601
0.578195 0.378607 0
1 0.570306 0.318288
0.106203 0.511589 0.166232
0.322271 0.532753 0.0864424
0.433661 0.577859 0.0831159
0.661768 0.610864 0.0655375
1 0.6878 0.232471
0.472084 0.900954 0.303441
0.59707 0.919966 0.313664
0.659022 0.958206 0.401633
0.81178 0.999893 0.418357
0.977249 1 0.704662
0.0219272 0.0336919 0.148135
0.158434 0.0417029 0.137499
0.270527 0.0780652 0.142611
0.488884 0.0796826 0.15906
1 0.160418 0.254719
0.0559396 0.159625 0.148867
0.16466 0.172763 0.179736
0.346441 0.176333 0.182528
0.57789 0.193347 0.187762
1 0.43537 0.420691
0.0651865 0.317372 0.198901
0.232868 0.347738 0.165484
0.382345 0.383688 0.145953
0.616037 0.406561 0.203525
1 0.675151 0.519875
0.0785229 0.540902 0.240085
0.344274 0.561364 0.23447
0.452247 0.613931 0.238376
0.662272 0.653819 0.28336
1 0.762936 0.425559
0.458488 0.925521 0.41622
0.604929 0.945052 0.431769
0.703075 0.987091 0.448066
0.839277 1 0.56434
0.961746 1 0.884337
0.0300908 0.0676432 0.312123
0.179461 0.0877699 0.300221
0.33344 0.0919814 0.305043
0.515312 0.104585 0.335561
0.964538 0.308461 0.442817
0.0719005 0.191897 0.31017
0.164172 0.207462 0.330404
0.362417 0.209491 0.348424
0.571176 0.234333 0.364965
1 0.343908 0.498543
0.122148 0.358297 0.322377
0.242237 0.381415 0.340795
0.384817 0.399863 0.416007
0.643046 0.447013 0.405112
1 0.649241 0.659892
0.010956 0.594644 0.328359
0.350668 0.598688 0.40618
0.463478 0.659083 0.395438
0.696544 0.697978 0.421881
1 0.820462 0.68127
0.351751 0.966674 0.545739
0.637446 0.969772 0.565744
0.736095 1 0.595224
0.896757 1 0.766888
0.945968 1 1
0.0611124 0.129946 0.53608
0.217594 0.145739 0.52546
0.372183 0.198718 0.492195
0.582986 0.19794 0.545678
1 0.375082 0.659113
0.150713 0.253193 0.518242
0.188342 0.228443 0.569665
0.389639 0.296284 0.516808
0.616876 0.294408 0.571878
1 0.462348 0.657465
0.107485 0.410788 0.532753
0.217319 0.415167 0.576913
0.427482 0.443442 0.57969
0.674861 0.457969 0.614755
1 0.575662 0.729381
0.224399 0.621393 0.566262
0.348913 0.640726 0.612802
0.506096 0.678706 0.642145
0.68452 0.711009 0.736339
1 0.821973 0.804974
0.488777 0.989975 0.660655
0.722179 0.97937 0.727626
0.748974 1 0.79736
0.948699 1 0.975677
0.945968 1 1
0.27512 0.351171 1
0.392401 0.34522 1
0.548714 0.38146 1
0.720913 0.45127 0.937163
1 0.4813 1
0.210086 0.405386 1
0.290211 0.374212 1
0.471336 0.367849 1
0.68867 0.429648 1
1 0.550576 1
0.351995 0.554086 1
0.357855 0.523445 1
0.418372 0.482826 1
0.704341 0.597421 0.961776
1 0.665415 1
0.285588 0.719463 1
0.362325 0.714183 1
0.454582 0.739605 1
0.747814 0.773404 0.986114
1 0.828931 1
0.571435 0.996811 0.962921
0.718395 1 0.926223
0.876417 1 0.971557
0.945968 1 1
0.945968 1 1
