subtle niceties LUT V2 beta 2 (SSH-TS reimagined).cube
TITLE "Generated by Resolve"
LUT_3D_SIZE 9
0.00662242 0.00662242 0.00662242
0.0650034 0.0104524 0.00761425
0.134203 0.0101778 0.00755322
0.212741 0.00646983 0.00674449
0.298543 0 0.00628672
0.396933 0 0.00735485
0.516228 0 0.0149386
0.673625 0 0.0408789
1 0.0871595 0.139818
0.0220645 0.0722972 0.0227817
0.0780194 0.0769513 0.0254826
0.142794 0.0793469 0.0217441
0.21854 0.0775158 0.0177157
0.305745 0.0682994 0.0126802
0.407263 0.0522927 0.00863661
0.535409 0.0372778 0.0125124
0.696956 0.0538491 0.0426642
1 0.163714 0.148806
0.0291447 0.14551 0.0321508
0.0897688 0.148959 0.0356298
0.154498 0.151247 0.0341497
0.228763 0.150698 0.0256657
0.313588 0.146441 0.0188296
0.417487 0.141741 0.0153353
0.551629 0.140185 0.019501
0.725307 0.151858 0.04448
1 0.260166 0.163684
0.0252079 0.226856 0.0344701
0.0928969 0.228931 0.0382544
0.161761 0.230976 0.0389258
0.241321 0.234195 0.0375982
0.332052 0.239139 0.0330816
0.438941 0.246662 0.0371405
0.573709 0.259236 0.0520485
0.745037 0.28307 0.0835279
1 0.379767 0.195224
0.0065156 0.316899 0.0289769
0.0909285 0.321706 0.0377356
0.175021 0.328801 0.049836
0.264408 0.338628 0.0644236
0.361547 0.35082 0.0780652
0.471977 0.366629 0.086656
0.605356 0.388785 0.109651
0.768658 0.421973 0.148348
1 0.516823 0.259434
0 0.432517 0.0355383
0.104128 0.441901 0.0583658
0.203952 0.453315 0.0828107
0.30396 0.467445 0.110887
0.406485 0.484337 0.143008
0.517601 0.505226 0.174258
0.647456 0.532601 0.203281
0.797971 0.570016 0.251164
1 0.657328 0.380331
0.00529488 0.586999 0.0781109
0.148989 0.598733 0.113909
0.26125 0.612268 0.151446
0.369406 0.628 0.193378
0.475166 0.646159 0.239277
0.584619 0.667292 0.292134
0.703655 0.694545 0.349935
0.832593 0.729519 0.415106
1 0.797223 0.547921
0.113161 0.777096 0.17847
0.252461 0.78854 0.226169
0.367468 0.799771 0.277943
0.476585 0.811933 0.334813
0.578775 0.825467 0.395956
0.67866 0.840574 0.464073
0.779034 0.858824 0.543404
0.874876 0.8804 0.628916
0.995422 0.906645 0.708873
0.536431 1 0.533471
0.615564 1 0.584802
0.6813 1 0.63418
0.740642 1 0.683177
0.79118 1 0.727733
0.834119 1 0.762081
0.870161 1 0.777646
0.912398 1 0.784772
0.996811 1 0.767102
0.0182803 0.0155642 0.0791943
0.0764477 0.0200961 0.0775158
0.140429 0.0217288 0.0754711
0.219303 0.0158541 0.0703899
0.307729 0.00354009 0.0616465
0.407874 0 0.0536049
0.526329 0 0.05243
0.6813 0 0.0811933
1 0.0966049 0.175738
0.0317693 0.0839246 0.0842756
0.088426 0.0884413 0.0884413
0.140871 0.0958724 0.090959
0.213458 0.0967727 0.0840925
0.301823 0.08925 0.0679332
0.405524 0.0729839 0.0596628
0.536965 0.057557 0.0625162
0.70489 0.0667735 0.0899519
1 0.177737 0.191028
0.0450446 0.151858 0.0979477
0.107042 0.153567 0.107454
0.160067 0.159792 0.110155
0.227451 0.163317 0.100954
0.311788 0.162615 0.086183
0.416831 0.161181 0.0814679
0.553155 0.162005 0.0860761
0.727993 0.175616 0.109941
1 0.27715 0.211765
0.0441596 0.231174 0.106111
0.112932 0.231876 0.115587
0.173754 0.237232 0.1196
0.247578 0.244938 0.122118
0.335897 0.254047 0.116808
0.442283 0.265064 0.117327
0.576913 0.280812 0.129259
0.748028 0.307195 0.155825
1 0.398184 0.245747
0.0267948 0.322255 0.107546
0.113924 0.32752 0.122683
0.192386 0.337194 0.136507
0.277241 0.350317 0.151247
0.371588 0.365637 0.166659
0.479896 0.38471 0.175372
0.611765 0.409903 0.191638
0.772793 0.445792 0.223484
1 0.536843 0.321843
0.014435 0.44097 0.123095
0.128801 0.451179 0.147311
0.225086 0.46424 0.172061
0.321889 0.480629 0.199405
0.421851 0.49987 0.22916
0.53051 0.522942 0.261173
0.656977 0.552743 0.291646
0.802716 0.592538 0.337575
1 0.678828 0.448753
0.0370489 0.598093 0.167514
0.174838 0.610697 0.202838
0.285359 0.625086 0.23949
0.391623 0.642008 0.279774
0.495842 0.66128 0.323445
0.601801 0.68423 0.372595
0.717174 0.712657 0.428977
0.840208 0.748928 0.491234
1 0.814847 0.606348
0.139223 0.790021 0.260578
0.280324 0.800687 0.309285
0.395773 0.811627 0.359167
0.50309 0.824125 0.413352
0.60444 0.837613 0.471595
0.701305 0.853315 0.53608
0.797696 0.872023 0.610773
0.886366 0.89453 0.690684
0.995621 0.918456 0.749035
0.560327 1 0.577905
0.640528 1 0.627192
0.705745 1 0.674144
0.763928 1 0.720607
0.81297 1 0.762264
0.852811 1 0.793393
0.887465 1 0.810407
0.928008 1 0.820615
1 1 0.811765
0.0317845 0.0224765 0.160647
0.0920882 0.0276799 0.153552
0.150988 0.0305333 0.153475
0.221942 0.0307317 0.149233
0.307393 0.0221714 0.143679
0.408835 0.00515755 0.135698
0.535271 0 0.127489
0.693233 0 0.13872
1 0.0775769 0.217166
0.0446021 0.0953536 0.150759
0.101259 0.100862 0.147204
0.153445 0.106569 0.153811
0.222065 0.108034 0.153735
0.314473 0.0945602 0.141772
0.422202 0.0704509 0.128893
0.556924 0.0457313 0.123552
0.721294 0.0604868 0.145296
1 0.189242 0.238132
0.0513924 0.163607 0.164523
0.117632 0.164675 0.164813
0.170153 0.170184 0.170184
0.227359 0.177859 0.172564
0.307866 0.182116 0.168734
0.414435 0.184222 0.161456
0.552789 0.18851 0.156893
0.729137 0.204074 0.176287
1 0.296849 0.261952
0.0592355 0.239048 0.173739
0.129061 0.239048 0.180652
0.191882 0.243839 0.19234
0.256779 0.256504 0.201556
0.338552 0.270954 0.204013
0.442481 0.286442 0.205982
0.577462 0.305455 0.211704
0.748882 0.334173 0.229252
1 0.42179 0.30486
0.0498054 0.329534 0.18291
0.13695 0.335241 0.198962
0.216388 0.34461 0.218799
0.294316 0.361212 0.23621
0.382559 0.380743 0.253208
0.486778 0.403571 0.265354
0.615579 0.432242 0.283055
0.773816 0.470863 0.312917
1 0.561532 0.398581
0.0445869 0.450141 0.205356
0.156344 0.460609 0.230747
0.251759 0.473869 0.258335
0.343587 0.492546 0.285496
0.439017 0.514565 0.314015
0.54377 0.540276 0.345129
0.666163 0.572595 0.375509
0.807034 0.614511 0.418906
1 0.701198 0.517021
0.0711528 0.608865 0.253208
0.20412 0.621805 0.288212
0.312825 0.636591 0.324331
0.415747 0.654826 0.362615
0.516625 0.675669 0.40354
0.619989 0.69984 0.449454
0.731411 0.729595 0.502892
0.848127 0.767269 0.561196
1 0.832624 0.662104
0.173861 0.800473 0.343328
0.311589 0.81117 0.388983
0.424643 0.822339 0.43595
0.530312 0.835035 0.486809
0.629252 0.849027 0.541329
0.723583 0.865095 0.601785
0.815549 0.884642 0.671641
0.899107 0.907332 0.746044
0.996612 0.930602 0.788006
0.585931 1 0.620722
0.666163 1 0.667185
0.730266 1 0.711635
0.787427 1 0.755383
0.834806 1 0.794476
0.871336 1 0.823102
0.907073 1 0.843595
0.954665 1 0.866423
1 1 0.867552
0.0531167 0.0312657 0.249363
0.112627 0.0367895 0.242237
0.166888 0.0411383 0.239033
0.233417 0.0425269 0.237766
0.311803 0.0411841 0.231876
0.410498 0.0293431 0.225315
0.542504 0.0111391 0.222217
0.705974 0 0.22359
1 0.0813306 0.285359
0.0609598 0.10808 0.236973
0.117464 0.113024 0.231083
0.17052 0.117418 0.232242
0.235126 0.119173 0.236881
0.31342 0.117357 0.233249
0.41799 0.103899 0.226795
0.555947 0.0862593 0.22443
0.734951 0.0762188 0.23299
1 0.173632 0.296269
0.0736248 0.173892 0.240635
0.131746 0.177401 0.235157
0.183505 0.1832 0.234531
0.241901 0.189715 0.242359
0.320226 0.196139 0.246616
0.431785 0.195315 0.24509
0.579843 0.189624 0.238636
0.756786 0.20177 0.247349
1 0.310323 0.322026
0.0669108 0.251102 0.253071
0.136294 0.252766 0.253605
0.204974 0.257954 0.258137
0.271122 0.271214 0.271244
0.344518 0.290608 0.284947
0.443992 0.310338 0.296376
0.577081 0.333059 0.308492
0.747448 0.364614 0.328191
1 0.451392 0.394049
0.0664988 0.341192 0.264073
0.154452 0.34786 0.276738
0.236835 0.357443 0.294057
0.316838 0.37348 0.317403
0.397192 0.397253 0.338933
0.495216 0.424399 0.355718
0.619715 0.456672 0.376608
0.774075 0.498161 0.406516
1 0.589822 0.481956
0.0746166 0.461433 0.292302
0.181827 0.472938 0.315511
0.277287 0.48658 0.341863
0.370153 0.504875 0.372351
0.45977 0.529763 0.401221
0.559213 0.558511 0.431678
0.676646 0.593591 0.461784
0.811582 0.637842 0.503059
1 0.725368 0.590173
0.105669 0.620966 0.343221
0.233265 0.634531 0.375952
0.341421 0.649317 0.410498
0.44332 0.667765 0.448295
0.540993 0.689906 0.48661
0.639735 0.71606 0.529107
0.746838 0.747234 0.579065
0.856611 0.786496 0.633326
0.999084 0.852277 0.721859
0.210559 0.811322 0.429786
0.345129 0.821759 0.472206
0.45565 0.833097 0.51577
0.560006 0.845731 0.562997
0.65658 0.859998 0.613474
0.748028 0.876677 0.669383
0.835737 0.897047 0.733959
0.911833 0.921126 0.80267
0.997223 0.944656 0.83212
0.615793 1 0.669017
0.693629 1 0.710689
0.756161 1 0.751995
0.812238 1 0.792889
0.858213 1 0.829374
0.89395 1 0.857191
0.937011 1 0.889128
0.992432 1 0.926192
0.99942 1 0.942245
0.085893 0.0430152 0.346838
0.138521 0.0485695 0.341268
0.188022 0.0536507 0.33724
0.249851 0.0572213 0.333577
0.324224 0.0570687 0.330877
0.415946 0.055787 0.323659
0.550256 0.0527962 0.326497
0.735393 0.0534218 0.34519
1 0.107774 0.372885
0.0889296 0.119402 0.33904
0.139651 0.123827 0.333761
0.191226 0.127703 0.331136
0.253376 0.130144 0.330526
0.327962 0.128862 0.332219
0.42295 0.129229 0.32845
0.558206 0.126619 0.330709
0.739559 0.126696 0.341833
1 0.200092 0.388357
0.0947585 0.185977 0.336889
0.147387 0.190539 0.328695
0.199451 0.195468 0.32546
0.261051 0.201846 0.328984
0.337652 0.209842 0.339529
0.435935 0.220768 0.346441
0.575357 0.228275 0.350668
0.760143 0.236973 0.357824
1 0.305089 0.399359
0.0956741 0.260243 0.341268
0.157214 0.26508 0.338186
0.2215 0.273777 0.337667
0.288762 0.288594 0.345434
0.364263 0.307546 0.364858
0.461631 0.328984 0.381888
0.599054 0.349065 0.397314
0.777325 0.373251 0.413825
1 0.469505 0.479149
0.0830701 0.355123 0.358541
0.165499 0.364752 0.366781
0.24918 0.376104 0.376928
0.334371 0.392325 0.392447
0.415915 0.416266 0.416312
0.506874 0.446906 0.440848
0.626169 0.482322 0.46717
0.776562 0.525841 0.499352
1 0.619348 0.568917
0.0959182 0.476509 0.386511
0.200519 0.489372 0.405081
0.297902 0.503365 0.426551
0.392828 0.521798 0.453178
0.483742 0.54609 0.484474
0.577127 0.577691 0.516152
0.688914 0.615381 0.546746
0.817563 0.661677 0.586816
1 0.749828 0.665309
0.138582 0.634577 0.43801
0.262303 0.648585 0.466682
0.368032 0.664073 0.497108
0.470085 0.682506 0.531365
0.566445 0.704875 0.568536
0.661967 0.732174 0.608072
0.763424 0.76527 0.654154
0.866667 0.805737 0.70428
0.994064 0.872099 0.782315
0.247822 0.8224 0.519738
0.378256 0.832853 0.557626
0.487938 0.843732 0.59646
0.590249 0.856443 0.639063
0.685115 0.870787 0.6851
0.773495 0.888106 0.735698
0.857237 0.909224 0.794705
0.925963 0.93492 0.85745
0.9991 0.959152 0.878386
0.64715 1 0.720729
0.722301 1 0.757778
0.783459 1 0.794461
0.838193 1 0.832197
0.882994 1 0.865721
0.921386 1 0.897475
0.976211 1 0.944289
0.996826 1 1
0.996826 1 1
0.130907 0.0631876 0.461585
0.172686 0.0664378 0.456535
0.216373 0.0713817 0.452659
0.273274 0.0759136 0.44828
0.343359 0.0788281 0.444297
0.432761 0.0809949 0.442161
0.559213 0.0953536 0.444129
0.750225 0.119875 0.47277
1 0.173556 0.500679
0.128496 0.131212 0.460487
0.171298 0.134798 0.455375
0.218524 0.138537 0.451148
0.277272 0.14139 0.447333
0.348455 0.143267 0.44538
0.440772 0.146639 0.448096
0.566796 0.160586 0.450492
0.750164 0.185 0.46978
1 0.239887 0.499092
0.127138 0.196933 0.457237
0.172229 0.201785 0.449546
0.222492 0.206439 0.445502
0.285328 0.213993 0.444846
0.361456 0.224537 0.449699
0.457328 0.237491 0.461799
0.583261 0.258274 0.471534
0.759228 0.28333 0.483375
1 0.347005 0.516609
0.123476 0.272343 0.456046
0.178119 0.280064 0.451438
0.240391 0.291112 0.447196
0.309972 0.306447 0.451011
0.388815 0.325383 0.464302
0.484184 0.347936 0.486076
0.607233 0.377905 0.506569
0.774014 0.411841 0.528862
1 0.491142 0.575616
0.122026 0.36791 0.468406
0.195865 0.379767 0.471427
0.273869 0.393942 0.475532
0.355474 0.413016 0.484138
0.437949 0.437842 0.501869
0.529809 0.467842 0.530694
0.647196 0.503899 0.558694
0.799496 0.54493 0.589288
1 0.636622 0.650111
0.125978 0.493187 0.498299
0.220066 0.508003 0.511437
0.314015 0.524147 0.52604
0.410422 0.543465 0.544152
0.504524 0.56759 0.567788
0.598047 0.598962 0.5991
0.703349 0.638804 0.63209
0.82533 0.686671 0.671321
1 0.776349 0.741711
0.170047 0.651102 0.544839
0.286091 0.666056 0.566857
0.391119 0.68191 0.59086
0.493507 0.70045 0.618585
0.590555 0.722576 0.650309
0.685084 0.749722 0.686839
0.781903 0.7841 0.728649
0.877791 0.825925 0.773968
0.989548 0.892851 0.841978
0.285618 0.834287 0.617227
0.411795 0.844724 0.648508
0.519646 0.855344 0.681025
0.620478 0.867872 0.71696
0.713603 0.882292 0.756283
0.800076 0.899672 0.800748
0.879515 0.921889 0.852857
0.941894 0.949035 0.908766
1 0.97554 0.926192
0.680705 1 0.776562
0.753002 1 0.808316
0.812573 1 0.840192
0.864454 1 0.872694
0.9066 1 0.903426
0.959869 1 0.947784
0.996826 1 1
0.996826 1 1
0.996826 1 1
0.199649 0.110674 0.618448
0.228229 0.107439 0.611063
0.264836 0.107118 0.605676
0.315099 0.109026 0.600839
0.379995 0.112261 0.596887
0.465553 0.118105 0.595102
0.588952 0.132555 0.601953
0.762371 0.174243 0.61973
1 0.293217 0.682582
0.192645 0.158602 0.62002
0.22269 0.156054 0.611872
0.261311 0.156298 0.605478
0.313512 0.157778 0.599771
0.381109 0.162646 0.596048
0.470192 0.172244 0.596231
0.593133 0.190173 0.604212
0.76112 0.22974 0.6168
1 0.32015 0.654658
0.184237 0.216938 0.618372
0.216876 0.215106 0.609949
0.260563 0.218662 0.603876
0.320287 0.22768 0.600015
0.394598 0.240848 0.599329
0.48716 0.258198 0.603876
0.609033 0.281666 0.616922
0.768551 0.322347 0.631067
1 0.407233 0.661463
0.173922 0.29163 0.616159
0.215732 0.296147 0.608148
0.271534 0.308064 0.601541
0.34052 0.324422 0.600824
0.420386 0.344472 0.605127
0.514992 0.369039 0.616785
0.634348 0.400641 0.638651
0.78352 0.44625 0.660563
1 0.538216 0.700679
0.168399 0.389593 0.621454
0.228107 0.399359 0.616815
0.299657 0.415778 0.614771
0.380026 0.436484 0.615061
0.464286 0.461295 0.624949
0.558328 0.49102 0.644343
0.671366 0.528145 0.673487
0.806851 0.577401 0.70248
1 0.672053 0.752346
0.17464 0.513756 0.640986
0.257679 0.526802 0.643519
0.346014 0.544549 0.649424
0.437537 0.565911 0.658289
0.528832 0.591562 0.672435
0.622324 0.623011 0.695048
0.726497 0.661936 0.727916
0.84303 0.710658 0.760479
1 0.798718 0.816068
0.212573 0.669993 0.676692
0.315679 0.685283 0.689891
0.415869 0.70222 0.705135
0.516716 0.721233 0.722591
0.613443 0.743389 0.743786
0.708446 0.770092 0.770321
0.802426 0.804608 0.805158
0.890379 0.847944 0.843046
0.985428 0.91545 0.89987
0.328695 0.846998 0.730877
0.447379 0.857816 0.752651
0.551965 0.868391 0.775402
0.65124 0.880537 0.801236
0.743236 0.894499 0.830503
0.827787 0.912001 0.864637
0.903716 0.935088 0.906371
0.959106 0.964492 0.953155
1 0.993942 0.973754
0.71696 1 0.839277
0.785031 1 0.863691
0.840146 1 0.888731
0.888228 1 0.915358
0.93901 1 0.951247
0.996826 1 1
0.996826 1 1
0.996826 1 1
0.996826 1 1
0.306783 0.191165 0.847761
0.327123 0.18027 0.835248
0.356222 0.173419 0.826291
0.397742 0.16997 0.818875
0.454124 0.169436 0.813565
0.53225 0.174594 0.810636
0.645945 0.189395 0.812573
0.803433 0.228824 0.820447
1 0.352651 0.841398
0.293187 0.223224 0.846159
0.313848 0.211521 0.832944
0.343511 0.204242 0.822629
0.386481 0.201465 0.814084
0.445563 0.204715 0.807431
0.526452 0.214755 0.803098
0.640299 0.234791 0.803037
0.796994 0.271199 0.81236
1 0.386831 0.82356
0.278416 0.268971 0.844556
0.301839 0.257465 0.832059
0.335317 0.254139 0.821378
0.384009 0.257618 0.812268
0.448966 0.268238 0.80502
0.534432 0.286183 0.800381
0.648981 0.314168 0.801038
0.799771 0.356451 0.811688
1 0.464881 0.827298
0.261952 0.336019 0.841825
0.291676 0.33051 0.829221
0.333761 0.33402 0.818235
0.391714 0.345968 0.80856
0.465644 0.36524 0.801709
0.556558 0.392157 0.799222
0.670695 0.427787 0.803998
0.812284 0.475578 0.81944
1 0.58584 0.841321
0.247547 0.427665 0.839155
0.289708 0.429374 0.826139
0.345357 0.44033 0.814633
0.417166 0.459953 0.804288
0.49984 0.485557 0.801434
0.593393 0.516075 0.803876
0.703853 0.554757 0.814328
0.831327 0.605692 0.834943
1 0.712749 0.864088
0.240909 0.545495 0.840101
0.305028 0.553399 0.829786
0.379889 0.569284 0.822477
0.466148 0.591959 0.818082
0.556023 0.618021 0.817182
0.649546 0.648936 0.824308
0.752026 0.687877 0.839261
0.860609 0.737606 0.862287
1 0.832044 0.897093
0.263294 0.694072 0.849424
0.355947 0.706127 0.846937
0.45008 0.72314 0.847852
0.546349 0.742657 0.850446
0.639735 0.765072 0.856168
0.731929 0.791775 0.866178
0.82298 0.826352 0.882872
0.90515 0.870222 0.907622
0.985855 0.937667 0.947158
0.384802 0.858839 0.865293
0.485969 0.871458 0.875654
0.584619 0.882139 0.884169
0.680583 0.893919 0.89424
0.770184 0.907485 0.907149
0.852537 0.924804 0.924056
0.925689 0.948379 0.948196
0.975769 0.979904 0.981018
0.996826 1 1
0.752117 1 0.90866
0.812222 1 0.9234
0.860365 1 0.939391
0.906783 1 0.960678
0.968292 1 1
0.996826 1 1
0.996826 1 1
0.996826 1 1
0.996826 1 1
0.623713 0.520302 1
0.6318 0.477378 1
0.645472 0.444846 1
0.668055 0.418418 1
0.699245 0.397452 1
0.744747 0.382574 1
0.814115 0.376364 1
0.918593 0.385397 1
1 0.448005 1
0.584863 0.516564 1
0.591791 0.470985 1
0.603571 0.435721 1
0.623636 0.407187 1
0.654902 0.386572 1
0.702983 0.374502 1
0.777569 0.374044 1
0.889296 0.392203 1
1 0.479881 1
0.546532 0.521187 1
0.552209 0.473396 1
0.565255 0.439429 1
0.588296 0.41471 1
0.624384 0.399939 1
0.678904 0.395727 1
0.761654 0.405447 1
0.878813 0.437476 1
1 0.548714 1
0.503227 0.535332 1
0.512993 0.492683 1
0.53138 0.465507 1
0.561425 0.449653 1
0.605432 0.445884 1
0.668605 0.454749 1
0.758328 0.480171 1
0.876219 0.528405 1
1 0.65156 1
0.459892 0.570581 1
0.475975 0.538949 1
0.502678 0.523552 1
0.543038 0.520974 1
0.598871 0.532296 1
0.67187 0.556588 1
0.766506 0.596521 1
0.878202 0.653162 1
1 0.765805 1
0.418051 0.637293 1
0.445899 0.623133 1
0.486213 0.622461 1
0.543648 0.633814 1
0.614252 0.655802 1
0.698436 0.68719 1
0.79237 0.728008 1
0.889662 0.779736 1
1 0.873091 1
0.39263 0.744961 1
0.444572 0.747265 1
0.509071 0.758144 1
0.587793 0.776364 1
0.673167 0.798535 1
0.75816 0.824857 1
0.843976 0.857786 1
0.919448 0.900298 0.989029
0.993149 0.959777 0.992981
0.458198 0.884367 1
0.5411 0.892607 1
0.622141 0.902815 1
0.708171 0.91368 1
0.789593 0.926207 1
0.864958 0.942153 1
0.93193 0.964309 0.990295
0.981704 0.992172 0.992935
0.996826 1 1
0.786145 1 1
0.818875 1 1
0.851225 1 1
0.898939 1 1
0.962692 1 1
0.996826 1 1
0.996826 1 1
0.996826 1 1
0.996826 1 1
