subtle niceties LUT V2 beta 2 (SSH-TS reimagined).cube
TITLE "Generated by Resolve"
LUT_3D_SIZE 33
0.00662242 0.00662242 0.00662242
0.0186923 0.00840772 0.00743114
0.0332952 0.00944533 0.00743114
0.0493477 0.0100862 0.00746166
0.0650034 0.0104524 0.00761425
0.0816663 0.0107271 0.00775158
0.0982681 0.0107576 0.00775158
0.11606 0.0105745 0.00769055
0.134203 0.0101778 0.00755322
0.152377 0.00961318 0.00738537
0.171527 0.00881972 0.007187
0.192279 0.00773632 0.00697337
0.212741 0.00646983 0.00674449
0.233326 0.00505074 0.00656138
0.254414 0.0033875 0.00640879
0.276066 0.00155642 0.00630198
0.298543 0 0.00628672
0.321813 0 0.00634775
0.346151 0 0.00654612
0.37113 0 0.00688182
0.396933 0 0.00735485
0.425849 0 0.00813306
0.457069 0 0.00943008
0.486168 0 0.01178
0.516228 0 0.0149386
0.549508 0 0.0188907
0.586404 0 0.0242313
0.627497 0 0.031342
0.673625 0 0.0408789
0.72781 0.00128176 0.0542763
0.791806 0.0145571 0.0733043
0.872724 0.037171 0.0977951
1 0.0871595 0.139818
0.0115206 0.0217746 0.0115663
0.023621 0.0235447 0.012726
0.0371862 0.024979 0.0124971
0.0520943 0.0261997 0.0122072
0.0666667 0.027039 0.0122988
0.082475 0.0277104 0.0123598
0.0986648 0.0279545 0.0122225
0.116167 0.0280461 0.0119478
0.134218 0.0277714 0.01149
0.152499 0.0272068 0.0109865
0.171878 0.0262455 0.0104219
0.192889 0.0250858 0.00981155
0.213657 0.0235904 0.00923171
0.234592 0.0218967 0.00868238
0.256001 0.0198367 0.00819409
0.277989 0.0177157 0.00776684
0.30071 0.0153048 0.00743114
0.324239 0.0126497 0.00720226
0.348821 0.00967422 0.00712596
0.374014 0.00669871 0.007187
0.400015 0.00350958 0.0074464
0.429038 0 0.00798047
0.460548 0 0.00883497
0.490867 0 0.0103151
0.521187 0 0.0132753
0.554635 0 0.0176394
0.591623 0 0.0234531
0.632792 0 0.0311437
0.678767 0.00466926 0.0412909
0.732555 0.0137942 0.0552834
0.795941 0.0276036 0.0747082
0.875898 0.0523384 0.0988479
1 0.103273 0.141649
0.0154879 0.0383001 0.0157015
0.0280308 0.039826 0.0168765
0.0416571 0.0413519 0.0174868
0.0563211 0.0425422 0.016968
0.0706798 0.0435798 0.0163577
0.0862898 0.044358 0.0162814
0.102068 0.0449378 0.016083
0.118883 0.0451667 0.0157321
0.136294 0.045243 0.0152895
0.154025 0.0448768 0.0147097
0.172946 0.0443275 0.0140536
0.193774 0.0431373 0.0131838
0.214603 0.0416724 0.0122683
0.235691 0.0397498 0.0113375
0.257313 0.0376135 0.0104677
0.279545 0.03505 0.00967422
0.302571 0.0323339 0.00898756
0.326345 0.0292058 0.00840772
0.351171 0.0259556 0.00799573
0.376532 0.0224155 0.00773632
0.402762 0.0187686 0.00773632
0.431937 0.0145876 0.00796521
0.463569 0.0102541 0.00854505
0.49453 0.00611887 0.00953689
0.526467 0.00387579 0.0120241
0.560433 0.00466926 0.0167544
0.597574 0.00730907 0.0230869
0.638575 0.0113527 0.0314031
0.684413 0.0178531 0.0421759
0.737697 0.0280461 0.0565652
0.800626 0.0438392 0.0758831
0.879805 0.0705119 0.0999008
1 0.121996 0.143664
0.0190585 0.0556954 0.019501
0.0320287 0.057084 0.0207218
0.0456703 0.0585031 0.0213016
0.0604105 0.0597543 0.0217746
0.074403 0.0607767 0.0211948
0.0908827 0.0616312 0.0202335
0.106081 0.0621347 0.0196994
0.122499 0.0626535 0.0192874
0.139513 0.0628061 0.0187228
0.156878 0.0626688 0.0180514
0.175494 0.062089 0.0172274
0.195956 0.0612345 0.0162661
0.216358 0.0599069 0.015259
0.237186 0.0581979 0.0142061
0.258717 0.0559243 0.0130617
0.281102 0.0531167 0.0119631
0.30428 0.0500954 0.0108949
0.328267 0.0467079 0.00994888
0.353277 0.0429389 0.00917067
0.378897 0.0390936 0.00859083
0.40531 0.0348974 0.00825513
0.434592 0.0303655 0.00813306
0.46656 0.0255894 0.00857557
0.498146 0.0217441 0.00981155
0.531472 0.018616 0.011841
0.566949 0.018143 0.0162051
0.604105 0.0213931 0.0230259
0.64509 0.0267491 0.0316472
0.690639 0.0345464 0.04271
0.743603 0.0463874 0.0574197
0.805768 0.0644083 0.0763714
0.884596 0.0909895 0.101274
1 0.142824 0.146151
0.0220645 0.0722972 0.0227817
0.0354009 0.0733043 0.0240482
0.0492561 0.0746777 0.0248264
0.0639048 0.0760357 0.024979
0.0780194 0.0769513 0.0254826
0.0946212 0.0778668 0.0244755
0.109789 0.0785077 0.0232395
0.126055 0.0790417 0.0224155
0.142794 0.0793469 0.0217441
0.159869 0.0796368 0.0209201
0.17818 0.0793469 0.0200046
0.198398 0.0785992 0.0189059
0.21854 0.0775158 0.0177157
0.239231 0.0756847 0.0165255
0.260517 0.0737163 0.0152743
0.282612 0.0712749 0.0140078
0.305745 0.0682994 0.0126802
0.329732 0.0648966 0.011429
0.354879 0.0610361 0.0102846
0.380728 0.056733 0.00933852
0.407263 0.0522927 0.00863661
0.436957 0.0476997 0.00839246
0.469566 0.0433661 0.00898756
0.501595 0.0400092 0.0103151
0.535409 0.0372778 0.0125124
0.572549 0.0355993 0.0159457
0.610819 0.0382086 0.0224155
0.651667 0.0446326 0.0313573
0.696956 0.0538491 0.0426642
0.749401 0.0674754 0.0577707
0.811261 0.0855573 0.0770581
0.889525 0.111879 0.102632
1 0.163714 0.148806
0.0247654 0.0909438 0.0258488
0.0383917 0.0921035 0.0270695
0.0524758 0.0933394 0.0279393
0.0671855 0.0947585 0.028397
0.0817578 0.0958724 0.0283818
0.0981918 0.0966506 0.0286259
0.113222 0.097261 0.0273442
0.129549 0.0978714 0.0256504
0.146212 0.0982223 0.0245975
0.163149 0.0983444 0.0237125
0.181186 0.0981613 0.0226596
0.201099 0.0977493 0.0214389
0.221042 0.0968795 0.0201267
0.241428 0.0956283 0.0187381
0.262501 0.0938735 0.0172732
0.284474 0.0917983 0.0157931
0.307317 0.0892195 0.0142672
0.331151 0.0861372 0.0127718
0.356283 0.0823224 0.0112917
0.382193 0.0782483 0.0100252
0.409201 0.0742351 0.00924697
0.439536 0.0701915 0.00909438
0.472755 0.0661479 0.00976577
0.505287 0.0635233 0.0111391
0.539559 0.0614328 0.0133974
0.577279 0.0602274 0.0167391
0.617411 0.0611276 0.0218051
0.65893 0.0677348 0.030396
0.703975 0.0777142 0.0419318
0.756252 0.0910048 0.0581674
0.817716 0.108766 0.0781109
0.895415 0.134951 0.104555
1 0.187366 0.151904
0.0267033 0.108278 0.0282444
0.0406043 0.109224 0.0294499
0.0550088 0.110445 0.0304112
0.0698863 0.111574 0.0310063
0.0846876 0.112703 0.0311589
0.101045 0.113527 0.0312963
0.116106 0.114183 0.0309606
0.132418 0.114641 0.0292058
0.149203 0.115053 0.0271763
0.166049 0.115145 0.0260471
0.184024 0.115175 0.0248722
0.203784 0.114717 0.0235447
0.223499 0.114107 0.0221408
0.243656 0.113024 0.0206149
0.264591 0.111635 0.0190433
0.28629 0.109712 0.01738
0.308995 0.1075 0.0156405
0.332753 0.10457 0.0139315
0.357824 0.101534 0.0123598
0.383917 0.0983291 0.0112306
0.411276 0.0953841 0.0105135
0.442008 0.0923018 0.0103456
0.475685 0.0896468 0.010956
0.508659 0.0875257 0.0122835
0.543267 0.086305 0.0145418
0.581201 0.0858167 0.0177768
0.622202 0.086656 0.0220493
0.6654 0.0906081 0.0294957
0.710842 0.0999619 0.0417334
0.762936 0.112993 0.058854
0.824063 0.130892 0.0794537
0.900908 0.156939 0.106584
1 0.209552 0.15523
0.0282902 0.126711 0.0304112
0.0424506 0.127642 0.0316014
0.0571756 0.128557 0.0326085
0.0721599 0.129702 0.0333562
0.0874647 0.130663 0.0336461
0.103761 0.131609 0.0334478
0.118883 0.132143 0.0336156
0.135164 0.132677 0.0328527
0.15201 0.132998 0.0306554
0.168963 0.133181 0.0284733
0.186923 0.133074 0.0270237
0.206592 0.132876 0.0255436
0.226093 0.132357 0.0240177
0.246113 0.131487 0.0224002
0.266835 0.130159 0.0206912
0.288365 0.128634 0.0188907
0.310964 0.126619 0.0170443
0.334783 0.124514 0.0153964
0.360098 0.122271 0.0140536
0.386481 0.120241 0.0130922
0.413993 0.118303 0.0125582
0.445106 0.116304 0.0125124
0.479133 0.114458 0.0131228
0.512459 0.113436 0.014435
0.547326 0.112917 0.0163272
0.585611 0.113207 0.019501
0.626841 0.114473 0.0241398
0.67155 0.117388 0.0306554
0.718517 0.124529 0.0419013
0.770413 0.137575 0.0598764
0.830961 0.155261 0.081178
0.907073 0.18146 0.109148
1 0.23444 0.15903
0.0291447 0.14551 0.0321508
0.0437171 0.146273 0.0333562
0.0587778 0.147143 0.0343938
0.0744488 0.148104 0.0352026
0.0897688 0.148959 0.0356298
0.106188 0.149828 0.0356298
0.121294 0.150515 0.0352178
0.137621 0.150988 0.035462
0.154498 0.151247 0.0341497
0.171618 0.151385 0.0315404
0.189639 0.1514 0.02916
0.209354 0.151125 0.0273747
0.228763 0.150698 0.0256657
0.248692 0.14995 0.0239414
0.269245 0.148882 0.0221561
0.290761 0.147707 0.0203861
0.313588 0.146441 0.0188296
0.337575 0.145235 0.0174716
0.363165 0.143954 0.016434
0.389731 0.142763 0.0157015
0.417487 0.141741 0.0153353
0.448798 0.140749 0.0154421
0.482994 0.140078 0.0159304
0.516518 0.139849 0.0172732
0.551629 0.140185 0.019501
0.590112 0.141299 0.0229648
0.631586 0.143328 0.027985
0.676417 0.146715 0.0348058
0.725307 0.151858 0.04448
0.77821 0.163272 0.0614176
0.838285 0.180941 0.0835126
0.913481 0.206958 0.112413
1 0.260166 0.163684
0.0294041 0.16434 0.033463
0.0442359 0.165026 0.0346532
0.0596475 0.165728 0.0357061
0.0758679 0.166629 0.0365606
0.0914626 0.167407 0.0370794
0.10811 0.1682 0.037232
0.123354 0.16875 0.0369879
0.139742 0.16939 0.0363622
0.156588 0.169635 0.0367895
0.173816 0.169726 0.0348363
0.19202 0.169635 0.031632
0.211826 0.169467 0.02916
0.231281 0.16907 0.0271305
0.251255 0.168521 0.0252995
0.272053 0.16788 0.023743
0.293843 0.167468 0.0223392
0.316823 0.166995 0.0211185
0.34107 0.166552 0.0201114
0.366857 0.166003 0.0193179
0.393652 0.165728 0.0188602
0.421576 0.165484 0.0185092
0.45301 0.165469 0.0188449
0.487297 0.165713 0.019913
0.521035 0.166415 0.0217441
0.556252 0.16762 0.0243534
0.594797 0.169604 0.0281987
0.636347 0.172259 0.0335546
0.681224 0.17641 0.0411078
0.730098 0.182071 0.0511635
0.784939 0.191241 0.0652018
0.845426 0.207553 0.0867323
0.919768 0.233524 0.116228
1 0.286427 0.169253
0.0289616 0.184161 0.0343328
0.0440223 0.184741 0.0354925
0.059556 0.185489 0.0366064
0.0766613 0.186114 0.0374609
0.092668 0.186862 0.038056
0.109682 0.187472 0.0383307
0.125063 0.188144 0.0382544
0.141573 0.188571 0.0378271
0.158511 0.189059 0.0370031
0.175723 0.189014 0.0375525
0.194049 0.189059 0.0349279
0.214023 0.188846 0.0312352
0.233997 0.18883 0.0290532
0.254444 0.188724 0.0273747
0.275593 0.188922 0.0260319
0.29778 0.188922 0.0249638
0.32105 0.189227 0.0240787
0.345525 0.18938 0.0233921
0.37142 0.189883 0.0226902
0.398428 0.190127 0.0226291
0.426505 0.19086 0.0229496
0.457969 0.191714 0.0238193
0.492378 0.193164 0.025452
0.526009 0.194598 0.0278325
0.561288 0.19678 0.0311589
0.599893 0.19939 0.0357366
0.641321 0.203204 0.042237
0.686137 0.207767 0.0500343
0.735042 0.214054 0.0597086
0.790616 0.222507 0.0721752
0.852338 0.237232 0.0917678
0.925521 0.262852 0.121798
1 0.31548 0.175845
0.0274662 0.205692 0.034699
0.0429694 0.206226 0.0358587
0.0588083 0.206775 0.0369421
0.0766766 0.207446 0.0378424
0.0931563 0.208026 0.0384527
0.110582 0.208621 0.0388495
0.126299 0.209033 0.0389105
0.143114 0.209567 0.0386664
0.160174 0.209934 0.0380865
0.177539 0.210208 0.0373083
0.19617 0.210315 0.0381781
0.216861 0.210758 0.0354925
0.23743 0.211246 0.0324102
0.258427 0.211795 0.0306554
0.280079 0.212329 0.0294041
0.302647 0.213153 0.0282597
0.326375 0.213947 0.0277867
0.35108 0.214954 0.0275731
0.377264 0.215915 0.0277104
0.404211 0.21738 0.0282444
0.43241 0.21883 0.0291905
0.464027 0.22063 0.030869
0.498497 0.22269 0.0333104
0.532204 0.225254 0.0364996
0.56733 0.228244 0.0406348
0.605814 0.231815 0.0464332
0.647105 0.236179 0.0530404
0.691478 0.242039 0.0611734
0.740032 0.24892 0.071046
0.795209 0.258091 0.0834669
0.858534 0.270741 0.0996567
0.931502 0.295445 0.129519
1 0.347784 0.184955
0.0252079 0.226856 0.0344701
0.0408942 0.227375 0.0356146
0.0572519 0.227939 0.0366979
0.0758526 0.228443 0.037583
0.0928969 0.228931 0.0382544
0.110796 0.229435 0.0387121
0.126848 0.229862 0.0388952
0.144106 0.23035 0.038941
0.161761 0.230976 0.0389258
0.179736 0.231678 0.0388647
0.198932 0.232502 0.0388342
0.22005 0.23328 0.0406958
0.241321 0.234195 0.0375982
0.262913 0.235248 0.0350805
0.28513 0.236393 0.0338293
0.30811 0.237675 0.0332036
0.332052 0.239139 0.0330816
0.357214 0.240681 0.0334325
0.383429 0.242542 0.0341955
0.410712 0.244465 0.0354009
0.438941 0.246662 0.0371405
0.470649 0.249226 0.0396429
0.505013 0.252338 0.0433814
0.538735 0.255467 0.0473182
0.573709 0.259236 0.0520485
0.611994 0.263661 0.0578775
0.652949 0.269017 0.0649119
0.697108 0.275319 0.0733806
0.745037 0.28307 0.0835279
0.799634 0.292882 0.0962234
0.862196 0.306111 0.112261
0.936049 0.328588 0.139452
1 0.379767 0.195224
0.0218357 0.248264 0.0336614
0.0378882 0.248722 0.0348058
0.054902 0.249149 0.0358587
0.0741894 0.249638 0.0367742
0.0918898 0.25005 0.0374609
0.110567 0.250629 0.0381933
0.127504 0.251225 0.0388495
0.145495 0.252201 0.0395514
0.164004 0.253178 0.040238
0.182696 0.254231 0.040589
0.202365 0.255421 0.0412909
0.22417 0.256886 0.0423285
0.245655 0.258259 0.0449531
0.267903 0.259724 0.0426642
0.290593 0.261295 0.0407416
0.314015 0.263233 0.0401923
0.338445 0.265171 0.0403906
0.36379 0.267338 0.0411994
0.390341 0.269612 0.0428779
0.417762 0.272282 0.0448463
0.446159 0.275059 0.0473182
0.477882 0.278355 0.0505226
0.51223 0.282048 0.0545205
0.545632 0.286183 0.0589914
0.580575 0.290547 0.0642405
0.618738 0.295628 0.0706188
0.659297 0.301534 0.0780041
0.703182 0.308568 0.0869154
0.750423 0.317082 0.0973678
0.804181 0.327596 0.110338
0.865644 0.341238 0.12668
0.939666 0.362615 0.152102
1 0.413245 0.208606
0.0173495 0.270146 0.0322576
0.0336614 0.270436 0.0334325
0.0516823 0.270985 0.0344854
0.0720378 0.271473 0.0356603
0.0908827 0.272282 0.0368505
0.110674 0.273152 0.0381933
0.128557 0.274235 0.0391241
0.147585 0.275319 0.0404517
0.166827 0.276768 0.041886
0.18613 0.278141 0.0433661
0.206607 0.279881 0.0450599
0.228946 0.281605 0.047013
0.251011 0.283604 0.0497902
0.273396 0.28542 0.0529335
0.296742 0.287602 0.0514076
0.320546 0.28983 0.0501564
0.345388 0.292378 0.0504921
0.371038 0.294942 0.0515145
0.397925 0.297963 0.0533761
0.425437 0.300969 0.0556954
0.454032 0.304402 0.0587167
0.485695 0.308217 0.0623789
0.520058 0.312825 0.0670634
0.553384 0.317281 0.0720226
0.58819 0.322393 0.0778515
0.625956 0.328023 0.0845808
0.666133 0.334874 0.0925002
0.709392 0.342321 0.101717
0.756024 0.351507 0.112627
0.808835 0.362509 0.125933
0.869078 0.377035 0.142657
0.942123 0.397803 0.167178
1 0.447303 0.223499
0.0120089 0.292683 0.0303807
0.0287785 0.293339 0.0318303
0.0484321 0.294026 0.033463
0.0703136 0.295064 0.0351873
0.0905013 0.296101 0.0366369
0.111482 0.297429 0.0386358
0.130419 0.298604 0.0405585
0.150454 0.300221 0.0427253
0.170474 0.30193 0.0450294
0.190555 0.303731 0.047715
0.211795 0.305562 0.0503395
0.234592 0.308003 0.0532998
0.25716 0.310353 0.0564126
0.280018 0.312764 0.060029
0.303349 0.31516 0.0637217
0.327764 0.317998 0.0630198
0.353094 0.320867 0.0625772
0.379202 0.323964 0.0637064
0.406134 0.327337 0.065568
0.43415 0.330907 0.0684367
0.462593 0.334874 0.0717174
0.494347 0.339345 0.0759442
0.528603 0.344289 0.0810407
0.561944 0.349493 0.086656
0.59649 0.355001 0.0928969
0.633814 0.36144 0.100206
0.673732 0.368399 0.108583
0.716091 0.376928 0.118257
0.762188 0.386343 0.12961
0.813748 0.398169 0.143297
0.872892 0.412589 0.160372
0.944579 0.433555 0.184436
1 0.481498 0.240543
0.0065156 0.316899 0.0289769
0.0245975 0.317891 0.0310216
0.0456703 0.319066 0.0328679
0.0691997 0.320378 0.0352331
0.0909285 0.321706 0.0377356
0.113146 0.323369 0.0405737
0.132998 0.325017 0.0432593
0.153964 0.326833 0.0466316
0.175021 0.328801 0.049836
0.195865 0.330938 0.0530861
0.217609 0.333318 0.0565652
0.241215 0.335927 0.060441
0.264408 0.338628 0.0644236
0.287724 0.341436 0.0686503
0.311513 0.344366 0.0734875
0.335897 0.347524 0.0777295
0.361547 0.35082 0.0780652
0.387839 0.354452 0.0784466
0.415396 0.358236 0.0802167
0.443442 0.362219 0.0831006
0.471977 0.366629 0.086656
0.503868 0.371527 0.0913405
0.537972 0.377188 0.0969558
0.571054 0.382757 0.102968
0.605356 0.388785 0.109651
0.642405 0.395605 0.117479
0.681697 0.403311 0.12636
0.723674 0.411963 0.136568
0.768658 0.421973 0.148348
0.819104 0.434211 0.162493
0.876585 0.449287 0.180072
0.946319 0.470207 0.203815
1 0.516823 0.259434
0.000976577 0.342947 0.0282139
0.020676 0.34435 0.0307927
0.0441444 0.345663 0.0337072
0.0693675 0.347417 0.0369573
0.092195 0.349111 0.0402533
0.115969 0.351034 0.0443275
0.136629 0.35288 0.047837
0.158572 0.355123 0.0517281
0.180377 0.357443 0.0556954
0.202106 0.359838 0.0597848
0.224598 0.362387 0.0640421
0.248936 0.365454 0.0689097
0.272557 0.368536 0.0737469
0.296345 0.371695 0.0788281
0.320623 0.374838 0.084123
0.345342 0.37847 0.0901045
0.370947 0.382193 0.09514
0.397543 0.386175 0.0965438
0.425132 0.390311 0.0981003
0.4533 0.394888 0.100191
0.4822 0.399603 0.103868
0.514 0.40499 0.108766
0.54815 0.410834 0.114733
0.58114 0.416922 0.121218
0.614893 0.423499 0.128328
0.65153 0.430732 0.136614
0.690257 0.438651 0.145937
0.731609 0.447807 0.156664
0.775402 0.458381 0.168856
0.824948 0.470634 0.183612
0.880598 0.485939 0.201541
0.947784 0.507286 0.225742
1 0.552132 0.281559
0 0.371176 0.0289158
0.0178378 0.372778 0.0323186
0.0435798 0.374655 0.0361028
0.0706798 0.376394 0.0403449
0.0946822 0.378576 0.0448157
0.119722 0.380682 0.0494392
0.141512 0.383001 0.0537423
0.164172 0.385336 0.0583505
0.187198 0.387945 0.0631876
0.209354 0.390616 0.0679484
0.232746 0.393652 0.073167
0.257649 0.39678 0.0788739
0.281941 0.400275 0.084596
0.306127 0.403647 0.090425
0.330846 0.40737 0.0966964
0.35584 0.411078 0.103212
0.381552 0.41532 0.110292
0.408255 0.419379 0.116136
0.436149 0.424109 0.118853
0.464378 0.428779 0.121706
0.493278 0.434012 0.125124
0.5252 0.439551 0.129259
0.559197 0.446143 0.135103
0.591775 0.452399 0.141711
0.625345 0.459373 0.14934
0.661372 0.466819 0.157992
0.699428 0.475441 0.167895
0.739559 0.484825 0.178851
0.782925 0.495399 0.19173
0.830594 0.508125 0.206775
0.884718 0.523674 0.225422
0.949371 0.544579 0.250462
1 0.587259 0.311864
0 0.400946 0.0312657
0.0166781 0.402869 0.035584
0.04477 0.404776 0.0406195
0.0731365 0.407141 0.0457465
0.0988174 0.409369 0.0507515
0.124636 0.411994 0.0561379
0.147707 0.414221 0.0611429
0.171374 0.41706 0.0665904
0.194888 0.419883 0.0721447
0.218082 0.422812 0.0778058
0.241962 0.425895 0.0836957
0.267506 0.429587 0.0903792
0.292439 0.433173 0.09691
0.317052 0.436942 0.103639
0.342 0.440681 0.110597
0.367605 0.444846 0.118029
0.3935 0.449226 0.125856
0.420035 0.453864 0.133959
0.447791 0.458564 0.140658
0.476204 0.463783 0.144656
0.505089 0.469123 0.149004
0.536843 0.475227 0.15404
0.570626 0.481773 0.160128
0.603037 0.488548 0.166751
0.636103 0.49572 0.174044
0.671656 0.503639 0.182681
0.70901 0.512108 0.192676
0.748653 0.521767 0.20444
0.790295 0.532692 0.218082
0.836576 0.545571 0.234913
0.888502 0.560906 0.255741
0.950286 0.581811 0.28455
1 0.622477 0.345159
0 0.432517 0.0355383
0.0167239 0.434623 0.0411383
0.0470588 0.436942 0.0466773
0.0771649 0.439429 0.0526131
0.104128 0.441901 0.0583658
0.131395 0.444678 0.0645914
0.155062 0.447349 0.0703288
0.179599 0.450248 0.0765393
0.203952 0.453315 0.0828107
0.227893 0.456413 0.0892653
0.252354 0.459876 0.0960861
0.278431 0.463691 0.103502
0.30396 0.467445 0.110887
0.329107 0.471382 0.118471
0.354498 0.475502 0.126238
0.380362 0.479728 0.134417
0.406485 0.484337 0.143008
0.433219 0.489158 0.152132
0.460914 0.494224 0.161425
0.488853 0.499611 0.168994
0.517601 0.505226 0.174258
0.54905 0.511589 0.180392
0.582696 0.518486 0.18761
0.614771 0.525307 0.19501
0.647456 0.532601 0.203281
0.682322 0.540642 0.212955
0.718929 0.549432 0.223972
0.757366 0.559167 0.23653
0.797971 0.570016 0.251164
0.842481 0.582925 0.268925
0.891951 0.598489 0.290745
0.951339 0.618418 0.320531
1 0.657328 0.380331
0 0.46833 0.0428168
0.0186618 0.470726 0.0488594
0.0521248 0.472999 0.0552224
0.0838331 0.475868 0.062089
0.111711 0.478614 0.0686503
0.13991 0.481697 0.0757458
0.164935 0.48426 0.0822156
0.190295 0.487572 0.08925
0.215137 0.490883 0.0963912
0.239765 0.494194 0.103593
0.264927 0.497658 0.111238
0.291936 0.501732 0.119661
0.317784 0.505745 0.127947
0.343496 0.509834 0.1364
0.369192 0.513893 0.144991
0.395117 0.518593 0.15404
0.421393 0.523415 0.16347
0.448402 0.528328 0.173312
0.476097 0.533349 0.18378
0.503914 0.539055 0.194263
0.532387 0.544762 0.203265
0.563867 0.551141 0.210697
0.59675 0.55819 0.218799
0.628244 0.565408 0.227405
0.660441 0.572717 0.236698
0.694591 0.580804 0.24741
0.729885 0.589654 0.25922
0.76701 0.599619 0.272999
0.806241 0.610346 0.288823
0.849042 0.622995 0.307561
0.895872 0.638117 0.330312
0.951583 0.657755 0.361074
1 0.694163 0.420172
0 0.507805 0.0525521
0.0251469 0.510079 0.0594034
0.0599832 0.512901 0.0666819
0.093019 0.515694 0.0743114
0.121904 0.518822 0.0818341
0.151553 0.521843 0.0897383
0.177066 0.525002 0.0971542
0.203143 0.528145 0.104921
0.229358 0.531624 0.112978
0.253971 0.535103 0.120989
0.280369 0.538857 0.129656
0.307683 0.542794 0.138888
0.333928 0.547127 0.148119
0.35993 0.551186 0.157382
0.386053 0.555734 0.167025
0.412161 0.560189 0.176822
0.438819 0.565148 0.187304
0.465843 0.570031 0.19791
0.493507 0.575525 0.209415
0.520912 0.581033 0.221012
0.549355 0.586862 0.232746
0.57969 0.593332 0.244022
0.612345 0.600717 0.253727
0.643381 0.607462 0.263233
0.674601 0.615091 0.273732
0.707805 0.623011 0.285374
0.742016 0.63209 0.298695
0.778012 0.641398 0.313481
0.815137 0.652323 0.330297
0.85568 0.664485 0.350118
0.900099 0.679271 0.374151
0.951659 0.697841 0.405264
1 0.731487 0.463508
0 0.546502 0.0641489
0.0338445 0.549035 0.0716259
0.0697337 0.55172 0.0796979
0.10396 0.554971 0.0883497
0.134234 0.557992 0.0965286
0.164523 0.561318 0.105409
0.190738 0.564263 0.113405
0.217517 0.567834 0.122194
0.244404 0.571206 0.130938
0.270039 0.574792 0.139864
0.296071 0.578546 0.149035
0.324102 0.582818 0.159365
0.350744 0.58703 0.169451
0.376944 0.591363 0.179553
0.403113 0.595605 0.189914
0.429435 0.600473 0.200687
0.456428 0.605188 0.211948
0.483253 0.610315 0.223545
0.510918 0.615442 0.23563
0.538323 0.62121 0.248219
0.5664 0.62681 0.261357
0.596262 0.633402 0.275181
0.627985 0.640375 0.288289
0.658122 0.647562 0.299168
0.688624 0.654826 0.310658
0.720958 0.662745 0.323568
0.75404 0.671244 0.337636
0.788281 0.680842 0.353658
0.82385 0.691096 0.371496
0.861891 0.703197 0.392294
0.903365 0.717021 0.416953
0.951553 0.734569 0.448997
1 0.765087 0.505302
0.00529488 0.586999 0.0781109
0.0456245 0.589563 0.0865034
0.0830854 0.592447 0.0954147
0.117769 0.595697 0.104814
0.148989 0.598733 0.113909
0.180011 0.602136 0.123613
0.206729 0.605341 0.132372
0.234089 0.608789 0.141802
0.26125 0.612268 0.151446
0.287755 0.615747 0.161135
0.313817 0.619791 0.171313
0.342458 0.623835 0.182422
0.369406 0.628 0.193378
0.395804 0.632334 0.204364
0.42211 0.636774 0.215579
0.448722 0.641291 0.227268
0.475166 0.646159 0.239277
0.502403 0.651026 0.25182
0.529931 0.656245 0.264866
0.556924 0.661799 0.278157
0.584619 0.667292 0.292134
0.614069 0.67364 0.307469
0.644816 0.680674 0.323491
0.674327 0.687312 0.337316
0.703655 0.694545 0.349935
0.73492 0.702098 0.364065
0.766445 0.710597 0.379355
0.799008 0.719692 0.396231
0.832593 0.729519 0.415106
0.868681 0.740749 0.43682
0.907393 0.753719 0.462272
0.951629 0.769833 0.494209
1 0.797223 0.547921
0.0222171 0.630808 0.0957351
0.0628214 0.633448 0.104967
0.100175 0.636255 0.114717
0.136385 0.639597 0.125154
0.16759 0.642771 0.135012
0.199176 0.646204 0.145602
0.226001 0.649256 0.155062
0.254047 0.652857 0.165484
0.281636 0.656291 0.175967
0.30811 0.659846 0.186481
0.335271 0.663386 0.19736
0.363806 0.667689 0.209522
0.390677 0.67187 0.221408
0.417334 0.67602 0.233295
0.444144 0.679988 0.245396
0.470588 0.684627 0.258061
0.497215 0.689265 0.271
0.523842 0.694133 0.284321
0.550759 0.699077 0.298253
0.577844 0.704448 0.312703
0.604685 0.709926 0.327352
0.63389 0.715846 0.343847
0.663691 0.722347 0.361227
0.691676 0.729061 0.377951
0.72015 0.735714 0.393668
0.749859 0.743069 0.408804
0.780316 0.750607 0.425269
0.810697 0.759441 0.443488
0.842283 0.768566 0.463172
0.875837 0.778851 0.48574
0.911376 0.790539 0.511269
0.951568 0.805035 0.542809
1 0.828336 0.592264
0.0438087 0.677378 0.117266
0.0843366 0.679805 0.127245
0.122393 0.682933 0.138125
0.158022 0.685985 0.149294
0.190234 0.689219 0.160128
0.222019 0.692378 0.171572
0.249592 0.695674 0.182086
0.277943 0.698726 0.193149
0.305791 0.702296 0.204593
0.332769 0.705425 0.21593
0.359655 0.709361 0.228016
0.388296 0.713069 0.240803
0.415518 0.71722 0.253651
0.441779 0.72108 0.266392
0.468467 0.725292 0.279622
0.494636 0.72932 0.293034
