subtle niceties LUT V2 beta (SSH-TS reimagined).cube
TITLE "Generated by Resolve"
LUT_3D_SIZE 5
0.00801099 0.00801099 0.00801099
0.158297 0.0108492 0.0105592
0.348348 0.0149996 0.0247196
0.580362 0.049424 0.0756542
1 0.249058 0.252384
0.0254826 0.165637 0.0305333
0.184115 0.179904 0.0458381
0.381979 0.197696 0.0594186
0.628367 0.230426 0.107179
1 0.399115 0.290242
0.0470893 0.38143 0.0764782
0.234699 0.399405 0.109651
0.433417 0.423148 0.149859
0.67219 0.4598 0.191714
1 0.594202 0.372107
0.131701 0.656275 0.187381
0.329091 0.671778 0.232074
0.517769 0.689647 0.290105
0.726802 0.715648 0.369604
1 0.799191 0.550378
0.606012 1 0.604135
0.689647 1 0.647791
0.769879 1 0.6925
0.853651 1 0.729488
1 1 0.769223
0.0433204 0.029984 0.188357
0.17966 0.0422217 0.18262
0.367651 0.0471962 0.179248
0.609476 0.0486 0.19501
1 0.250996 0.326894
0.0604257 0.190173 0.191379
0.207034 0.20705 0.20708
0.385504 0.239582 0.224094
0.639124 0.271534 0.238712
1 0.424903 0.367819
0.0983444 0.400198 0.239429
0.271107 0.416632 0.274189
0.449912 0.447333 0.305318
0.683436 0.487556 0.328466
1 0.608988 0.456489
0.163745 0.675776 0.329625
0.352544 0.690196 0.366415
0.534325 0.707866 0.410498
0.738201 0.732616 0.469352
1 0.808789 0.604044
0.620844 1 0.656489
0.700542 1 0.690974
0.775631 1 0.724529
0.854383 1 0.748012
1 1 0.784436
0.127687 0.073106 0.405432
0.230259 0.0910811 0.40267
0.396017 0.116503 0.403006
0.645762 0.161212 0.42211
1 0.276173 0.470008
0.136721 0.226963 0.405386
0.255131 0.249134 0.403906
0.423468 0.27866 0.425681
0.668574 0.310201 0.437507
1 0.42298 0.494392
0.153979 0.433417 0.436912
0.309789 0.451438 0.452506
0.480323 0.480827 0.480858
0.691981 0.528283 0.511254
1 0.638743 0.589075
0.218845 0.699916 0.506264
0.391608 0.712627 0.533028
0.564553 0.727718 0.567422
0.753414 0.752956 0.606699
1 0.821225 0.687404
0.646296 1 0.733486
0.716213 1 0.754391
0.783627 1 0.774411
0.854887 1 0.784405
1 1 0.817853
0.279774 0.190524 0.712688
0.342718 0.186145 0.702068
0.474083 0.202518 0.696651
0.69012 0.248005 0.702525
1 0.410681 0.726497
0.266636 0.296666 0.713924
0.344366 0.300618 0.704967
0.488685 0.327489 0.701717
0.703075 0.371252 0.711162
1 0.497505 0.722118
0.263661 0.484215 0.714336
0.375692 0.497948 0.708263
0.531884 0.527703 0.710231
0.732403 0.567361 0.735103
1 0.664256 0.760113
0.305455 0.733593 0.739773
0.441413 0.745541 0.74905
0.601556 0.758938 0.760128
0.778119 0.779538 0.780026
1 0.840497 0.814817
0.686946 1 0.844022
0.743358 1 0.853101
0.795758 1 0.85864
0.857649 1 0.855924
1 1 0.887098
0.713893 0.656764 1
0.711025 0.565393 1
0.748302 0.503273 1
0.852384 0.48249 1
1 0.564752 1
0.614984 0.619852 1
0.633829 0.554788 1
0.696468 0.521248 1
0.825757 0.526055 1
1 0.640742 1
0.538674 0.668269 1
0.584222 0.636103 1
0.674052 0.630671 1
0.822492 0.654749 1
1 0.76173 1
0.504097 0.817273 1
0.578546 0.815122 1
0.690318 0.822309 1
0.833127 0.836835 1
1 0.879988 1
0.799115 1 1
0.824079 1 1
0.850248 1 1
0.902831 1 1
0.99736 1 1
