subtle niceties LUT (SSH-TS reimagined).cube
TITLE "Generated by Resolve"
LUT_3D_SIZE 33
0.00605783 0.00605783 0.00605783
0.019791 0.00662242 0.00672923
0.0368963 0.00593576 0.00656138
0.0555276 0.00477607 0.00627146
0.0733654 0.00357061 0.00605783
0.093431 0.00221256 0.00590524
0.113817 0.000640879 0.00585946
0.134966 0 0.0059205
0.1561 0 0.00613413
0.177005 0 0.0065156
0.198749 0 0.00708019
0.221988 0 0.00790417
0.244678 0 0.00892653
0.267384 0 0.0102083
0.290394 0 0.0117494
0.313939 0 0.0135958
0.337499 0 0.0162509
0.361318 0 0.0196689
0.386175 0 0.0236515
0.411643 0 0.0281834
0.437873 0 0.0333715
0.467079 0 0.0397345
0.498756 0 0.0473793
0.529564 0 0.0555428
0.561791 0 0.0649424
0.596994 0 0.076112
0.634974 0.000198367 0.0893416
0.676158 0.00642405 0.103609
0.721508 0.0143435 0.119295
0.773922 0.024979 0.137469
0.835859 0.0396735 0.158938
0.915557 0.0619364 0.186587
1 0.104799 0.228
0.00737011 0.0203555 0.00750744
0.0211795 0.0209354 0.00766003
0.0364233 0.0210269 0.0080415
0.053254 0.020798 0.00791943
0.0699626 0.0201419 0.00767529
0.0897078 0.0190585 0.00735485
0.110643 0.0173953 0.0069276
0.132525 0.0154726 0.00660716
0.154467 0.0132448 0.00645457
0.17615 0.0108949 0.00650034
0.198581 0.00833143 0.00677501
0.222431 0.00570687 0.00732433
0.245624 0.00308232 0.00813306
0.268696 0.000579843 0.00921645
0.292042 0 0.010605
0.315816 0 0.0122988
0.340276 0 0.0143893
0.365057 0 0.0171511
0.38999 0 0.0210422
0.415274 0 0.0256199
0.441398 0 0.0308843
0.47042 0 0.0373236
0.501915 0 0.0450294
0.532586 0 0.0532692
0.564645 0 0.0627298
0.59968 0.00352483 0.07393
0.637491 0.00834669 0.0872969
0.678599 0.0145418 0.101793
0.723812 0.0222934 0.117723
0.776089 0.0329137 0.136065
0.837842 0.0474098 0.157763
0.917449 0.0695048 0.185641
1 0.111589 0.227054
0.00689708 0.0365148 0.00753796
0.0215305 0.0366064 0.0075227
0.0374914 0.0365148 0.00740063
0.0541848 0.0361334 0.0078584
0.0703136 0.0357519 0.00796521
0.0892958 0.0349584 0.00787366
0.109392 0.0338903 0.00767529
0.130755 0.0322576 0.00741588
0.152575 0.0303044 0.00721752
0.174517 0.0278477 0.00701915
0.197421 0.0251164 0.00697337
0.221912 0.0218662 0.007187
0.24564 0.0187991 0.00770581
0.2692 0.0156405 0.00852979
0.292927 0.012665 0.00967422
0.317067 0.00959792 0.0112001
0.341833 0.00668345 0.0131075
0.367163 0.00381476 0.0154421
0.39324 0.00143435 0.0184939
0.418784 0.000808728 0.0229038
0.444755 0.00135805 0.0282139
0.473655 0.00228885 0.0347295
0.505013 0.00396735 0.0424964
0.535576 0.00588998 0.0508431
0.567498 0.00863661 0.0603342
0.602441 0.0122683 0.0716564
0.640101 0.0171054 0.0851453
0.681041 0.0230716 0.0998856
0.726085 0.0309911 0.115969
0.778241 0.0413519 0.134585
0.839857 0.0559701 0.15642
0.919219 0.0780804 0.184466
1 0.118181 0.226123
0.00581369 0.0536049 0.00717174
0.0211032 0.0533761 0.00727855
0.0372625 0.0531014 0.00674449
0.0545815 0.0525521 0.00689708
0.0708476 0.0519722 0.00735485
0.0896315 0.0512551 0.00759899
0.109285 0.0502327 0.00767529
0.130312 0.0489204 0.00759899
0.151827 0.0471504 0.0074464
0.173495 0.0449836 0.00732433
0.196338 0.0422522 0.00726329
0.220966 0.0391089 0.00733959
0.245029 0.0356909 0.00759899
0.269047 0.0321508 0.00813306
0.293202 0.0285344 0.00900282
0.317739 0.0250248 0.0102846
0.342855 0.0214694 0.0119936
0.368505 0.0180514 0.0141451
0.395071 0.0146487 0.0168307
0.421714 0.0121157 0.0202945
0.447974 0.0117037 0.0253605
0.476814 0.0124056 0.0319829
0.508064 0.0137331 0.0398718
0.538521 0.0156252 0.0482795
0.570321 0.0181888 0.0578164
0.605127 0.0217441 0.0691844
0.64268 0.0262913 0.0828412
0.683543 0.0321355 0.0978408
0.728435 0.0399481 0.114137
0.780453 0.050248 0.132998
0.841932 0.0645304 0.155093
0.921141 0.0867781 0.183337
1 0.12491 0.225116
0.00454719 0.0698863 0.00672923
0.020264 0.0694133 0.00686656
0.0367132 0.0688029 0.0065919
0.0540932 0.0682689 0.00593576
0.070573 0.0674449 0.00642405
0.0897383 0.0665904 0.00689708
0.109346 0.0655833 0.00721752
0.130175 0.0642863 0.00737011
0.151461 0.0626535 0.00738537
0.172976 0.0606088 0.00733959
0.195697 0.0580606 0.00730907
0.220279 0.0549325 0.00737011
0.244419 0.0514687 0.00758373
0.268635 0.047776 0.00796521
0.293095 0.0438697 0.00862135
0.317968 0.0398718 0.00965896
0.343389 0.0358282 0.0111391
0.369329 0.0319219 0.013077
0.396185 0.0280308 0.0155795
0.423377 0.0243381 0.0186007
0.450568 0.022034 0.022858
0.47953 0.0221561 0.0294041
0.510719 0.0232853 0.0373541
0.541085 0.024979 0.0458228
0.572793 0.0274357 0.0554055
0.607523 0.0307774 0.0668803
0.645014 0.0351263 0.0803693
0.685756 0.0408789 0.0958572
0.730556 0.0484627 0.112459
0.782452 0.0586862 0.131502
0.843763 0.0731518 0.153704
0.922896 0.0943465 0.182269
1 0.131243 0.224155
0.00294499 0.0886244 0.00614939
0.019028 0.0879683 0.00631724
0.0357671 0.0873274 0.00621042
0.0532082 0.0867933 0.00581369
0.0697642 0.0861067 0.0053254
0.0893416 0.0850385 0.00588998
0.109194 0.0838331 0.00639353
0.130022 0.0825666 0.00677501
0.151217 0.0807202 0.00700389
0.17258 0.0787823 0.00712596
0.195193 0.0762646 0.007187
0.219684 0.0732891 0.00727855
0.243778 0.0699474 0.0074464
0.268101 0.0661326 0.00779736
0.292683 0.0620432 0.00831617
0.317876 0.0577096 0.00914015
0.343648 0.0532082 0.0103456
0.36997 0.0486763 0.0120241
0.397101 0.0441444 0.0142977
0.424567 0.0399786 0.0171054
0.45272 0.0358282 0.0205234
0.48246 0.0340734 0.0263371
0.513573 0.0348669 0.0343786
0.543923 0.0362554 0.0429541
0.575601 0.0383917 0.0526436
0.610239 0.0415503 0.0641489
0.647593 0.045716 0.0777142
0.688258 0.0513161 0.0935073
0.732982 0.0586252 0.110414
0.78471 0.0687877 0.129686
0.84593 0.0830854 0.152224
0.924849 0.103151 0.180941
1 0.138079 0.223056
0.000991836 0.108034 0.00547799
0.0173495 0.107271 0.0056611
0.0343633 0.106691 0.00564584
0.051957 0.105974 0.00544747
0.0685283 0.105394 0.00512703
0.0883192 0.104417 0.00483711
0.108522 0.103334 0.00537118
0.129595 0.101946 0.00588998
0.150896 0.100511 0.00630198
0.172168 0.0987411 0.00660716
0.194705 0.0966659 0.00683604
0.219104 0.093904 0.00701915
0.243198 0.0908827 0.00721752
0.267506 0.0872206 0.00753796
0.292226 0.0832837 0.00799573
0.317525 0.0784466 0.00869764
0.343542 0.0736858 0.00968948
0.37023 0.0685283 0.0111086
0.397787 0.0634318 0.0130312
0.425605 0.0583658 0.0155489
0.454032 0.0536355 0.0187381
0.485039 0.0492103 0.0233005
0.51667 0.048661 0.03093
0.546929 0.0496376 0.0395819
0.578576 0.0515145 0.0493477
0.613153 0.0542306 0.0610361
0.650446 0.0582895 0.0746319
0.691005 0.0634623 0.0907607
0.735592 0.0707103 0.107942
0.787259 0.080415 0.127596
0.848325 0.0940414 0.150423
0.927123 0.112444 0.179477
1 0.146075 0.221714
0 0.12842 0.00468452
0.0151827 0.127718 0.00486763
0.0324254 0.126955 0.00492866
0.050248 0.126345 0.00485237
0.0669108 0.125689 0.00469978
0.086717 0.124895 0.00444038
0.107271 0.123781 0.00433356
0.12871 0.122545 0.00482185
0.150225 0.121111 0.00534066
0.171664 0.119509 0.00578317
0.194156 0.117556 0.00616464
0.21854 0.115267 0.00650034
0.242588 0.112596 0.00679026
0.266896 0.109483 0.00712596
0.29163 0.105898 0.00758373
0.317006 0.102007 0.00820935
0.343221 0.0974899 0.00909438
0.370092 0.092607 0.0102846
0.398032 0.0870069 0.0118868
0.426276 0.0814832 0.0140993
0.4551 0.0755779 0.0168765
0.486824 0.0696574 0.0207523
0.519875 0.0656596 0.0269017
0.550271 0.0661021 0.0355993
0.581872 0.0674754 0.0454871
0.616419 0.0698558 0.0572213
0.65362 0.0733349 0.070985
0.694102 0.0783398 0.0873121
0.738659 0.0851453 0.105089
0.790173 0.0942397 0.125063
0.851087 0.106218 0.148241
0.929686 0.1234 0.177569
1 0.155001 0.220157
0 0.149035 0.00381476
0.0126497 0.148318 0.00399786
0.0300603 0.147616 0.00408942
0.0480964 0.146914 0.00410468
0.0648356 0.146288 0.0040589
0.0847639 0.14551 0.00393683
0.105592 0.144564 0.00381476
0.127306 0.143389 0.00389105
0.149096 0.142016 0.0043183
0.170764 0.14049 0.00479133
0.193439 0.13872 0.00527962
0.217868 0.136584 0.00573739
0.241947 0.134188 0.00613413
0.266209 0.131487 0.00654612
0.29099 0.128389 0.00700389
0.316457 0.124804 0.00761425
0.342718 0.120821 0.00842298
0.369787 0.11635 0.00950637
0.39791 0.111376 0.010956
0.426551 0.105959 0.0128176
0.455833 0.100282 0.0152285
0.487922 0.0941482 0.018677
0.522454 0.0874495 0.0231785
0.553613 0.0856336 0.0310521
0.58526 0.0864118 0.0410468
0.619852 0.088014 0.0529488
0.657069 0.0908522 0.0668345
0.697475 0.0949722 0.0834211
0.741863 0.100725 0.10164
0.79324 0.108705 0.122103
0.854139 0.119112 0.145815
0.932509 0.134936 0.175525
1 0.166049 0.218997
0 0.169619 0.00288396
0.00973526 0.168917 0.0030518
0.0272984 0.168154 0.00317388
0.0454108 0.167559 0.00323491
0.0623941 0.166888 0.00326543
0.082414 0.166155 0.00325017
0.103609 0.165164 0.00323491
0.125597 0.164157 0.00328069
0.147585 0.162905 0.00350958
0.169528 0.161456 0.00387579
0.192401 0.159716 0.0043183
0.217014 0.157794 0.00482185
0.241154 0.155612 0.00531014
0.265431 0.153201 0.00578317
0.290272 0.150301 0.00628672
0.31577 0.147204 0.00688182
0.342153 0.143557 0.00766003
0.369375 0.139467 0.00866712
0.397635 0.134829 0.00999466
0.426413 0.130037 0.0116579
0.456031 0.124559 0.0138399
0.488685 0.118395 0.0167086
0.523552 0.111818 0.0208743
0.556481 0.106844 0.0265354
0.588663 0.105943 0.0361639
0.623255 0.10692 0.0481117
0.660502 0.108766 0.0621805
0.700847 0.112184 0.0785992
0.74522 0.116869 0.0977035
0.796643 0.123384 0.118822
0.857237 0.132952 0.142947
0.935546 0.147097 0.173205
1 0.18146 0.219242
0 0.191211 0.00184634
0.00631724 0.190463 0.00201419
0.0240177 0.189868 0.002121
0.042298 0.189105 0.00224308
0.0592966 0.188571 0.00230411
0.0793011 0.187732 0.00238041
0.101106 0.186984 0.00244144
0.123415 0.18587 0.00256352
0.145769 0.184771 0.00282292
0.16791 0.183337 0.00320439
0.190967 0.181918 0.0034638
0.215793 0.17995 0.00387579
0.240101 0.178012 0.00433356
0.264469 0.175708 0.00483711
0.289418 0.173205 0.00538643
0.314977 0.17023 0.00601205
0.341451 0.166995 0.00674449
0.36875 0.163195 0.00769055
0.397147 0.159152 0.00888075
0.426169 0.154421 0.0104524
0.45594 0.149523 0.0124208
0.488869 0.143633 0.0150912
0.524285 0.13724 0.0185855
0.558312 0.130877 0.0229038
0.591531 0.128099 0.0313268
0.626734 0.127199 0.0427863
0.664179 0.128145 0.056733
0.704524 0.13048 0.0733043
0.748928 0.134218 0.093019
0.800229 0.139712 0.114809
0.860822 0.147982 0.139528
0.938827 0.160876 0.170291
1 0.202502 0.220462
0 0.214496 0.000671397
0.00224308 0.21387 0.000808728
0.0200198 0.213138 0.000946059
0.0383001 0.212604 0.00105287
0.0555276 0.211978 0.00115969
0.0755169 0.211292 0.0012665
0.0978408 0.210391 0.00140383
0.120699 0.209491 0.00158694
0.143389 0.208377 0.00190738
0.165805 0.207126 0.00244144
0.18912 0.205585 0.00296025
0.214054 0.204028 0.00309758
0.23856 0.202152 0.0033875
0.263203 0.200046 0.00383001
0.288243 0.197604 0.0043183
0.313924 0.195056 0.00489815
0.340551 0.192004 0.00561532
0.367971 0.188602 0.00650034
0.396521 0.18468 0.00759899
0.425711 0.180514 0.00901808
0.455619 0.175937 0.0108034
0.488853 0.170443 0.0132906
0.524575 0.164172 0.0165255
0.559106 0.158053 0.0202945
0.594278 0.152453 0.0258946
0.629755 0.150958 0.0374151
0.66772 0.150195 0.0509651
0.708629 0.150835 0.0670329
0.753048 0.153506 0.0872511
0.804273 0.158022 0.109865
0.864729 0.165042 0.135348
0.942733 0.176425 0.166995
1 0.231067 0.222248
0 0.237385 0
0 0.236789 0
0.0156863 0.236179 0
0.0340734 0.235569 0
0.0512856 0.234989 0
0.0714275 0.234318 7.62951e-05
0.0941939 0.233555 0.000259403
0.11754 0.232624 0.000488289
0.140734 0.23154 0.000823987
0.163455 0.230365 0.00135805
0.186999 0.229007 0.00227359
0.212222 0.22742 0.00282292
0.236896 0.225711 0.00283818
0.261662 0.223804 0.00302129
0.28687 0.221622 0.00335698
0.312688 0.219196 0.00383001
0.339406 0.216373 0.00447089
0.366918 0.21326 0.00526436
0.395682 0.209659 0.00627146
0.424964 0.205768 0.00755322
0.455161 0.201373 0.00920119
0.488624 0.196231 0.011429
0.524651 0.190372 0.0144198
0.559411 0.184482 0.0179141
0.5953 0.178408 0.0226749
0.632136 0.174975 0.0323949
0.670665 0.173205 0.045304
0.711849 0.172763 0.0613413
0.756924 0.173388 0.0805066
0.808316 0.176654 0.104341
0.868849 0.18233 0.130831
0.947463 0.195789 0.16495
1 0.264317 0.22504
0 0.260426 0
0 0.259907 0
0.0108034 0.25922 0
0.0292668 0.258732 0
0.0464942 0.258183 0
0.066743 0.257542 0
0.0899825 0.256703 0
0.113878 0.255924 0
0.137545 0.254917 0
0.160754 0.253773 0.000137331
0.184771 0.252338 0.000976577
0.210132 0.250935 0.00238041
0.234913 0.249363 0.00280766
0.259785 0.247654 0.00262455
0.285161 0.245548 0.00268559
0.311147 0.243397 0.00292973
0.338033 0.240772 0.00337224
0.365805 0.237797 0.00404364
0.394659 0.234394 0.00489815
0.424125 0.230838 0.00601205
0.454475 0.226749 0.00746166
0.488167 0.221866 0.00950637
0.524407 0.216251 0.012192
0.559518 0.210666 0.0154269
0.595773 0.204669 0.0197452
0.633158 0.200809 0.0288701
0.672755 0.197391 0.040528
0.714855 0.195468 0.0553902
0.760189 0.195193 0.0746929
0.812314 0.196216 0.0984054
0.872999 0.20061 0.125765
0.953124 0.221271 0.164202
1 0.302861 0.231388
0 0.283925 0
0 0.28333 0
0.00531014 0.282902 0
0.0238804 0.282261 0
0.0412299 0.281819 0
0.0614633 0.281132 0
0.0848707 0.280522 0
0.109712 0.279576 0
0.133852 0.278721 0
0.157595 0.277531 0
0.181842 0.276417 0
0.207675 0.274861 0.000762951
0.232731 0.273381 0.00263981
0.257725 0.271702 0.0028687
0.283268 0.269963 0.00251774
0.309438 0.267765 0.00239567
0.336431 0.265476 0.00254826
0.364324 0.262638 0.00294499
0.393332 0.259663 0.00355535
0.422995 0.256107 0.00450141
0.453529 0.252384 0.00570687
0.487419 0.247684 0.00746166
0.523964 0.242481 0.0099031
0.559411 0.236866 0.0128328
0.595941 0.231266 0.016846
0.633936 0.226764 0.0255436
0.67393 0.223255 0.0369421
0.716869 0.219974 0.0507515
0.763256 0.21799 0.0682994
0.815656 0.217929 0.0927291
0.878264 0.224475 0.12224
0.959976 0.252155 0.164446
1 0.34609 0.242847
0 0.30808 0
0 0.307637 0
0 0.307057 0
0.0178836 0.306615 0
0.0352636 0.306111 0
0.0556649 0.305531 0
0.0788739 0.304784 0
0.104753 0.304067 0
0.129595 0.303181 0
0.153765 0.30219 0
0.178698 0.300862 0
0.204974 0.29955 0
0.230381 0.29807 0.000686656
0.25565 0.296407 0.00311284
0.281117 0.294713 0.0030518
0.307271 0.292988 0.00244144
0.334462 0.290791 0.002121
0.362448 0.288304 0.002121
0.391714 0.285267 0.00244144
0.421561 0.282139 0.00303655
0.452308 0.278523 0.00396735
0.486442 0.274159 0.00541695
0.523278 0.268986 0.00753796
0.559014 0.263798 0.010132
0.595697 0.258427 0.0140993
0.63418 0.25391 0.0223392
0.674693 0.249805 0.0334173
0.717983 0.246387 0.0469368
0.765301 0.24303 0.0636759
0.819455 0.242969 0.0873274
0.884184 0.255818 0.121874
0.966674 0.290898 0.166003
1 0.394614 0.261067
0 0.33312 0
0 0.332692 0
0 0.332219 0
0.0110628 0.331731 0
0.0284428 0.331258 0
0.0487526 0.330739 0
0.072221 0.330083 0
0.0988937 0.329351 0
0.124743 0.328466 0
0.149462 0.327535 0
0.174807 0.326421 0
0.201541 0.325093 0
0.22739 0.323644 0
0.253101 0.322057 0.000732433
0.278843 0.320348 0.00373846
0.305028 0.318715 0.00334173
0.33228 0.316747 0.00244144
0.360357 0.314504 0.00187686
0.389746 0.311833 0.00169375
0.419791 0.308797 0.00187686
0.450736 0.305394 0.00239567
0.485222 0.301213 0.0034638
0.522225 0.296483 0.00512703
0.558206 0.291432 0.00730907
0.595102 0.286381 0.0116121
0.633982 0.281819 0.0195773
0.675013 0.277546 0.0301671
0.718959 0.273503 0.0433356
0.766995 0.270939 0.0604715
0.823865 0.276158 0.0879988
0.890929 0.29424 0.123812
0.973846 0.335653 0.172747
1 0.447776 0.286824
0 0.358999 0
0 0.358618 0
0 0.358038 0
0.00343328 0.357717 0
0.0206912 0.35729 0
0.0411841 0.356771 0
0.0644694 0.3561 0
0.0918898 0.355505 0
0.118807 0.354665 0
0.144335 0.35378 0
0.170245 0.352636 0
0.197681 0.351446 0
0.223926 0.350088 0
0.250172 0.348531 0
0.27631 0.346777 0.000869764
0.302647 0.345083 0.00686656
0.329717 0.343481 0.00511177
0.357977 0.341436 0.00309758
0.387533 0.338888 0.00163272
0.417624 0.336263 0.0011902
0.448859 0.333043 0.00120546
0.483528 0.329122 0.00172427
0.520851 0.324498 0.00288396
0.556802 0.320073 0.00563058
0.593713 0.315435 0.0099031
0.633112 0.310796 0.0175021
0.674769 0.306188 0.0273594
0.719799 0.302953 0.0408637
0.770321 0.305425 0.0619059
0.828977 0.316365 0.0935836
0.896239 0.340444 0.131807
0.980255 0.387121 0.189349
1 0.503868 0.320943
0 0.386084 0
0 0.385595 0
0 0.385306 0
0 0.384756 0
0.012192 0.384466 0
0.0328374 0.383856 0
0.0560159 0.383429 0
0.0840162 0.38262 0
0.111894 0.38201 0
0.138231 0.381079 0
0.164935 0.380209 0
0.193042 0.378866 0
0.220005 0.377646 0
0.246586 0.376074 0
0.273213 0.374594 0
0.300221 0.372625 0.0039826
0.327276 0.37084 0.0122225
0.355184 0.369192 0.00947585
0.384649 0.367254 0.00627146
0.414939 0.364721 0.00376898
0.446296 0.361913 0.00268559
0.48098 0.358297 0.00239567
0.518517 0.354223 0.00317388
0.554635 0.349905 0.00552377
0.591775 0.345617 0.0099031
0.631708 0.340856 0.0164187
0.674861 0.337881 0.0267796
0.722499 0.339208 0.0438087
0.775097 0.346777 0.0688792
0.834455 0.362875 0.103227
0.902525 0.392172 0.147509
0.986786 0.442802 0.215518
1 0.562463 0.362219
0 0.413794 0
0 0.413443 0
0 0.41297 0
0 0.412665 0
0.00270085 0.412284 0
0.0227512 0.411887 0
0.0464179 0.411215 0
0.0740063 0.410727 0
0.103593 0.410025 0
0.131411 0.409216 0
0.159091 0.408148 0
0.187823 0.407126 0
0.215259 0.405905 0
0.242496 0.404471 0
0.269718 0.402747 0
0.297322 0.400977 0.00204471
0.325078 0.399054 0.009308
0.35285 0.397208 0.0184024
0.381781 0.39559 0.0150607
0.411765 0.393744 0.0116884
0.442908 0.391318 0.00910964
0.477638 0.388251 0.00737011
0.515267 0.384405 0.00704967
0.551568 0.380621 0.00840772
0.589273 0.376547 0.0116274
0.631174 0.374517 0.0193484
0.677104 0.375708 0.03299
0.726879 0.381735 0.0535134
0.780453 0.393591 0.0821393
0.840772 0.414008 0.120684
0.909697 0.446448 0.172671
0.993515 0.500526 0.250751
1 0.618463 0.406439
0 0.442451 0
0 0.442145 0
0 0.441825 0
0 0.441459 0
0 0.441123 0
0.0121004 0.440696 0
0.0357061 0.440177 0
0.0631876 0.439612 0
0.0940414 0.438941 0
0.123247 0.438178 0
0.152026 0.437293 0
0.181872 0.436179 0
0.2103 0.434897 0
0.238361 0.433417 0
0.266209 0.4318 0
0.294072 0.430076 0.000991836
0.322194 0.42826 0.00733959
0.350668 0.426352 0.0155947
0.379477 0.424506 0.0255131
0.408957 0.423026 0.0217746
0.439734 0.421134 0.0181277
0.474281 0.41854 0.0151675
0.511894 0.415244 0.0134585
0.549111 0.412802 0.0145266
0.589151 0.412329 0.0198978
0.633799 0.414221 0.0305791
0.681453 0.419699 0.0472419
0.732235 0.429496 0.0707103
0.78706 0.444709 0.104616
0.84831 0.468452 0.148974
0.917601 0.50367 0.208316
1 0.558587 0.294163
1 0.669627 0.450324
0 0.473701 0
0 0.473442 0
0 0.472969 0
0 0.472816 0
0 0.472511 0
0.00321965 0.472129 0
0.0267338 0.471519 0
0.0542458 0.471122 0
0.085771 0.470481 0
0.116457 0.469734 0
0.14638 0.468727 0
0.176837 0.467811 0
0.205783 0.466636 0
0.23418 0.465309 0
0.262242 0.463722 0
0.290379 0.462287 0.000885023
0.318929 0.460594 0.00643931
0.34789 0.458732 0.0136721
0.377264 0.456718 0.0229953
0.406744 0.454978 0.0343175
0.43679 0.453666 0.0305333
0.471672 0.452247 0.0271305
0.511254 0.452064 0.0271763
0.550942 0.453925 0.03122
0.593225 0.457191 0.0394903
0.639384 0.462974 0.0531014
0.688243 0.471733 0.073106
0.740307 0.4851 0.103487
0.796201 0.50338 0.141802
0.857954 0.52961 0.191638
0.926375 0.56611 0.256809
1 0.620157 0.347295
1 0.716304 0.490455
0 0.507103 0
0 0.506691 0
0 0.506584 0
0 0.506157 0
0 0.50602 0
0 0.505608 0
0.0198672 0.505318 0
0.046952 0.504753 0
0.0781415 0.504295 0
0.110094 0.503532 0
0.140352 0.502937 0
0.171572 0.501854 0
0.20087 0.500938 0
0.229404 0.499672 0
0.257725 0.498527 0
0.286351 0.496925 0.00183108
0.31519 0.495491 0.00668345
0.344503 0.493629 0.0129854
0.37464 0.49192 0.0213016
0.405722 0.490867 0.0329137
0.438193 0.491447 0.0492409
0.475486 0.493767 0.0510109
0.517403 0.497871 0.0546578
0.558907 0.502632 0.0616465
0.602274 0.509453 0.0730144
0.649302 0.51838 0.091722
0.699367 0.530678 0.117937
0.752178 0.546349 0.151446
0.808209 0.567163 0.193973
0.869139 0.594522 0.248005
0.935424 0.631174 0.316884
1 0.679927 0.404807
1 0.751644 0.514778
0 0.539635 0
0 0.539391 0
0 0.539086 0
0 0.538949 0
0 0.538689 0
0 0.538415 0
0.0136416 0.537911 0
0.0403449 0.537667 0
0.0711833 0.537163 0
0.103716 0.536614 0
0.134966 0.535805 0
0.166629 0.535119 0
0.196094 0.534234 0
0.224994 0.533181 0
0.253651 0.531899 0.000442512
0.282429 0.530724 0.00376898
0.312169 0.529564 0.00860609
0.343496 0.52929 0.0161593
0.376852 0.529793 0.0271
0.411322 0.531624 0.041825
0.447135 0.534386 0.0610361
0.486595 0.538857 0.0860151
0.529488 0.545434 0.0927749
0.572 0.55317 0.103441
0.616129 0.562341 0.119081
0.663462 0.574182 0.141543
0.713878 0.588144 0.170672
0.766339 0.606165 0.207889
0.821286 0.627771 0.253132
0.880385 0.654963 0.309377
0.943175 0.68835 0.376455
1 0.728435 0.453819
1 0.775647 0.522286
0 0.573602 0
0 0.573419 0
0 0.573205 0
0 0.572992 0
0 0.572763 0
0 0.572534 0
0.00665293 0.572274 0
0.0341039 0.571847 0
0.0642557 0.57145 0
0.0972152 0.570962 0
0.129412 0.570367 0
0.161593 0.569635 0
0.19147 0.568856 0
0.221134 0.568139 0.00195315
0.251362 0.568139 0.00569162
0.283192 0.56875 0.0115511
0.316823 0.569955 0.0197604
0.351629 0.571969 0.0307622
0.387945 0.574792 0.0451209
0.425238 0.578363 0.0630808
0.463233 0.582879 0.0855116
0.504997 0.589029 0.113252
0.548684 0.597665 0.139895
0.59147 0.607431 0.154772
0.63534 0.618799 0.174655
0.682399 0.632364 0.200885
0.731807 0.648066 0.233585
0.78265 0.666484 0.27306
0.835523 0.687495 0.319478
0.891005 0.712535 0.373922
0.949462 0.740291 0.433127
1 0.766751 0.486854
1 0.801099 0.530587
0 0.610864 0.00114443
0 0.610681 0.00109865
0 0.610315 0.00108339
0 0.6103 0.00111391
0 0.610117 0.00115969
0 0.609934 0.00120546
0 0.609491 0.00132753
0.026215 0.609369 0.00151064
0.0565805 0.608988 0.00183108
0.0903334 0.60853 0.00224308
0.124269 0.608225 0.00352483
0.159487 0.608881 0.00636301
0.193561 0.609888 0.0105592
0.22742 0.611444 0.0162509
0.26183 0.613291 0.0236667
0.297322 0.616037 0.0332494
0.333944 0.619074 0.0452277
0.371633 0.622644 0.0598611
0.410208 0.626871 0.0787213
0.449241 0.632395 0.102007
0.48864 0.638697 0.127062
0.531426 0.646708 0.156542
0.575967 0.656352 0.189792
0.618082 0.667628 0.218708
0.660899 0.680247 0.242741
0.706432 0.694545 0.272374
0.753277 0.710201 0.307027
0.801129 0.727932 0.347219
0.849943 0.746563 0.390753
0.900618 0.7664 0.436637
0.954238 0.784161 0.476585
1 0.79559 0.499748
1 0.829541 0.540536
0 0.650935 0.00794995
0 0.650629 0.00791943
0 0.65066 0.00794995
0 0.650309 0.00791943
0 0.650416 0.00796521
0 0.649943 0.00805676
0 0.650233 0.00883497
0.0223087 0.65066 0.010544
0.0569314 0.65185 0.0133669
0.0965744 0.653025 0.0171054
0.136141 0.6551 0.0222934
0.175906 0.657343 0.0289311
0.21471 0.660182 0.0371405
0.25211 0.662959 0.0465705
0.289906 0.666575 0.0580911
0.327733 0.670222 0.0726482
0.365881 0.67512 0.0914931
0.404501 0.680125 0.112001
0.444327 0.686381 0.135363
0.483558 0.692943 0.160067
0.523217 0.700832 0.187396
0.565393 0.709834 0.218418
0.609751 0.72076 0.253864
0.650568 0.731456 0.288396
0.69102 0.743999 0.321721
0.733181 0.757366 0.352422
0.776043 0.771847 0.386633
0.819135 0.785855 0.421485
0.862455 0.799664 0.454902
0.907317 0.810788 0.481315
0.957137 0.817182 0.495064
1 0.825925 0.512062
1 0.860594 0.552377
0 0.694636 0.0164645
0 0.694682 0.0168917
0 0.694896 0.0180819
0 0.695994 0.0202487
0 0.697093 0.0229343
0 0.698558 0.0266423
0.00560006 0.70016 0.0311131
0.0432898 0.702678 0.0368353
0.090013 0.705028 0.0434577
