subtle niceties LUT V2 beta 7 (SSH-TS reimagined).cube
TITLE "Generated by Resolve"
LUT_3D_SIZE 33
0.0131228 0.0118563 0.0171969
0.0284581 0.0133211 0.0164492
0.0406043 0.0150301 0.0171359
0.0545052 0.0149081 0.0176089
0.0665293 0.0155032 0.0180819
0.0794232 0.016083 0.0183871
0.092195 0.016495 0.0184939
0.10547 0.0173037 0.018616
0.1178 0.0187991 0.0194247
0.13138 0.0202335 0.020264
0.145357 0.0213474 0.0213779
0.160525 0.0225834 0.0225528
0.174853 0.0248722 0.0235447
0.189303 0.0273136 0.0245365
0.204242 0.0297704 0.0257267
0.220096 0.0325322 0.0273289
0.236698 0.035462 0.0292058
0.253925 0.0386053 0.0312047
0.272145 0.0417639 0.0335088
0.290944 0.0452735 0.0360418
0.310475 0.0491646 0.0390021
0.33254 0.0538643 0.0424811
0.357046 0.0597238 0.0467842
0.380972 0.0657054 0.0510109
0.406241 0.0718853 0.0552987
0.433814 0.0783856 0.0607614
0.463706 0.0854505 0.0670481
0.496376 0.0944686 0.0751965
0.532219 0.105852 0.0856794
0.573419 0.11931 0.0975357
0.620325 0.13434 0.111742
0.679973 0.153124 0.130755
0.781826 0.185153 0.163165
0.0134127 0.0277256 0.0206912
0.0280461 0.0277256 0.0228885
0.0411383 0.0281682 0.0228733
0.0567025 0.0283207 0.0209506
0.0676127 0.0290227 0.0218204
0.0784466 0.0300603 0.0227817
0.0924086 0.0298314 0.0217746
0.107393 0.0295262 0.0206607
0.122683 0.0292515 0.0200809
0.13666 0.0293431 0.0218662
0.150744 0.029572 0.0237583
0.166064 0.0301671 0.0256962
0.181079 0.03093 0.0275425
0.195773 0.0328832 0.0290837
0.210452 0.0357061 0.0303502
0.22594 0.03888 0.0315709
0.241901 0.0421759 0.0327764
0.258946 0.045655 0.0345006
0.276814 0.0492103 0.0364996
0.295491 0.0529183 0.0388037
0.314885 0.0569009 0.0414893
0.33666 0.0618143 0.0447547
0.360678 0.0679942 0.0488289
0.384039 0.074052 0.0530098
0.409339 0.0787671 0.057023
0.43714 0.0834363 0.0617838
0.467155 0.0875715 0.0674144
0.49987 0.0960098 0.0754253
0.535714 0.107729 0.0860914
0.576974 0.121645 0.0975814
0.624704 0.136263 0.111742
0.684306 0.15494 0.130877
0.785458 0.18674 0.163256
0.0132296 0.0416266 0.0242924
0.0271611 0.043473 0.0211032
0.0434882 0.0428016 0.0220035
0.0585031 0.0413977 0.024155
0.0733043 0.0412299 0.0229038
0.0874037 0.0412757 0.0217288
0.0982528 0.042359 0.0215
0.111528 0.0429541 0.0209506
0.127184 0.04271 0.0197757
0.141878 0.041825 0.0215152
0.156588 0.0408789 0.0243076
0.172274 0.0400397 0.027451
0.187564 0.0398718 0.030045
0.202823 0.0401465 0.0324559
0.217533 0.0425269 0.0337835
0.23238 0.0456397 0.035111
0.248234 0.0487831 0.0369879
0.264805 0.0523079 0.03888
0.282475 0.0563821 0.0404669
0.300786 0.0606088 0.0423896
0.319982 0.0649577 0.0447852
0.341466 0.0701152 0.0475624
0.36495 0.0757916 0.0511177
0.388022 0.0817426 0.0548714
0.412345 0.0881056 0.0591745
0.440177 0.092195 0.0639963
0.470512 0.0967422 0.0698863
0.503044 0.105913 0.0782788
0.538872 0.11574 0.0877394
0.580438 0.124392 0.0976577
0.628931 0.138216 0.111589
0.688563 0.158556 0.130907
0.789288 0.191531 0.163821
0.0160525 0.0557565 0.0244755
0.027451 0.0585336 0.0195926
0.0456092 0.0568093 0.0219883
0.060502 0.0560006 0.0245365
0.0720684 0.0565805 0.0249485
0.0871595 0.0563058 0.024094
0.101839 0.0560311 0.0209812
0.117556 0.0560616 0.0190433
0.132189 0.0563668 0.0187991
0.146929 0.0554818 0.0201267
0.161929 0.0542763 0.0226139
0.177981 0.0529793 0.0263066
0.193851 0.0511025 0.0307622
0.209751 0.0496223 0.0352789
0.225269 0.049485 0.0380407
0.240009 0.0527199 0.0390631
0.25536 0.0565347 0.0402075
0.27158 0.060441 0.0419013
0.288838 0.0644694 0.0441291
0.306935 0.0688334 0.0469673
0.325628 0.0738842 0.0489052
0.346899 0.0795148 0.0514992
0.370184 0.0861219 0.0546883
0.393194 0.0922255 0.0582895
0.417456 0.0985733 0.0625467
0.444205 0.105287 0.0679484
0.473686 0.111955 0.0744793
0.506294 0.11812 0.0818799
0.542336 0.123339 0.0895094
0.583932 0.131029 0.0990616
0.632715 0.146746 0.113207
0.693217 0.162112 0.130907
0.793179 0.19556 0.164126
0.0192569 0.068986 0.0221866
0.0329442 0.0704662 0.0182193
0.0480964 0.0701457 0.0198672
0.062501 0.0696269 0.022858
0.0739605 0.0702068 0.0242618
0.0848554 0.0705425 0.028336
0.100404 0.0704051 0.0260777
0.119707 0.0698863 0.0219272
0.137636 0.0683909 0.0200656
0.151827 0.0680095 0.0201419
0.167163 0.0669718 0.0218051
0.183398 0.0653391 0.0247959
0.1991 0.0638437 0.0288701
0.215259 0.0621347 0.0337682
0.23154 0.0599832 0.0392309
0.247776 0.0597696 0.043534
0.262638 0.0639658 0.0440986
0.278508 0.0686656 0.0451209
0.295445 0.0736095 0.0466773
0.312917 0.0786603 0.0486
0.331579 0.0835889 0.0516518
0.352605 0.0888533 0.0557107
0.375738 0.0952316 0.059144
0.39855 0.101442 0.0625772
0.422553 0.107866 0.0664836
0.449149 0.114885 0.0716869
0.478065 0.122667 0.0778821
0.509544 0.130648 0.0852827
0.545174 0.137667 0.09337
0.586847 0.145541 0.103365
0.635752 0.155901 0.115633
0.697139 0.169635 0.132219
0.796948 0.202274 0.165362
0.0224765 0.0817426 0.0230564
0.0357061 0.0838178 0.0209812
0.0492409 0.0850996 0.0200046
0.0641489 0.0847486 0.0218357
0.0769513 0.085008 0.0232242
0.0883345 0.0853285 0.0266728
0.0987716 0.0854353 0.0324102
0.121141 0.0849165 0.0260471
0.139879 0.0840162 0.0223087
0.156146 0.0833448 0.0203403
0.172686 0.0819715 0.0206455
0.189258 0.0806592 0.022385
0.20528 0.0793622 0.025803
0.221378 0.0778668 0.0303197
0.237629 0.0759289 0.035874
0.253941 0.0753796 0.0408484
0.270146 0.0757763 0.0457008
0.286458 0.0780041 0.0489815
0.302785 0.0837873 0.0497139
0.320043 0.0888838 0.0513008
0.338247 0.0941176 0.0535897
0.359091 0.0994583 0.0572671
0.381811 0.105516 0.0616922
0.404517 0.111467 0.0668956
0.428412 0.11812 0.0715496
0.454688 0.125536 0.0761883
0.483314 0.133394 0.0822003
0.514656 0.141772 0.0892805
0.549432 0.150256 0.097612
0.590021 0.159854 0.107866
0.63888 0.169482 0.119417
0.700877 0.183642 0.135622
0.800793 0.215641 0.16849
0.0247501 0.0948043 0.0258488
0.0377203 0.0964828 0.0242008
0.0501717 0.0989242 0.0211643
0.0649882 0.0995651 0.0220645
0.0780194 0.100618 0.0218509
0.0916609 0.101274 0.022858
0.103975 0.102342 0.0272221
0.120409 0.101946 0.0310521
0.140642 0.101961 0.0246281
0.158434 0.101762 0.0205997
0.176593 0.100114 0.0202792
0.195285 0.098024 0.020264
0.21178 0.0966812 0.022034
0.227939 0.0950484 0.0261234
0.244282 0.0937514 0.0306401
0.260349 0.0923629 0.036286
0.275929 0.0940566 0.0398718
0.292531 0.0950332 0.0449683
0.310094 0.0967269 0.0502785
0.327871 0.099321 0.0545968
0.345907 0.104906 0.0565652
0.366323 0.110552 0.0595407
0.389013 0.116808 0.0636454
0.411231 0.12285 0.0681163
0.434958 0.129076 0.0738689
0.460883 0.135622 0.0808423
0.489174 0.143328 0.0871901
0.520088 0.151751 0.0935988
0.554696 0.161059 0.101823
0.594705 0.171939 0.111727
0.64239 0.184054 0.123919
0.704265 0.197299 0.139239
0.804486 0.228382 0.171481
0.0266575 0.111406 0.0294347
0.0395666 0.113207 0.0284123
0.0517586 0.115434 0.0263523
0.0637522 0.118166 0.0238346
0.0770123 0.119356 0.0231632
0.0928969 0.12076 0.0210117
0.109224 0.122103 0.0187991
0.12459 0.121538 0.0273899
0.141207 0.121431 0.0290532
0.160693 0.121523 0.0227359
0.179675 0.120287 0.0197147
0.199481 0.118227 0.0200504
0.218341 0.115816 0.0193484
0.235721 0.114031 0.0197604
0.252308 0.112627 0.0235904
0.268528 0.11191 0.028809
0.284276 0.113512 0.0331731
0.300649 0.114397 0.038819
0.318059 0.116289 0.0443427
0.336065 0.118044 0.05037
0.355032 0.119799 0.0573892
0.375555 0.123644 0.0628672
0.397665 0.129915 0.0659953
0.41944 0.136065 0.0697948
0.442634 0.142733 0.0744335
0.468391 0.149325 0.0814221
0.496498 0.156283 0.0899519
0.527581 0.163973 0.0998703
0.561685 0.173053 0.108354
0.601205 0.184161 0.117006
0.64802 0.19675 0.128206
0.708614 0.213138 0.143908
0.809125 0.242786 0.174563
0.0261845 0.128801 0.0334936
0.0392767 0.130053 0.0339513
0.0521096 0.132067 0.0323186
0.0636454 0.134478 0.0301213
0.0756085 0.13666 0.0271763
0.0945144 0.137911 0.0246891
0.11191 0.139254 0.0210727
0.129442 0.14078 0.0175326
0.145983 0.139956 0.0246738
0.163409 0.140215 0.0226444
0.182773 0.140414 0.0167697
0.203693 0.137911 0.0184176
0.223087 0.135485 0.0183261
0.242023 0.133532 0.0171511
0.260533 0.131746 0.0158541
0.27747 0.130892 0.0201267
0.293065 0.132006 0.0252079
0.309392 0.13312 0.0310674
0.326452 0.13521 0.0363928
0.34432 0.137102 0.042771
0.362814 0.139193 0.0496529
0.383902 0.141756 0.0578012
0.406958 0.144335 0.0675822
0.429053 0.148989 0.0737621
0.45185 0.155642 0.0778821
0.477134 0.162478 0.0840314
0.504753 0.169863 0.091249
0.535119 0.177707 0.100206
0.568856 0.186374 0.110704
0.608194 0.196399 0.123568
0.654719 0.209613 0.134401
0.714122 0.226429 0.14876
0.815091 0.256336 0.178241
0.0251621 0.14612 0.0360571
0.039765 0.146609 0.0384527
0.0525521 0.148272 0.0369116
0.0651408 0.150561 0.034287
0.0784924 0.153033 0.0301976
0.095964 0.155047 0.0260471
0.114015 0.155917 0.0229801
0.133806 0.157244 0.0176242
0.151095 0.158663 0.0163272
0.168383 0.158373 0.0184634
0.186648 0.159014 0.0138857
0.207111 0.157565 0.0151675
0.227512 0.155276 0.0166171
0.247196 0.153384 0.0161746
0.26627 0.151614 0.0148623
0.285176 0.150469 0.0139467
0.302678 0.150515 0.0160525
0.31902 0.151736 0.0224155
0.335943 0.153277 0.0287785
0.353536 0.155367 0.0351568
0.371771 0.157702 0.0417639
0.392493 0.160464 0.0497597
0.415122 0.163333 0.0594186
0.437461 0.166293 0.0691997
0.461128 0.169451 0.0800336
0.486351 0.17583 0.0869306
0.513726 0.183444 0.0936599
0.543725 0.191485 0.101884
0.576822 0.200488 0.111101
0.61561 0.210529 0.123232
0.661479 0.222278 0.138399
0.720607 0.239078 0.154894
0.820752 0.268574 0.181949
0.0267338 0.163027 0.0377661
0.0418097 0.163165 0.0412909
0.0548562 0.165057 0.0392004
0.0684825 0.167086 0.035584
0.082414 0.169802 0.0316167
0.096376 0.172732 0.0264744
0.114305 0.17406 0.0234073
0.135714 0.175082 0.0197452
0.155489 0.176455 0.0143282
0.17258 0.177539 0.014435
0.191653 0.178042 0.0132296
0.21149 0.177722 0.0132906
0.231434 0.176471 0.0144808
0.251865 0.174411 0.0156558
0.272114 0.172381 0.0151217
0.291402 0.171328 0.0132753
0.309804 0.17145 0.0121767
0.328939 0.17113 0.01178
0.346288 0.172473 0.0187076
0.363729 0.174441 0.025452
0.381994 0.176928 0.0324102
0.402335 0.179522 0.0407568
0.42475 0.182895 0.0500649
0.446662 0.185977 0.059678
0.469841 0.189548 0.0700847
0.495506 0.193332 0.0829938
0.523476 0.197757 0.0960708
0.55285 0.206104 0.103105
0.585916 0.214893 0.112642
0.624201 0.224964 0.124575
0.669306 0.237156 0.138491
0.72755 0.25275 0.157763
0.827451 0.281575 0.187442
0.0311437 0.180835 0.0381476
0.0449073 0.181277 0.0435798
0.0578927 0.1832 0.0419776
0.0720836 0.185657 0.0390173
0.0858015 0.188174 0.0358282
0.0995804 0.191089 0.0314946
0.113146 0.194186 0.0256657
0.135698 0.195514 0.0229191
0.157122 0.196551 0.0187991
0.177035 0.197879 0.012604
0.19556 0.198947 0.0129244
0.216388 0.199084 0.0124971
0.236515 0.198627 0.012665
0.256245 0.197665 0.0133516
0.277653 0.195193 0.0145724
0.298299 0.193774 0.014023
0.31722 0.193805 0.0120851
0.336278 0.19411 0.0110781
0.35613 0.194369 0.0101167
0.375311 0.195224 0.0126345
0.393393 0.197498 0.0202182
0.41352 0.200229 0.0288243
0.435615 0.203525 0.0381933
0.45745 0.206775 0.0483406
0.480278 0.210315 0.0590524
0.505638 0.214496 0.0716564
0.533043 0.218799 0.0863355
0.563363 0.223178 0.102998
0.596139 0.230259 0.115343
0.633799 0.240909 0.125582
0.678462 0.25304 0.139437
0.735805 0.268894 0.157702
0.834363 0.296178 0.191684
0.0253758 0.200824 0.0399481
0.0401923 0.201373 0.0457008
0.0569467 0.202274 0.0497597
0.0718853 0.204532 0.0474708
0.0868544 0.206653 0.0440223
0.102007 0.20943 0.038941
0.116472 0.212634 0.0325475
0.13402 0.216037 0.0252079
0.157412 0.216739 0.0218509
0.179706 0.217731 0.0162051
0.200732 0.218982 0.00868238
0.220935 0.219928 0.0100557
0.241825 0.219532 0.0102083
0.26215 0.218891 0.0109102
0.282292 0.218189 0.0118715
0.303716 0.216541 0.0131533
0.324468 0.215595 0.012192
0.343313 0.216449 0.00985733
0.363394 0.216983 0.00868238
0.384009 0.217441 0.00823987
0.405402 0.217563 0.00843824
0.425498 0.22002 0.0177157
0.447349 0.223407 0.0270695
0.468742 0.226795 0.0366369
0.491066 0.23093 0.0459602
0.515953 0.234897 0.058732
0.543313 0.239368 0.0741436
0.573205 0.244007 0.0920882
0.606027 0.249516 0.109834
0.644083 0.256275 0.128466
0.687968 0.268772 0.140917
0.744656 0.284352 0.158984
0.841428 0.311727 0.19115
0.0204471 0.22092 0.0419318
0.0374304 0.221302 0.0480507
0.0561074 0.221454 0.0546731
0.0730907 0.223011 0.0540017
0.0888228 0.225498 0.0505989
0.105013 0.22826 0.0447089
0.120211 0.231113 0.0372625
0.1364 0.235065 0.0277256
0.157656 0.237324 0.0208286
0.181292 0.237842 0.0159609
0.203601 0.238972 0.0105745
0.226413 0.240269 0.00454719
0.245853 0.241535 0.00816358
0.26714 0.241276 0.00906386
0.287968 0.240574 0.010605
0.308751 0.240085 0.0120851
0.330816 0.238636 0.0132753
0.351659 0.238285 0.0117647
0.371054 0.23949 0.00889601
0.391485 0.240131 0.00669871
0.41265 0.241077 0.00581369
0.436423 0.241703 0.00534066
0.459236 0.243717 0.0130007
0.480705 0.247166 0.0232853
0.502998 0.250813 0.0338598
0.527382 0.255238 0.0454108
0.553903 0.260105 0.0589151
0.583215 0.265293 0.0758831
0.615702 0.270848 0.0964981
0.653651 0.276783 0.119921
0.698314 0.283986 0.144549
0.753887 0.299977 0.160723
0.849042 0.327245 0.191943
0.0160983 0.241123 0.0432136
0.035584 0.241184 0.0495766
0.0553292 0.241428 0.0555734
0.0750134 0.242374 0.0572366
0.0923171 0.24477 0.0512398
0.109514 0.247532 0.0435645
0.124834 0.250446 0.0354314
0.141238 0.254078 0.0289464
0.157351 0.258274 0.0213474
0.180453 0.259464 0.0200504
0.204273 0.260746 0.0166171
0.228595 0.262013 0.00987259
0.250721 0.263386 0.00476081
0.270893 0.264332 0.00775158
0.292638 0.263706 0.00875868
0.314229 0.263172 0.00987259
0.336263 0.262211 0.0113069
0.358968 0.260822 0.0119936
0.379309 0.261997 0.00927749
0.399527 0.263142 0.00654612
0.420554 0.264317 0.00410468
0.4439 0.265354 0.00268559
0.469841 0.26598 0.00247196
0.493111 0.267903 0.00735485
0.515358 0.271595 0.018616
0.539651 0.275853 0.03093
0.566125 0.280522 0.0459907
0.594705 0.285863 0.0623178
0.626673 0.291783 0.0827649
0.663554 0.298421 0.105943
0.707713 0.306081 0.132708
0.764248 0.315465 0.164828
0.85742 0.343023 0.193835
0.0158236 0.261143 0.0426947
0.034699 0.261692 0.0483406
0.0547646 0.261982 0.0543984
0.076585 0.262531 0.0608377
0.0938735 0.264897 0.0589761
0.109895 0.267842 0.0559854
0.12578 0.270665 0.0513619
0.143679 0.274617 0.0442359
0.160555 0.27834 0.0352789
0.177859 0.28217 0.0247807
0.204211 0.282841 0.02121
0.230304 0.284047 0.0146944
0.254704 0.285389 0.00526436
0.276982 0.286336 0.000762951
0.298024 0.286839 0.00296025
0.32015 0.286625 0.00468452
0.342718 0.285924 0.00703441
0.365347 0.285069 0.00952163
0.387793 0.284779 0.0100557
0.408377 0.286107 0.00761425
0.429496 0.287816 0.00520333
0.452873 0.289372 0.00288396
0.47834 0.290425 0.00146487
0.50341 0.291463 0.000839246
0.528435 0.292851 0.00242618
0.552682 0.296956 0.0153658
0.57879 0.301366 0.0308537
0.607202 0.307012 0.0474861
0.638575 0.3131 0.0667277
0.674907 0.320043 0.0907301
0.717662 0.328191 0.118379
0.773388 0.338231 0.152956
0.866743 0.35874 0.197406
0.00560006 0.283803 0.0451514
0.024155 0.284566 0.0523995
0.0456245 0.285145 0.0601663
0.0695201 0.285679 0.0684825
0.0919509 0.286549 0.0742351
0.110246 0.289204 0.0691844
0.128115 0.292073 0.0625772
0.147173 0.295308 0.0533608
0.164828 0.299184 0.042649
0.182223 0.303151 0.0298161
0.203952 0.305898 0.0193637
0.232288 0.306737 0.0121614
0.257755 0.307881 0.00535592
0.28159 0.309285 0
0.304509 0.310292 0
0.325368 0.311452 0.00161746
0.348226 0.311498 0.00416571
0.371145 0.310948 0.00764477
0.394629 0.31043 0.010544
0.417975 0.309865 0.011841
0.439094 0.311498 0.0084535
0.462272 0.313542 0.00462348
0.487495 0.315084 0.00167849
0.512032 0.317052 0
0.537942 0.318349 0
0.566232 0.319554 0
0.592294 0.323827 0.0115053
0.620356 0.329 0.0283513
0.651331 0.334813 0.0491646
0.687404 0.341695 0.076051
0.72929 0.350332 0.104143
0.783429 0.360891 0.139055
0.875807 0.378653 0.193912
0 0.307851 0.0489357
0.0137179 0.30808 0.0564279
0.0372168 0.308537 0.0637369
0.0634012 0.309194 0.0715038
0.0888991 0.309178 0.078706
0.112322 0.310903 0.076524
0.131518 0.313771 0.0671702
0.15169 0.31722 0.0546273
0.170962 0.321019 0.0397498
0.188159 0.324727 0.0290684
0.205341 0.328984 0.0205997
0.231647 0.331014 0.0180056
0.257877 0.332341 0.015259
0.283116 0.333822 0.00848402
0.307378 0.335393 0
0.331106 0.336431 0
0.353414 0.337224 0.000808728
0.377584 0.336858 0.00277714
0.401877 0.336233 0.00531014
0.425818 0.335866 0.00843824
0.448493 0.336538 0.00868238
0.471977 0.338491 0.0056611
0.497429 0.340475 0.00282292
0.521996 0.342535 0.000885023
0.547616 0.344503 0
0.575418 0.34638 0
0.605875 0.347433 0
0.634775 0.35169 0.010956
0.665248 0.357595 0.0313268
0.700481 0.36463 0.0553597
0.741787 0.372732 0.0881666
0.794797 0.383597 0.125338
0.885084 0.401846 0.182376
0 0.331884 0.0508583
0.0065919 0.331914 0.0580301
0.0311894 0.332799 0.065095
0.0590982 0.332891 0.0727245
0.0870069 0.333272 0.0802472
0.113634 0.334096 0.0853895
0.132891 0.337011 0.0788281
0.153414 0.340291 0.0720226
0.172869 0.343984 0.0637369
0.191119 0.34789 0.0536202
0.209934 0.352193 0.0405127
0.228901 0.356863 0.0249027
0.258457 0.357824 0.0198672
0.284947 0.359075 0.0126345
0.311543 0.360327 0.00154116
0.336126 0.362066 0
0.360906 0.362737 0
0.38349 0.363867 0
0.408286 0.36379 0.000885023
0.432761 0.363607 0.00485237
0.457404 0.36347 0.00906386
0.482902 0.364263 0.0110628
0.508309 0.366629 0.00851453
0.53286 0.368566 0.00538643
0.558099 0.371084 0.00190738
0.585718 0.37322 0
0.615808 0.375143 0
0.648081 0.377234 0
0.680125 0.381537 0.00943008
0.714611 0.388403 0.0341039
0.755413 0.396353 0.0686503
0.807294 0.407156 0.109438
0.895201 0.425437 0.170077
0 0.356863 0.0541238
0 0.357229 0.0617227
0.018555 0.357717 0.0691081
0.0483253 0.358434 0.0780499
0.0781109 0.358968 0.0875257
0.10837 0.359167 0.0969406
0.132128 0.360861 0.0991531
0.155428 0.364263 0.090013
0.175708 0.368002 0.0793164
0.195483 0.37171 0.0662242
0.214969 0.375692 0.0506142
0.235386 0.380423 0.0313573
0.258274 0.383749 0.0175784
0.286961 0.385061 0.0139925
0.314199 0.386252 0.00703441
0.340505 0.387884 0
0.365316 0.390143 0
0.390158 0.391135 0
0.413855 0.391928 0
0.439323 0.392065 0.00149538
0.464805 0.391897 0.00476081
0.492042 0.391852 0.00935378
0.519005 0.393042 0.0109865
0.543832 0.395407 0.00860609
0.569131 0.398032 0.00560006
0.596796 0.400549 0.00361639
0.626291 0.403037 0.00224308
0.658854 0.405264 0.0031281
0.694347 0.40708 0.00567636
0.730419 0.412161 0.0198825
0.769879 0.420294 0.0490272
0.820706 0.43093 0.093431
0.906233 0.449256 0.157046
0 0.383032 0.0572976
0 0.383413 0.0654917
0.00335698 0.384161 0.0742504
0.0365911 0.384573 0.084184
0.0684825 0.385138 0.0928206
0.102831 0.385443 0.10164
0.133501 0.385763 0.110124
0.158541 0.388754 0.0996872
0.180682 0.392309 0.0870222
0.201083 0.39617 0.0725719
0.220401 0.400275 0.0626993
0.241154 0.404974 0.0489967
0.260075 0.409766 0.0339971
0.285756 0.412497 0.0242771
0.314763 0.413581 0.0183413
0.34287 0.414908 0.00807202
0.370138 0.416724 0
0.396353 0.418524 0
0.422156 0.419791 0
0.445853 0.421271 0
0.471748 0.421424 0.00158694
0.499748 0.421485 0.00657664
0.528893 0.421561 0.0126345
0.555245 0.422873 0.0157015
0.581018 0.425315 0.0145876
0.608927 0.427909 0.0126497
0.638224 0.430838 0.00996414
0.669917 0.43357 0.00915541
0.704662 0.436286 0.0102998
0.744717 0.438865 0.0143282
0.786175 0.444587 0.0403754
0.835828 0.454932 0.0840009
0.919661 0.471778 0.155749
0 0.411994 0.0608072
0 0.412329 0.0700389
0 0.413077 0.0791638
0.0239872 0.413581 0.0893568
0.0565042 0.414206 0.0978408
0.0961624 0.414466 0.107439
0.128817 0.41474 0.116197
0.158862 0.416495 0.119554
0.182757 0.42005 0.109957
0.204181 0.423697 0.0982834
0.225971 0.427741 0.0831311
0.247288 0.432441 0.0657664
0.267597 0.437079 0.0467536
0.286961 0.441886 0.0261692
0.316518 0.443427 0.0193027
0.344884 0.445212 0.016083
0.373388 0.447074 0.00787366
0.400946 0.449165 0
0.427695 0.451057 0
0.454322 0.452491 0
0.478996 0.453819 0
0.507515 0.4542 0.00251774
0.537621 0.454414 0.0087892
0.565408 0.455146 0.0152285
0.593835 0.45565 0.0213169
0.621927 0.458427 0.0215305
0.651362 0.461357 0.0209659
0.683177 0.464302 0.0228428
0.717418 0.467689 0.0238193
0.756573 0.470726 0.0267796
0.802121 0.473899 0.03122
0.853071 0.481666 0.0768139
0.934813 0.49781 0.15317
0 0.443198 0.0653697
0 0.443702 0.0753948
0 0.444327 0.0854353
0.00500496 0.444892 0.0952773
0.0433814 0.445579 0.105013
0.0851301 0.445945 0.114778
0.122698 0.446342 0.124361
0.158785 0.446967 0.134859
0.185 0.450126 0.128573
0.20885 0.453468 0.116274
0.231739 0.457603 0.100893
0.254185 0.462043 0.08365
0.27509 0.466773 0.068513
0.294759 0.471717 0.0515602
0.314702 0.476844 0.0309453
0.346517 0.477867 0.0251164
0.376501 0.479698 0.0150607
0.406897 0.480629 0.000228885
0.434897 0.483589 0
0.461845 0.485634 0
0.488487 0.487633 0
0.515267 0.489403 0.000259403
0.545571 0.490349 0.00743114
0.57409 0.490837 0.0151064
0.602899 0.492195 0.0228122
0.633402 0.492744 0.0315404
0.66569 0.494179 0.0363775
0.697459 0.497032 0.036759
0.731456 0.500679 0.0405127
0.77055 0.503731 0.0474098
0.815518 0.507637 0.0530709
0.871107 0.511574 0.0633249
0.951064 0.525979 0.152483
0 0.473686 0.0699931
0 0.474266 0.0805829
0 0.474876 0.0910201
0 0.475563 0.101869
0.029221 0.475944 0.111879
0.0724346 0.476738 0.121721
0.11606 0.476967 0.131594
0.155123 0.477699 0.142123
0.187442 0.479011 0.146059
0.212467 0.482673 0.13637
0.236271 0.486549 0.123766
0.260319 0.491127 0.106081
0.28275 0.495811 0.0830549
0.304051 0.50042 0.0587167
0.324071 0.505364 0.0361028
0.348775 0.509346 0.0245823
0.378943 0.511223 0.0258488
0.40943 0.513054 0.0209354
0.439094 0.515206 0.0103151
0.467948 0.517555 0
0.495598 0.520134 0
0.524956 0.522072 0
0.553613 0.524086 0.00363165
0.582773 0.525277 0.0124971
0.611627 0.526619 0.0226291
0.641611 0.528405 0.0341497
0.673106 0.530312 0.0459907
0.708751 0.530663 0.0548104
0.745296 0.531975 0.061265
0.783749 0.535851 0.0679789
0.828336 0.539437 0.0800488
0.88307 0.544167 0.0914931
0.967269 0.553582 0.15317
0 0.505257 0.0757458
0 0.505898 0.0863813
0 0.506889 0.0975357
0 0.507576 0.108873
0.0103914 0.507866 0.118654
0.0592508 0.508461 0.129335
0.107332 0.508858 0.139483
0.150576 0.509499 0.150347
0.188281 0.510094 0.161105
0.215915 0.512886 0.154238
0.241428 0.51693 0.141634
0.266743 0.521294 0.125475
0.289586 0.525872 0.109636
0.310903 0.530587 0.094255
0.332036 0.535515 0.0739452
0.353048 0.54078 0.0503243
0.380621 0.544259 0.0348058
0.414023 0.545342 0.0241855
0.444862 0.547494 0.0149538
0.474464 0.54995 0.00593576
0.503304 0.552865 0
0.533135 0.55552 0
0.562371 0.558495 0.00437934
0.59028 0.560845 0.0148318
0.619974 0.562264 0.0241398
0.651026 0.564019 0.0357977
0.681895 0.566583 0.0493477
0.71516 0.568933 0.0654459
0.752651 0.569848 0.0797894
0.793713 0.571542 0.0927443
0.839078 0.57435 0.107042
0.893278 0.579004 0.122805
0.979721 0.586496 0.151217
0 0.540063 0.0802625
0 0.540368 0.0932174
0 0.541054 0.105013
0 0.541802 0.11603
0 0.542306 0.126986
0.0428626 0.542992 0.137575
0.0963607 0.543374 0.148104
0.146197 0.543954 0.159686
0.185458 0.544778 0.170382
0.219684 0.545998 0.174975
0.245869 0.549691 0.164752
0.273152 0.554208 0.150576
0.297292 0.558648 0.133516
0.320623 0.563287 0.111543
0.342931 0.567727 0.0840925
0.363928 0.573358 0.063798
0.384588 0.578927 0.0459907
0.415549 0.581582 0.0416724
0.448753 0.582864 0.0374151
0.480446 0.585122 0.0265049
0.510216 0.587991 0.0137026
0.54168 0.591257 0
0.572549 0.594491 0.000396735
0.600107 0.597864 0.0159915
0.627985 0.60087 0.0327153
0.659037 0.602808 0.0446021
0.690822 0.605127 0.0581826
0.723583 0.608454 0.0741436
0.758526 0.611582 0.0919509
0.799664 0.613245 0.112505
0.845289 0.615656 0.131746
0.898909 0.62031 0.153613
0.983932 0.626612 0.183688
0 0.576303 0.0903334
0 0.577111 0.100221
0 0.577951 0.112123
0 0.578332 0.124498
0 0.579141 0.135546
0.0249943 0.579507 0.146593
0.0843519 0.580163 0.157733
0.13959 0.580636 0.169451
0.185199 0.581094 0.181109
0.222477 0.581567 0.191745
0.252857 0.58497 0.184176
0.280583 0.589044 0.170275
0.306294 0.593545 0.156054
0.329397 0.597955 0.140581
0.352682 0.602899 0.12195
0.374365 0.608011 0.100771
