subtle niceties LUT (SSH-TS reimagined).cube
TITLE "Generated by Resolve"
LUT_3D_SIZE 5
0.00605783 0.00605783 0.00605783
0.1561 0 0.00613413
0.337499 0 0.0162509
0.561791 0 0.0649424
1 0.104799 0.228
0 0.149035 0.00381476
0.149096 0.142016 0.0043183
0.342718 0.120821 0.00842298
0.58526 0.0864118 0.0410468
1 0.166049 0.218997
0 0.33312 0
0.124743 0.328466 0
0.33228 0.316747 0.00244144
0.595102 0.286381 0.0116121
1 0.447776 0.286824
0 0.573602 0
0.0642557 0.57145 0
0.316823 0.569955 0.0197604
0.63534 0.618799 0.174655
1 0.801099 0.530587
0.675914 1 0.637491
0.704295 1 0.640162
0.768978 1 0.648493
0.900023 1 0.673396
1 1 0.803479
0.04094 0.0243992 0.194797
0.173007 0.0237125 0.176867
0.35082 0.00732433 0.161196
0.579553 0 0.170703
1 0.104921 0.280415
0.0220951 0.168292 0.170153
0.163912 0.163973 0.163958
0.342657 0.153704 0.159792
0.6009 0.096376 0.154131
1 0.173571 0.277501
0 0.346029 0.149584
0.144564 0.339467 0.153536
0.338018 0.331151 0.14342
0.604532 0.296941 0.13225
1 0.49276 0.398322
0 0.592645 0.0990463
0 0.591073 0.0881056
0.316381 0.595575 0.120668
0.663127 0.650462 0.285039
1 0.804059 0.566232
0.676219 1 0.668803
0.705028 1 0.671199
0.770336 1 0.677913
0.903609 1 0.700771
1 1 0.833722
0.12668 0.0618143 0.418402
0.221469 0.0639353 0.407279
0.374945 0.0618143 0.383291
0.603052 0.0451667 0.35668
1 0.119524 0.39353
0.102129 0.195834 0.401266
0.209049 0.196902 0.384039
0.368933 0.189548 0.372717
0.616373 0.147585 0.352316
1 0.204517 0.410727
0.0328679 0.368597 0.373251
0.179828 0.364294 0.366339
0.356725 0.356878 0.356893
0.609155 0.33225 0.341314
1 0.556146 0.560403
0 0.615061 0.325032
0 0.613458 0.321477
0.356146 0.629374 0.367849
0.694926 0.692256 0.489677
1 0.811765 0.647318
0.682826 1 0.745739
0.7093 1 0.745769
0.775204 1 0.749493
0.912566 1 0.766506
1 1 0.908125
0.252033 0.147387 0.70045
0.313939 0.14548 0.700771
0.434958 0.14432 0.690791
0.637598 0.155718 0.65098
1 0.191165 0.619837
0.240269 0.232578 0.718105
0.306386 0.231647 0.714626
0.433234 0.229831 0.69836
0.649622 0.217014 0.662715
1 0.30193 0.667933
0.187366 0.396704 0.701335
0.268803 0.395392 0.695048
0.412116 0.392355 0.674647
0.648173 0.377234 0.655024
1 0.644892 0.79707
0.047364 0.634958 0.643763
0.159701 0.649073 0.657008
0.434989 0.682795 0.685634
0.743618 0.744884 0.744808
1 0.833753 0.822995
0.718578 1 0.912932
0.742412 1 0.913634
0.801389 1 0.915419
0.934569 1 0.920226
0.99736 1 1
0.508843 0.363272 1
0.542123 0.362737 1
0.617777 0.36144 1
0.771221 0.360464 1
1 0.402792 1
0.505135 0.404013 1
0.539757 0.402808 1
0.617212 0.400824 1
0.774807 0.396933 1
1 0.590005 1
0.482551 0.501381 1
0.521309 0.498604 1
0.60708 0.494484 1
0.797498 0.53994 1
1 0.800214 1
0.390585 0.73254 1
0.472938 0.768704 1
0.641688 0.818647 1
0.836576 0.857466 1
1 0.927977 1
0.852781 1 1
0.874128 1 1
0.926024 1 1
0.99736 1 1
0.99736 1 1
