subtle niceties LUT V2 beta 4 (SSH-TS reimagined).cube
TITLE "Generated by Resolve"
LUT_3D_SIZE 33
0.00802625 0.00720226 0.00813306
0.0218814 0.00836194 0.0091249
0.0360418 0.00920119 0.00949111
0.0498665 0.0110323 0.0102693
0.0640879 0.0124819 0.0111849
0.0790265 0.013901 0.0119631
0.092958 0.0152132 0.0127565
0.108705 0.0163119 0.013611
0.124849 0.0177462 0.0143587
0.14078 0.0189364 0.015198
0.157473 0.0203098 0.0159609
0.175799 0.0216068 0.0169985
0.193774 0.0231174 0.0180209
0.212192 0.0244755 0.0194705
0.231174 0.0256962 0.0211032
0.250446 0.0274357 0.0229343
0.27042 0.0294957 0.0250095
0.291249 0.0319677 0.0274357
0.312825 0.0353704 0.0303807
0.334951 0.0394598 0.0337682
0.357733 0.0444495 0.037583
0.383337 0.0503853 0.0422827
0.410971 0.0573129 0.0476387
0.437049 0.0642252 0.0530556
0.464851 0.0714275 0.0596933
0.496284 0.0796368 0.06804
0.530953 0.089189 0.0781262
0.569268 0.0999619 0.0896773
0.612177 0.111666 0.102693
0.662791 0.124636 0.118578
0.722393 0.140475 0.136858
0.798169 0.159701 0.160769
0.924498 0.191363 0.200885
0.0159915 0.0211795 0.0144503
0.025391 0.0237583 0.0150454
0.0397345 0.0240024 0.014435
0.0531624 0.0255894 0.0144045
0.0662547 0.0265354 0.014786
0.0802625 0.0275425 0.0154574
0.0934005 0.0285344 0.0159609
0.108507 0.029633 0.0164645
0.124254 0.0305638 0.0171664
0.139635 0.0314336 0.0179141
0.156161 0.0324407 0.0187076
0.174441 0.0332341 0.0192569
0.192935 0.0337072 0.019791
0.211933 0.0339208 0.020798
0.23125 0.0341497 0.0218662
0.251072 0.0346838 0.023209
0.271794 0.035111 0.024918
0.292988 0.0362097 0.0267796
0.315038 0.0385443 0.0294499
0.337469 0.0420844 0.032517
0.36051 0.0471962 0.0364385
0.386145 0.0533608 0.0410315
0.414328 0.0605325 0.0464942
0.441855 0.0681315 0.0521096
0.470344 0.0755016 0.0590829
0.501884 0.0839551 0.0676738
0.536629 0.0931563 0.0778058
0.574914 0.103655 0.0896162
0.617746 0.114839 0.102998
0.66804 0.127535 0.11899
0.72697 0.143069 0.137285
0.802487 0.162173 0.161135
0.928008 0.193362 0.20116
0.0221866 0.0357977 0.0185397
0.0309148 0.0385443 0.01738
0.0420691 0.0398718 0.0178988
0.0570382 0.0406195 0.0170596
0.0704509 0.0412909 0.0166629
0.0844282 0.0425879 0.0168612
0.0970779 0.0432441 0.0171969
0.112123 0.0439918 0.0175784
0.127123 0.0447242 0.0180209
0.142107 0.045182 0.0186923
0.158129 0.0460212 0.019379
0.175769 0.0463264 0.0202945
0.193545 0.0466316 0.0215457
0.211826 0.0464942 0.0232548
0.23125 0.045716 0.0240177
0.251637 0.0442359 0.0245212
0.272801 0.0423743 0.0253147
0.294804 0.0398566 0.026154
0.317159 0.0414435 0.0284733
0.339788 0.0447242 0.0312657
0.363012 0.0500649 0.0351415
0.389075 0.0563668 0.0398413
0.417899 0.0637522 0.0454871
0.44622 0.0713054 0.0515755
0.475959 0.0796216 0.0584726
0.508049 0.0880903 0.0673991
0.542901 0.0971542 0.0777447
0.581033 0.107271 0.0897993
0.623926 0.118318 0.10338
0.673716 0.131106 0.119112
0.732586 0.14641 0.137545
0.807492 0.165393 0.161242
0.932036 0.196155 0.20116
0.0277867 0.0515145 0.0211795
0.0361181 0.0541695 0.0200504
0.0466926 0.0563668 0.0185245
0.0601968 0.0577554 0.0187839
0.0740826 0.0583047 0.018204
0.0882124 0.0590066 0.0175937
0.101427 0.0596628 0.0174563
0.11667 0.0604257 0.0177005
0.131212 0.0610361 0.018143
0.145953 0.0616465 0.0186923
0.161669 0.0622568 0.019379
0.179004 0.0625467 0.0204776
0.196445 0.0626841 0.0217746
0.214176 0.0630655 0.0231632
0.232731 0.062501 0.0250858
0.252094 0.0620127 0.0272831
0.272633 0.0610056 0.0289464
0.294438 0.0592508 0.0296025
0.317617 0.0573739 0.030808
0.340978 0.0574655 0.0328374
0.365118 0.0595407 0.0357519
0.392233 0.0629892 0.0398413
0.421881 0.0683299 0.0452125
0.450996 0.0749676 0.0512703
0.481453 0.0835889 0.0581521
0.514824 0.0923934 0.067277
0.549737 0.101839 0.0773175
0.588052 0.111925 0.0895552
0.630518 0.122789 0.10312
0.680186 0.135561 0.118822
0.738705 0.150576 0.137392
0.813214 0.169329 0.161135
0.936767 0.199405 0.201038
0.0321813 0.0666514 0.0220493
0.0401923 0.0688334 0.0209049
0.0515145 0.0711376 0.0189975
0.0637827 0.0732128 0.0175631
0.0769665 0.0741894 0.0179446
0.0915694 0.074815 0.0171206
0.105806 0.0753033 0.016556
0.120607 0.0759594 0.0163119
0.135119 0.0764324 0.0166171
0.149737 0.0770886 0.0171359
0.16524 0.0776379 0.0179141
0.182406 0.0780194 0.019028
0.199451 0.0783246 0.0203403
0.217029 0.0785687 0.0218357
0.235218 0.0784161 0.0235904
0.254154 0.0784619 0.0256504
0.274067 0.0779889 0.0279088
0.294896 0.0773785 0.0307927
0.31754 0.0762646 0.0336309
0.341634 0.0754864 0.0353857
0.366674 0.0751812 0.0378729
0.394751 0.0759289 0.0412299
0.425315 0.0776226 0.0457008
0.455238 0.0809033 0.0509041
0.486397 0.0875105 0.0573434
0.52047 0.0971542 0.0660716
0.556542 0.107073 0.0763256
0.594903 0.117098 0.0886854
0.637385 0.127703 0.10248
0.686671 0.14052 0.118074
0.744884 0.155123 0.136873
0.818875 0.173327 0.160891
0.940993 0.203571 0.200748
0.0358892 0.082887 0.0213016
0.0445411 0.0849928 0.0195926
0.0560006 0.0871595 0.0173495
0.0682078 0.089662 0.015259
0.0796979 0.0914473 0.0141451
0.0945754 0.0921035 0.0142214
0.109483 0.0924697 0.0134737
0.124224 0.0933547 0.0128939
0.138842 0.093904 0.0128939
0.153582 0.0946822 0.0132448
0.168948 0.0950179 0.0141604
0.18584 0.0959793 0.0151827
0.202762 0.0962081 0.0167544
0.220172 0.09691 0.0184176
0.238041 0.096788 0.0205234
0.25684 0.0968643 0.0227359
0.276555 0.0967727 0.0253758
0.297429 0.0966659 0.0285344
0.319799 0.0967269 0.0321965
0.343069 0.096788 0.0368505
0.367987 0.0966964 0.0409705
0.396826 0.0952926 0.0437476
0.428458 0.0936141 0.047364
0.459083 0.0939803 0.0517586
0.490822 0.098909 0.0576791
0.525353 0.106691 0.0657816
0.562814 0.114839 0.0749676
0.602304 0.123415 0.087068
0.644831 0.133639 0.101305
0.693812 0.1467 0.117174
0.751736 0.160342 0.136156
0.825086 0.179355 0.160311
0.94522 0.21239 0.201755
0.0384833 0.0992905 0.0189059
0.048127 0.100984 0.0167697
0.0596933 0.103548 0.0155489
0.0719921 0.10576 0.0141451
0.0838178 0.107637 0.0130007
0.0977035 0.1093 0.0127565
0.112581 0.110048 0.0127565
0.127596 0.110307 0.0112459
0.142367 0.110903 0.00981155
0.157107 0.111299 0.0099031
0.172519 0.111879 0.010132
0.189303 0.112306 0.0108797
0.206027 0.112642 0.0120546
0.223026 0.112978 0.0134127
0.240818 0.113161 0.0156863
0.259556 0.113207 0.0183719
0.279362 0.113741 0.0213169
0.300328 0.114458 0.0247196
0.322927 0.115114 0.0288396
0.346288 0.115816 0.0336156
0.370886 0.117098 0.038941
0.398749 0.118273 0.0460059
0.43006 0.119188 0.0518502
0.461067 0.119554 0.0561685
0.493385 0.120867 0.0610361
0.528969 0.121721 0.0668956
0.567452 0.123583 0.074464
0.607965 0.134493 0.0868391
0.651087 0.145953 0.101671
0.700481 0.153033 0.116197
0.757626 0.173373 0.137453
0.830213 0.190692 0.161517
0.947204 0.236042 0.20676
0.0412909 0.116381 0.0205234
0.0519875 0.118151 0.0202335
0.0635538 0.12018 0.0194095
0.0757916 0.122332 0.0183413
0.0877546 0.124071 0.0169833
0.101823 0.125963 0.0149538
0.11487 0.127337 0.0144045
0.130205 0.12755 0.0138247
0.145846 0.127916 0.0117647
0.1608 0.128344 0.00967422
0.176501 0.128313 0.00907912
0.193164 0.128939 0.00848402
0.209644 0.129458 0.00813306
0.226734 0.129747 0.00895705
0.244419 0.130266 0.0105592
0.263096 0.131044 0.0127413
0.283207 0.131991 0.0157778
0.304189 0.133059 0.0193942
0.326741 0.134295 0.0236515
0.350225 0.135973 0.0285039
0.374838 0.137865 0.0342412
0.40296 0.140002 0.0414588
0.433509 0.14287 0.0499275
0.463554 0.145998 0.0587015
0.495598 0.148516 0.0665599
0.531411 0.150851 0.0728618
0.570047 0.153536 0.0809491
0.6121 0.157046 0.0914168
0.657069 0.162783 0.103365
0.706004 0.177142 0.120089
0.763424 0.190127 0.13959
0.834775 0.215061 0.166155
0.949645 0.260487 0.212146
0.0451209 0.133028 0.0271763
0.055787 0.134966 0.0260319
0.0673686 0.136995 0.0245823
0.0793011 0.138872 0.0227512
0.0915847 0.140658 0.0207065
0.105928 0.142565 0.0176547
0.11873 0.144121 0.0150759
0.132479 0.145327 0.0139467
0.148547 0.14548 0.0124514
0.164157 0.145617 0.00967422
0.180102 0.145693 0.00732433
0.19704 0.146136 0.00584421
0.213993 0.146807 0.00480659
0.23125 0.147509 0.00563058
0.249393 0.148562 0.00691234
0.268147 0.14963 0.0091249
0.288228 0.151049 0.0117952
0.309361 0.152605 0.0151675
0.331762 0.15462 0.0189059
0.355322 0.156756 0.0233616
0.380011 0.15906 0.0290532
0.407797 0.161852 0.0358892
0.438453 0.164904 0.0445106
0.468528 0.168231 0.0536507
0.500038 0.172213 0.0638437
0.534646 0.177249 0.075761
0.572671 0.182589 0.0887312
0.614679 0.187518 0.0990005
0.660502 0.193347 0.110079
0.711284 0.203128 0.125185
0.768185 0.218952 0.145525
0.838941 0.241764 0.17171
0.951736 0.289769 0.219074
0.0485084 0.149981 0.0324407
0.0588846 0.151781 0.0305791
0.0703593 0.153414 0.0286107
0.0827497 0.155398 0.0264286
0.0948806 0.157198 0.0241245
0.109148 0.159136 0.020737
0.121752 0.160586 0.0176089
0.135729 0.162066 0.0145113
0.150042 0.162997 0.0135042
0.166308 0.163165 0.0117952
0.183413 0.163241 0.0091249
0.201266 0.163577 0.00729381
0.218875 0.164523 0.00640879
0.236728 0.165438 0.00654612
0.255009 0.166918 0.0069276
0.274174 0.168414 0.00808728
0.294224 0.170306 0.00949111
0.315251 0.172503 0.0111543
0.337469 0.175006 0.0130465
0.360922 0.177691 0.0167086
0.385641 0.180682 0.0225223
0.413504 0.183932 0.0298619
0.444068 0.188022 0.038529
0.474067 0.192081 0.047776
0.505592 0.196521 0.05832
0.5402 0.201801 0.0708019
0.577569 0.207767 0.0852827
0.618021 0.215045 0.101152
0.663005 0.222934 0.117388
0.715145 0.23209 0.131945
0.772641 0.246021 0.151019
0.842802 0.270115 0.177966
0.954253 0.31783 0.22565
0.0513924 0.167742 0.0364996
0.0615702 0.169406 0.0341192
0.0728923 0.171145 0.0317693
0.0857557 0.172976 0.0290684
0.0984512 0.174807 0.0261234
0.112276 0.176196 0.0225834
0.124895 0.177935 0.0191196
0.139086 0.179553 0.0153811
0.153521 0.181094 0.0122225
0.168673 0.1823 0.0112001
0.186572 0.182879 0.00941482
0.205722 0.183413 0.00714122
0.224063 0.18439 0.00573739
0.24242 0.185702 0.00482185
0.26125 0.18732 0.00469978
0.280629 0.189212 0.00508125
0.300938 0.191348 0.00604257
0.322255 0.19379 0.0075227
0.344778 0.196674 0.0099031
0.368139 0.19971 0.0135653
0.392721 0.20296 0.0183108
0.420203 0.207279 0.0237583
0.450477 0.212116 0.03093
0.480461 0.216739 0.0403754
0.511849 0.222065 0.0512093
0.546288 0.227802 0.0637675
0.583459 0.234699 0.0778668
0.623835 0.242451 0.0951553
0.667903 0.251362 0.113939
0.718456 0.26244 0.135058
0.776165 0.277348 0.15819
0.84593 0.300267 0.185412
0.956359 0.347555 0.233021
0.0552987 0.187137 0.041474
0.0650187 0.188708 0.0390021
0.0753643 0.190219 0.0365759
0.0884413 0.191943 0.0336309
0.101366 0.193484 0.0302892
0.114794 0.195422 0.0266423
0.12781 0.196979 0.0226749
0.142718 0.199069 0.0179904
0.15758 0.200992 0.0133211
0.173251 0.203052 0.00906386
0.189685 0.204654 0.00672923
0.209949 0.205936 0.00378424
0.229374 0.207065 0.00112917
0.248569 0.208667 0
0.267933 0.210224 0
0.287938 0.212696 0
0.308751 0.215045 0
0.330251 0.217838 0.00161746
0.352895 0.221088 0.00350958
0.376333 0.224735 0.00555428
0.400656 0.228733 0.00852979
0.428107 0.233143 0.0133059
0.458488 0.238132 0.0219883
0.488334 0.243626 0.0315557
0.519524 0.249424 0.0425422
0.553903 0.255924 0.0560311
0.590661 0.26305 0.0709544
0.630549 0.271565 0.088304
0.674189 0.281025 0.107576
0.724086 0.292821 0.129335
0.782025 0.307073 0.153323
0.850935 0.330678 0.185718
0.953536 0.376425 0.237644
0.0597848 0.206134 0.0474708
0.0682231 0.207477 0.0448768
0.0775921 0.209033 0.0423285
0.090898 0.210742 0.0388647
0.10428 0.212589 0.035172
0.118013 0.214649 0.0311894
0.131685 0.216632 0.0268406
0.146761 0.218967 0.0218051
0.162234 0.221363 0.016495
0.178164 0.223926 0.0112459
0.195239 0.226093 0.00633249
0.213931 0.228779 0.00386053
0.234607 0.229984 0.00122072
0.254841 0.231693 0
0.275181 0.233768 0
0.295674 0.236042 0
0.316762 0.239124 0
0.338598 0.242237 0
0.361349 0.245899 0
0.385016 0.249821 0
0.409522 0.253773 0.000854505
0.437369 0.258518 0.00834669
0.467384 0.264195 0.016022
0.496834 0.269993 0.0239567
0.52781 0.27628 0.0339971
0.5617 0.283421 0.0471046
0.598367 0.29131 0.0626078
0.637751 0.300221 0.0796521
0.680842 0.31014 0.100237
0.730022 0.322271 0.123156
0.786877 0.337285 0.147982
0.855985 0.359304 0.180499
0.952361 0.403021 0.23415
0.0660105 0.22533 0.0551766
0.0727245 0.226749 0.0532845
0.0801404 0.228122 0.0513008
0.0940261 0.230274 0.0476692
0.107607 0.232532 0.0439765
0.121996 0.234882 0.0397955
0.136278 0.237186 0.0352941
0.151598 0.239857 0.0301518
0.167636 0.242741 0.0244755
0.184024 0.245365 0.0183566
0.20148 0.248219 0.0122072
0.220691 0.251499 0.00741588
0.239902 0.254246 0.00633249
0.261189 0.256107 0.00306706
0.282506 0.258106 0
0.303731 0.260685 0
0.325536 0.263752 0
0.347906 0.267308 0
0.371206 0.270848 0
0.394934 0.275303 0
0.419745 0.279744 0
0.447074 0.285054 0.00294499
0.476967 0.290898 0.00791943
0.506081 0.297353 0.0134127
0.536751 0.303777 0.0244297
0.570611 0.311101 0.0386511
0.606607 0.319219 0.0545663
0.645533 0.32871 0.0716106
0.687984 0.33904 0.092668
0.736339 0.351781 0.11632
0.792264 0.366934 0.143038
0.860792 0.388617 0.175494
0.951995 0.430823 0.231571
0.0735943 0.245609 0.0639658
0.0782635 0.246937 0.0628214
0.0840314 0.248646 0.0616617
0.0980087 0.251133 0.0577707
0.111803 0.253681 0.0539559
0.12697 0.256321 0.049485
0.141634 0.259052 0.0449378
0.157046 0.261585 0.0395666
0.17377 0.264942 0.0337377
0.190387 0.267796 0.0274968
0.208469 0.271443 0.0207065
0.227909 0.274983 0.0136721
0.247547 0.278614 0.00779736
0.267521 0.281743 0.0047303
0.289982 0.284199 0.00106813
0.312062 0.286763 0
0.334447 0.289982 0
0.357397 0.293462 0
0.381231 0.297505 0
0.405173 0.30161 0
0.429877 0.30663 0
0.457221 0.312352 0
0.487129 0.318654 0
0.516487 0.324758 0.00914015
0.546914 0.331701 0.0195315
0.580133 0.339361 0.0307012
0.615671 0.34818 0.0446326
0.653971 0.357733 0.0627298
0.69575 0.368566 0.0844129
0.743435 0.381064 0.110475
0.798321 0.396857 0.137804
0.865415 0.418326 0.170825
0.952453 0.459403 0.229252
0.0826886 0.267094 0.0739147
0.0850538 0.268803 0.0740215
0.088838 0.270207 0.0732738
0.103334 0.273304 0.0691539
0.117403 0.276158 0.0651408
0.133043 0.279271 0.0605478
0.147555 0.281956 0.0558938
0.163851 0.285206 0.0503853
0.180636 0.288655 0.0442817
0.197772 0.291997 0.0374304
0.215976 0.295644 0.0298772
0.236301 0.29987 0.0215152
0.256199 0.303593 0.0138399
0.276265 0.307897 0.00816358
0.297276 0.311055 0.00526436
0.320638 0.314092 0.00120546
0.343816 0.317418 0
0.367376 0.320912 0
0.391592 0.32517 0
0.416114 0.329747 0
0.44126 0.334737 0
0.468742 0.340475 0
0.498558 0.346899 0
0.527428 0.353719 0.00149538
0.557626 0.361028 0.00840772
0.590356 0.368978 0.0204013
0.625711 0.377539 0.0368353
0.663691 0.387366 0.0567178
0.70457 0.398444 0.0769207
0.75108 0.411475 0.103059
0.804715 0.427222 0.133837
0.870649 0.448585 0.16669
0.953735 0.488533 0.227832
0.0934005 0.290227 0.0852827
0.0949111 0.292226 0.0859693
0.098909 0.294163 0.085481
0.110674 0.297169 0.0821698
0.124086 0.300237 0.0780041
0.139971 0.303548 0.0731518
0.154788 0.3066 0.0683757
0.17174 0.310216 0.0626078
0.188693 0.313756 0.0563058
0.206546 0.317693 0.0492256
0.224872 0.321462 0.0412299
0.24538 0.325902 0.032105
0.26566 0.330098 0.0231022
0.286015 0.33463 0.0157015
0.30695 0.339071 0.0101167
0.329107 0.342855 0.00738537
0.35346 0.346593 0.00198367
0.377829 0.35021 0
0.402548 0.354604 0
0.427314 0.359396 0
0.452689 0.36437 0
0.480522 0.370291 0
0.510552 0.377142 0
0.539437 0.38381 0
0.569451 0.39089 0.00637827
0.601892 0.399191 0.0162203
0.636347 0.408301 0.0288396
0.673762 0.418357 0.0484932
0.713802 0.429404 0.0700084
0.759365 0.442435 0.0987716
0.811872 0.458442 0.129442
0.876204 0.479316 0.164721
0.955856 0.518654 0.22681
0.10544 0.315114 0.0972
0.106401 0.317052 0.0981155
0.110185 0.319356 0.0979477
0.11809 0.322377 0.0964065
0.131807 0.325765 0.092546
0.147906 0.329381 0.0876936
0.162737 0.332845 0.0830701
0.180285 0.336629 0.0766766
0.197864 0.340383 0.0699474
0.216022 0.344549 0.0626383
0.234852 0.348516 0.0541695
0.255558 0.353338 0.0445869
0.276204 0.358312 0.0348974
0.297078 0.362814 0.0250706
0.318166 0.367498 0.016434
0.339803 0.372595 0.0101015
0.363043 0.376959 0.00689708
0.388403 0.380819 0.00267033
0.413779 0.38526 0
0.439475 0.389929 0
0.465156 0.395178 0
0.493172 0.40145 0
0.523018 0.408148 0
0.551614 0.41529 0
0.581521 0.422461 0
0.614145 0.430777 0.014023
0.648386 0.439429 0.0279088
0.684932 0.449729 0.0449226
0.724254 0.461311 0.0656443
0.768856 0.474205 0.095079
0.81976 0.489754 0.129076
0.881987 0.510796 0.164401
0.958846 0.549172 0.228489
0.118578 0.341726 0.109804
0.1196 0.343816 0.110796
0.122316 0.34638 0.111315
0.126925 0.349203 0.111162
0.141543 0.35285 0.107012
0.157198 0.356832 0.102663
0.172793 0.360647 0.098085
0.190143 0.364385 0.0922103
0.208469 0.368872 0.0857099
0.226459 0.372778 0.0778668
0.246082 0.377447 0.0691234
0.267033 0.382437 0.0590219
0.287831 0.387533 0.0486
0.309071 0.392538 0.0376898
0.330556 0.397681 0.0272221
0.352483 0.402701 0.0180972
0.375113 0.408377 0.0121614
0.399359 0.412924 0.00874342
0.425635 0.417624 0.00202945
0.451575 0.422477 0
0.477714 0.427832 0
0.506386 0.433707 0
0.536583 0.440696 0
0.565515 0.447517 0
0.595026 0.455344 0.00230411
0.626856 0.463218 0.00671397
0.660578 0.472679 0.0218814
0.696696 0.482597 0.0434424
0.73547 0.493858 0.0672618
0.778531 0.507149 0.0947433
0.828199 0.522606 0.13019
0.888243 0.542977 0.166262
0.96379 0.579278 0.241596
0.132372 0.369665 0.123049
0.133593 0.372137 0.124224
0.134768 0.374548 0.125353
0.140551 0.377844 0.124971
0.151583 0.381582 0.122499
0.168139 0.385763 0.117922
0.183688 0.389746 0.113542
0.201282 0.393927 0.10808
0.219562 0.398276 0.101854
0.238621 0.402792 0.0945602
0.257939 0.407401 0.0861524
0.279728 0.412726 0.0751659
0.300679 0.41799 0.0641642
0.32224 0.423163 0.0522469
0.343679 0.42858 0.0406653
0.366094 0.434302 0.0293278
0.388785 0.44007 0.0195621
0.411994 0.445686 0.0144045
0.437446 0.450858 0.00920119
0.464302 0.455955 0.0037995
0.490837 0.46125 0.000488289
0.51986 0.467658 0
0.550011 0.474495 0
0.579217 0.481361 0.00155642
0.608637 0.489067 0.00833143
0.640482 0.496925 0.018967
0.673701 0.506081 0.0288396
0.709178 0.516274 0.0487068
0.747021 0.527245 0.0745708
0.789441 0.540063 0.108095
0.837629 0.555154 0.143603
0.896056 0.575463 0.184176
0.9691 0.609918 0.258961
0.146807 0.398901 0.136904
0.148272 0.401892 0.138323
0.149599 0.404562 0.139574
0.154528 0.407904 0.139605
0.163088 0.411521 0.13817
0.180301 0.415991 0.133455
0.195422 0.42005 0.129412
0.214115 0.424613 0.123827
0.232441 0.429053 0.117922
0.251514 0.433677 0.111055
0.271611 0.438682 0.102998
0.293324 0.444099 0.093019
0.314733 0.449546 0.0818189
0.336095 0.455131 0.0693828
0.358068 0.4607 0.0564279
0.380453 0.466575 0.0436103
0.403449 0.472511 0.0313726
0.426978 0.478721 0.0210727
0.45095 0.484855 0.0159457
0.477165 0.490471 0.0179599
0.50454 0.495552 0.0157931
0.533913 0.501732 0.0118715
0.564401 0.508782 0.00479133
0.59321 0.515999 0.00131228
0.623148 0.523095 0.0194247
0.654521 0.531502 0.0357519
0.687617 0.540444 0.0508583
0.722469 0.550454 0.0717327
0.759441 0.561212 0.0989242
0.801053 0.573663 0.133303
0.847578 0.588632 0.166598
0.903975 0.607813 0.207385
0.973907 0.641459 0.280125
0.163241 0.432197 0.152667
0.164584 0.434913 0.153964
0.166155 0.437964 0.155383
0.167834 0.44152 0.157092
0.178943 0.44538 0.154604
0.194064 0.450034 0.150958
0.210346 0.454124 0.14641
0.228336 0.458991 0.141497
0.247974 0.463737 0.135332
0.266972 0.468498 0.128939
0.287236 0.473487 0.121218
0.30959 0.47924 0.111742
0.331014 0.48481 0.101396
0.35285 0.490455 0.0893416
0.374777 0.496239 0.0756085
0.397238 0.502358 0.0616465
0.4206 0.508537 0.0482948
0.444343 0.514824 0.0356298
0.468223 0.521355 0.023331
0.492317 0.527993 0.0172122
0.519112 0.533898 0.0263523
0.549142 0.5402 0.0282597
0.580285 0.546746 0.0295567
0.609232 0.553918 0.0298009
0.638697 0.561349 0.0427863
0.670146 0.569284 0.0582742
0.702739 0.577935 0.0793011
0.737179 0.587533 0.107607
0.773663 0.598291 0.131518
0.81387 0.610346 0.16466
0.858427 0.62472 0.196246
0.912642 0.643137 0.236881
0.979568 0.674632 0.308888
0.181216 0.468605 0.169924
0.182696 0.471595 0.171344
0.184329 0.474922 0.172915
0.187503 0.478233 0.173739
0.194156 0.482155 0.173388
0.210941 0.486992 0.169055
0.226841 0.491585 0.165057
0.246311 0.496376 0.159457
0.265202 0.501289 0.153918
0.284855 0.506142 0.147463
0.30547 0.511681 0.140307
0.327657 0.517174 0.131258
0.349569 0.523064 0.121538
0.371313 0.528832 0.110491
0.393591 0.534936 0.0978866
0.416419 0.540673 0.0828565
0.439536 0.547265 0.0673381
0.463157 0.553613 0.0522621
0.487678 0.560571 0.0402075
0.511833 0.567163 0.0330968
0.536416 0.574258 0.0363928
0.565408 0.580652 0.0523232
0.597009 0.587381 0.0595712
0.626215 0.594095 0.0668498
0.655802 0.601465 0.0776837
0.686809 0.609155 0.0969558
0.719188 0.617853 0.123278
0.752819 0.62707 0.146654
0.788342 0.637095 0.171969
0.827024 0.64892 0.201984
0.87013 0.662928 0.233494
0.921523 0.680095 0.272816
0.985763 0.709316 0.343496
0.198871 0.504387 0.186877
0.200351 0.507378 0.188296
0.201984 0.510674 0.189853
0.203845 0.514107 0.191394
0.212543 0.518257 0.190219
0.227832 0.523217 0.186679
0.244358 0.527611 0.182223
0.263615 0.532784 0.17705
0.283635 0.537728 0.171054
0.303181 0.542962 0.165072
0.32401 0.548119 0.157763
0.346578 0.554208 0.149294
0.36849 0.559869 0.139803
0.390509 0.565682 0.129213
0.412802 0.571664 0.117205
0.435508 0.578073 0.103822
0.458869 0.58439 0.088304
0.482322 0.590936 0.0713664
0.5066 0.597543 0.0626383
0.531182 0.604532 0.0576638
0.555734 0.611551 0.0501411
0.582437 0.618952 0.0633555
0.613046 0.62594 0.0911879
0.642588 0.632639 0.107759
0.67158 0.639811 0.121599
0.703059 0.647227 0.1411
0.73492 0.655314 0.166552
0.767895 0.664454 0.188495
0.802136 0.674342 0.212894
0.839887 0.68542 0.241917
0.881529 0.698039 0.273198
0.930282 0.714534 0.311406
0.991501 0.741817 0.378714
0.217105 0.541299 0.204364
0.218769 0.544671 0.205966
0.220539 0.548287 0.207675
0.223011 0.551644 0.208881
0.230106 0.555627 0.208347
0.246967 0.560739 0.204181
0.263859 0.565469 0.199802
0.283635 0.570733 0.194415
0.303075 0.575723 0.188815
0.323217 0.580789 0.182528
0.344335 0.586297 0.175448
0.366842 0.591852 0.166918
0.38883 0.597787 0.157931
0.411353 0.603586 0.147402
0.433249 0.609812 0.136477
0.455985 0.615869 0.123568
0.479606 0.622171 0.108415
0.502953 0.62887 0.0925612
0.527047 0.635584 0.0770886
0.551507 0.642527 0.0820325
0.575936 0.649653 0.0851453
0.602396 0.657298 0.0964218
0.630518 0.664881 0.127459
0.658991 0.671473 0.152331
0.688441 0.678187 0.169162
0.719234 0.685527 0.189059
0.750729 0.69337 0.212894
0.78291 0.70193 0.233509
0.816739 0.711009 0.258442
0.852613 0.721782 0.285588
0.892485 0.733593 0.316976
0.938628 0.748531 0.353918
0.996902 0.773327 0.417716
0.237034 0.581674 0.223499
0.238758 0.585168 0.225147
0.240391 0.588479 0.226719
0.242939 0.592096 0.228077
0.252567 0.59649 0.226627
0.26804 0.60148 0.223026
0.286168 0.606088 0.217975
0.305791 0.611322 0.212696
0.325841 0.616434 0.206897
0.346029 0.621637 0.200732
0.367086 0.626627 0.193469
0.390387 0.632685 0.184939
0.412634 0.638437 0.175937
0.434211 0.644297 0.166445
0.456672 0.650248 0.155322
0.479332 0.656367 0.142947
0.50248 0.662623 0.130877
0.526009 0.669169 0.11957
0.54995 0.675593 0.106783
0.574166 0.682597 0.113893
0.598337 0.68954 0.124041
0.624857 0.696834 0.138552
0.65156 0.704845 0.162997
0.67747 0.712322 0.196323
0.706188 0.718898 0.219181
0.736873 0.725475 0.240665
0.767575 0.732876 0.261936
0.798871 0.741176 0.283482
0.831342 0.749538 0.308675
0.866331 0.759167 0.335744
0.903624 0.770123 0.365042
0.947387 0.783551 0.40177
1 0.804776 0.46099
0.258228 0.624598 0.243839
0.259754 0.62771 0.245304
0.261585 0.631418 0.247059
0.26537 0.635065 0.247837
0.273594 0.639078 0.246815
0.292973 0.644358 0.241596
0.310628 0.649256 0.237018
0.330907 0.654078 0.231144
0.351583 0.659281 0.225071
0.371633 0.664103 0.218692
0.392996 0.669688 0.211734
0.415534 0.67538 0.203525
0.438178 0.681041 0.194354
0.460121 0.68658 0.184588
0.48249 0.692607 0.173907
0.504997 0.698222 0.161578
0.527733 0.704631 0.153994
0.551232 0.710735 0.145556
0.574884 0.717479 0.131289
0.598795 0.723781 0.143648
0.623072 0.730587 0.163714
