subtle niceties LUT V2 beta 5 (SSH-TS reimagined).cube
TITLE "Generated by Resolve"
LUT_3D_SIZE 5
0.00840772 0.00694286 0.00840772
0.124636 0.0182498 0.0135805
0.272786 0.0264439 0.0196689
0.468467 0.0633249 0.0462501
0.931258 0.173419 0.169131
0.0153811 0.140063 0.0234379
0.140795 0.147829 0.0162509
0.289265 0.149844 0.0126497
0.503502 0.167376 0.0545052
0.95758 0.280522 0.192828
0 0.305867 0.057023
0.16556 0.315877 0.0783093
0.350591 0.344518 0.0348211
0.56643 0.39263 0.0126192
0.951385 0.525414 0.216541
0 0.567117 0.15407
0.192889 0.590295 0.184909
0.453681 0.624796 0.162417
0.659663 0.68809 0.188556
0.964767 0.781918 0.476112
0.439048 0.980346 0.365927
0.57911 0.996353 0.475181
0.721355 1 0.594995
0.832105 1 0.658473
0.966949 1 0.567895
0.0502327 0.0454871 0.149813
0.167788 0.0295415 0.163409
0.298283 0.0269474 0.15552
0.499825 0.0453498 0.14992
0.958831 0.140352 0.232136
0.0401312 0.170352 0.151888
0.173373 0.172198 0.166506
0.31397 0.182559 0.170657
0.524941 0.205661 0.173037
0.980972 0.298238 0.267323
0.00920119 0.325917 0.149477
0.190417 0.354788 0.179507
0.379995 0.398688 0.159792
0.591318 0.438254 0.267155
0.965087 0.560678 0.373724
0 0.597589 0.166705
0.261143 0.626749 0.235386
0.480766 0.673106 0.312444
0.705242 0.743572 0.31957
0.973068 0.824338 0.586587
0.427024 1 0.444587
0.627115 1 0.567224
0.770733 1 0.676997
0.883452 1 0.777935
0.978515 0.991897 0.826947
0.133974 0.110094 0.324605
0.219821 0.0975052 0.329793
0.345693 0.0538033 0.342992
0.53959 0.0513008 0.348013
0.979721 0.151492 0.408286
0.126116 0.221942 0.307912
0.228748 0.212665 0.323369
0.386404 0.195377 0.36318
0.575235 0.242298 0.372564
0.992172 0.281971 0.420188
0.0404669 0.377661 0.322148
0.239612 0.388617 0.388815
0.430686 0.428428 0.417899
0.639094 0.481346 0.475593
0.981292 0.609293 0.559243
0.0129549 0.625437 0.408194
0.310048 0.672053 0.442222
0.528572 0.718029 0.513405
0.770565 0.765209 0.593576
0.980438 0.86273 0.740505
0.485328 1 0.567132
0.685908 1 0.665522
0.837812 1 0.806073
0.969696 0.993118 0.92166
0.979202 0.996689 0.965591
0.276127 0.227237 0.584619
0.327611 0.206043 0.583932
0.428611 0.189868 0.58555
0.625696 0.129656 0.623575
1 0.256229 0.728496
0.262943 0.309957 0.575189
0.326558 0.296956 0.579843
0.447898 0.296696 0.597345
0.665461 0.272145 0.647898
0.996185 0.392859 0.699168
0.212207 0.452811 0.575525
0.340749 0.465797 0.58909
0.507012 0.484749 0.631296
0.759594 0.489387 0.707088
1 0.640864 0.776608
0.124712 0.701228 0.609415
0.385504 0.717968 0.692119
0.621103 0.754116 0.724743
0.812192 0.809049 0.788846
0.95436 0.90341 0.930449
0.631785 1 0.755795
0.787884 1 0.828595
0.93611 0.997879 0.924361
0.979202 0.996689 0.965591
0.979202 0.996689 0.965591
0.760723 0.624552 1
0.774411 0.56527 1
0.814847 0.522759 1
0.915663 0.479332 1
1 0.46685 1
0.692256 0.629145 1
0.70396 0.56939 1
0.751156 0.537102 1
0.865507 0.513497 1
1 0.547494 1
0.601602 0.694667 1
0.65304 0.649332 1
0.732525 0.634134 1
0.871489 0.652338 1
1 0.737728 1
0.50901 0.844694 1
0.581201 0.843244 1
0.716869 0.849104 1
0.882719 0.87631 1
0.977432 0.972854 0.971954
0.738201 0.992554 1
0.843854 1 0.994079
0.975158 0.997833 0.966186
0.979202 0.996689 0.965591
0.979202 0.996689 0.965591
