subtle niceties LUT V2 beta 14 (SSH-TS reimagined).cube
TITLE "Generated by Resolve"
LUT_3D_SIZE 33
0.00776684 0.00639353 0.0107271
0.016968 0.00695811 0.0107118
0.025452 0.00856031 0.0106813
0.0386358 0.00854505 0.00936904
0.0528725 0.00943008 0.00862135
0.0672465 0.0104372 0.00932326
0.0818799 0.0115358 0.00970474
0.0982223 0.0122988 0.00999466
0.117662 0.0129854 0.00979629
0.13991 0.0133974 0.00784314
0.162585 0.0140536 0.00444038
0.185657 0.0144808 0.000122072
0.209506 0.015671 0
0.230549 0.0176852 0
0.250645 0.0197452 0
0.270375 0.021912 0.000244144
0.289769 0.0238346 0.00169375
0.308766 0.025864 0.00308232
0.328618 0.0275578 0.00425727
0.348989 0.0295109 0.00535592
0.369955 0.0315862 0.00634775
0.391669 0.0337682 0.0075227
0.414725 0.0361944 0.00802625
0.44033 0.0386664 0.00808728
0.466972 0.0419318 0.00773632
0.494636 0.0451667 0.00607309
0.523522 0.0479591 0.00321965
0.554452 0.0511177 0
0.588083 0.0556497 0
0.624811 0.0608072 0
0.665049 0.0671702 0
0.708507 0.0770428 0
0.758541 0.0960555 0
0.00590524 0.0170138 0.0107881
0.0182803 0.0174105 0.011902
0.0304723 0.0180819 0.0123293
0.0442054 0.018616 0.0124056
0.0607156 0.0194858 0.01178
0.0788586 0.0195163 0.0103761
0.0950332 0.0200198 0.00956741
0.110277 0.0214694 0.0102541
0.129595 0.0228885 0.0106355
0.151843 0.024033 0.00852979
0.17409 0.0247807 0.00489815
0.197681 0.025452 0
0.221729 0.0264591 0
0.241672 0.0289158 0
0.260578 0.0311131 0
0.279072 0.0331273 0
0.297902 0.0344701 0.000411994
0.317052 0.0362707 0.00173953
0.336873 0.0380102 0.00292973
0.357412 0.0399481 0.00411994
0.378378 0.0424353 0.00537118
0.400519 0.0444648 0.00613413
0.42356 0.0470741 0.00656138
0.449424 0.0504463 0.00666819
0.476555 0.0543984 0.00579843
0.504341 0.0574197 0.00369268
0.533806 0.0612955 0.000534066
0.56556 0.0663005 0
0.59971 0.0711681 0
0.636744 0.076997 0
0.676966 0.084596 0
0.720226 0.098909 0
0.770535 0.118151 0.00732433
0.00952163 0.0285344 0.0100404
0.0183566 0.0308232 0.00975052
0.0321965 0.0316625 0.0107881
0.0468757 0.0322728 0.0128786
0.0648814 0.0327001 0.0142977
0.0839551 0.0341955 0.0133059
0.101625 0.0347143 0.0118715
0.118151 0.035935 0.0113375
0.138933 0.0362707 0.0112154
0.161563 0.036759 0.00991836
0.18439 0.037171 0.00538643
0.208011 0.0376898 0
0.231876 0.0382849 0
0.250919 0.0408484 0
0.268849 0.0426337 0
0.28719 0.043473 0
0.305943 0.0448463 0
0.325216 0.047013 4.57771e-05
0.345296 0.0483101 0.00123598
0.365896 0.0510872 0.00239567
0.387076 0.0541695 0.00364691
0.409583 0.0572366 0.00444038
0.432959 0.0611582 0.00495918
0.459205 0.0640574 0.00444038
0.486641 0.0679484 0.00323491
0.5149 0.0723278 0.0010071
0.544945 0.0777142 0
0.577081 0.0830243 0
0.611841 0.0890211 0
0.649241 0.0953231 0
0.68954 0.105196 0
0.73257 0.121279 0
0.783001 0.140749 0.0222782
0.0147555 0.0417182 0.011902
0.0234989 0.0442817 0.0109712
0.0348821 0.0470436 0.00914015
0.0493477 0.0484779 0.0105745
0.0660716 0.0506294 0.0111086
0.084535 0.0519875 0.0116121
0.102052 0.0520943 0.0122072
0.121843 0.0517891 0.0120241
0.14464 0.0531167 0.0102235
0.168032 0.0534524 0.00727855
0.19144 0.053254 0.00296025
0.215885 0.0517891 0
0.239826 0.0501564 0
0.25919 0.0514229 0
0.276936 0.0531319 0
0.295216 0.0548867 0
0.314153 0.0567178 0
0.333654 0.0588693 0
0.353918 0.0613565 0
0.374777 0.0652781 0.000198367
0.396078 0.0686046 0.00144961
0.418662 0.0723278 0.00225834
0.442481 0.076112 0.00248722
0.469047 0.0803845 0.00213626
0.497078 0.0853132 0.000595102
0.525902 0.0901656 0
0.556481 0.0956741 0
0.589151 0.101457 0
0.624109 0.107408 0
0.66186 0.114321 0
0.701656 0.126329 0
0.745159 0.143206 0.00587472
0.795499 0.162539 0.0357977
0.0211337 0.0586862 0.0133822
0.0308843 0.0600443 0.0132296
0.0418402 0.0624094 0.0120851
0.0524758 0.0656291 0.0108186
0.0682078 0.0678721 0.0096437
0.0842298 0.0716716 0.00517281
0.100389 0.0735943 0.00445563
0.121523 0.0738079 0.00584421
0.148943 0.0702983 0.00889601
0.172519 0.0699626 0.00691234
0.195895 0.0696117 0.00325017
0.219928 0.0681621 0
0.244633 0.0664378 0
0.267185 0.0646372 0
0.285679 0.0663157 0
0.304143 0.0687572 0
0.323323 0.0719005 0
0.34313 0.0744182 0
0.363363 0.0781109 0
0.384573 0.0816968 0
0.405737 0.0860914 0
0.428214 0.0901198 0
0.452277 0.0943313 0
0.479271 0.0988174 0
0.507897 0.103746 0
0.537301 0.10869 0
0.568246 0.114961 0
0.601022 0.120089 0
0.636881 0.126207 0
0.675135 0.133364 0
0.714275 0.148196 0
0.757717 0.164874 0.0149233
0.808637 0.185183 0.0515908
0.0285039 0.0767071 0.0139925
0.0399329 0.0771649 0.0142061
0.0519722 0.0782483 0.0138552
0.0610513 0.0808576 0.0128176
0.0712139 0.0844739 0.0115969
0.0867628 0.0862593 0.00939956
0.101869 0.0903334 0.00419623
0.122896 0.0920119 0.00247196
0.148531 0.0908064 0.00447089
0.17435 0.0870832 0.00724804
0.198123 0.0867628 0.00427253
0.222614 0.0870375 0
0.247761 0.0867475 0
0.271412 0.0867628 0
0.291966 0.0868696 0
0.31249 0.0874495 0
0.332937 0.0885939 0
0.352605 0.0919203 0
0.372808 0.0957809 0
0.393805 0.0994583 0
0.415717 0.103899 0
0.438544 0.108186 0
0.462593 0.112367 0
0.489906 0.116854 0
0.518395 0.122011 0
0.547677 0.127321 0
0.578729 0.132906 0
0.612482 0.138796 0
0.649073 0.144076 0
0.687007 0.154147 0
0.72607 0.168597 0
0.769924 0.185946 0.0248264
0.821302 0.207019 0.066041
0.0357519 0.0932631 0.0141451
0.0471962 0.093904 0.015198
0.0586404 0.0946517 0.0160983
0.0696269 0.0960098 0.0158694
0.0789654 0.0990005 0.0146639
0.0884871 0.102098 0.0135653
0.104448 0.104753 0.0101472
0.123354 0.109178 0.000518807
0.145586 0.111452 0
0.170413 0.110048 0.00015259
0.19736 0.107591 0.00259403
0.223987 0.106859 0
0.250004 0.107591 0
0.274235 0.107744 0
0.296086 0.108217 0
0.31725 0.109453 0
0.338827 0.109834 0
0.360464 0.11136 0
0.382467 0.112627 0
0.403861 0.116579 0
0.426001 0.121172 0
0.449287 0.125261 0
0.473381 0.129732 0
0.500374 0.134752 0
0.528908 0.139605 0
0.558465 0.144976 0
0.589792 0.150042 0
0.623499 0.155749 0
0.659922 0.161837 0
0.697658 0.173114 0
0.737316 0.188235 0
0.78143 0.205921 0.0332036
0.832929 0.227283 0.0773938
0.0429389 0.112993 0.0157168
0.0545052 0.114199 0.0167239
0.0658732 0.115007 0.0178683
0.0776532 0.115755 0.018616
0.0881666 0.117067 0.018265
0.0970779 0.11902 0.0174563
0.107195 0.122087 0.0157168
0.125521 0.125109 0.00868238
0.144961 0.13022 0
0.167193 0.132845 0
0.193881 0.13138 0
0.222721 0.128893 0
0.251164 0.127871 0
0.275715 0.129122 0
0.299702 0.129519 0
0.321492 0.131472 0
0.343923 0.13283 0
0.366491 0.134752 0
0.389822 0.136309 0
0.413245 0.138308 0
0.437201 0.140124 0
0.4607 0.143999 0
0.48513 0.148455 0
0.512657 0.153567 0
0.541405 0.158648 0
0.571237 0.163531 0
0.602213 0.168887 0
0.635569 0.175036 0
0.671901 0.181827 0
0.708705 0.193393 0
0.748379 0.208637 0.000122072
0.792508 0.226413 0.036286
0.844434 0.248234 0.0890974
0.0491493 0.134356 0.0166629
0.0615549 0.134661 0.0184024
0.072221 0.13547 0.0199283
0.0834363 0.136019 0.0212406
0.0943923 0.136721 0.0221714
0.105531 0.137438 0.0215305
0.115755 0.13933 0.0198672
0.126879 0.142489 0.0181125
0.146761 0.146288 0.00755322
0.166796 0.152346 0
0.18938 0.156588 0
0.219333 0.154025 0
0.249577 0.152346 0
0.276677 0.151583 0
0.301793 0.15259 0
0.325658 0.154421 0
0.348913 0.156359 0
0.372152 0.158694 0
0.395941 0.161212 0
0.420279 0.164111 0
0.445228 0.1664 0
0.471199 0.16968 0
0.498207 0.171313 0
0.52723 0.174426 0
0.556085 0.179446 0
0.585367 0.185397 0
0.61651 0.19086 0
0.650202 0.196841 0
0.685496 0.204456 0
0.72137 0.216983 0
0.76051 0.231128 0.00311284
0.804364 0.2486 0.0436866
0.855833 0.27013 0.0944686
0.0519265 0.153475 0.0195926
0.0653391 0.153674 0.0210575
0.0771191 0.154269 0.0222171
0.0877241 0.154986 0.0233005
0.0996872 0.155688 0.0241245
0.112779 0.155901 0.0244297
0.124392 0.157076 0.0222629
0.135927 0.159564 0.0196078
0.149355 0.163821 0.0168154
0.170565 0.168734 0.00158694
0.190677 0.175723 0
0.215534 0.179461 0
0.24773 0.17586 0
0.27602 0.174777 0
0.302632 0.175311 0
0.328267 0.176761 0
0.352987 0.179232 0
0.377279 0.181918 0
0.401999 0.184741 0
0.427054 0.188159 0
0.452415 0.191852 0
0.478889 0.195132 0
0.5066 0.198337 0
0.537194 0.201907 0
0.568887 0.204517 0
0.601083 0.207095 0
0.632105 0.213367 0
0.664637 0.220233 0
0.698405 0.228779 0
0.734188 0.240543 0
0.773129 0.254704 0.0112764
0.816617 0.271809 0.0487526
0.867674 0.292836 0.103532
0.0556497 0.172656 0.020264
0.0696574 0.172839 0.0213779
0.0829938 0.173175 0.0221714
0.0946517 0.173877 0.0230106
0.106981 0.174594 0.0237278
0.119966 0.175006 0.0241093
0.132235 0.175555 0.0239414
0.14464 0.177554 0.0195773
0.158968 0.181125 0.0152132
0.174182 0.185763 0.0111086
0.194827 0.191653 0
0.216907 0.198505 0
0.243824 0.20148 0
0.274189 0.199115 0
0.30277 0.198657 0
0.329732 0.199786 0
0.356176 0.201785 0
0.381598 0.204776 0
0.407095 0.207843 0
0.432685 0.211353 0
0.458885 0.215061 0
0.485817 0.219547 0
0.51397 0.223896 0
0.545052 0.22855 0
0.577585 0.233143 0
0.610758 0.236881 0
0.644633 0.241016 0
0.678294 0.246036 0
0.711833 0.254658 0
0.747417 0.265934 0
0.786221 0.279622 0.0203555
0.829511 0.296086 0.0616465
0.879896 0.316381 0.11426
0.0601358 0.19266 0.0171511
0.0737774 0.193194 0.0177768
0.0872358 0.1935 0.018204
0.0996872 0.194324 0.0182193
0.112642 0.195407 0.0180514
0.125536 0.196262 0.0193942
0.138155 0.197009 0.0206912
0.152407 0.19791 0.0215915
0.167987 0.200488 0.0171817
0.182849 0.204593 0.0129549
0.198978 0.209567 0.00843824
0.220478 0.21648 0
0.244938 0.222522 0
0.270527 0.226917 0
0.300801 0.225025 0
0.329931 0.224903 0
0.358083 0.226047 0
0.384802 0.228717 0
0.411566 0.232502 0
0.438392 0.235737 0
0.464851 0.240085 0
0.492287 0.24445 0
0.520729 0.248997 0
0.552346 0.254627 0
0.585382 0.260212 0
0.619333 0.265248 0
0.653788 0.27042 0
0.688411 0.278096 0
0.723842 0.286595 0
0.761105 0.295415 0.00433356
0.800229 0.306691 0.0372931
0.842924 0.322179 0.0773785
0.892912 0.341833 0.129732
0.066392 0.213657 0.0102083
0.0787518 0.214405 0.0126802
0.0935988 0.215137 0.0143282
0.106935 0.216205 0.0161593
0.119646 0.217395 0.0178073
0.132067 0.218677 0.0195621
0.144808 0.219791 0.0212863
0.159335 0.220493 0.0233616
0.175372 0.221958 0.0230716
0.191501 0.225269 0.0181582
0.207614 0.230121 0.0126192
0.225101 0.235752 0.00666819
0.248798 0.242908 0
0.273365 0.248508 0
0.298772 0.253483 0
0.329168 0.253147 0
0.359091 0.252674 0
0.387991 0.254154 0
0.415061 0.257847 0
0.442573 0.261601 0
0.470848 0.265614 0
0.498909 0.26978 0
0.527626 0.275074 0
0.559136 0.280888 0
0.591989 0.286854 0
0.62562 0.293538 0
0.661036 0.299977 0
0.696681 0.308415 0
0.733501 0.317983 0
0.771847 0.328649 0.00238041
0.812848 0.339788 0.0451209
0.856947 0.353109 0.0961929
0.906996 0.36994 0.146487
0.0678569 0.235462 0.0132143
0.0824903 0.236301 0.0149233
0.0980087 0.236973 0.0168002
0.113497 0.237842 0.0183413
0.126497 0.239216 0.0192721
0.139101 0.240803 0.0201724
0.152132 0.241901 0.0213016
0.166491 0.242985 0.0229801
0.182544 0.244465 0.0247349
0.199359 0.247059 0.0221866
0.216632 0.250843 0.0169375
0.234958 0.256138 0.00793469
0.254261 0.262516 0
0.277516 0.269184 0
0.30193 0.275029 0
0.327977 0.280552 0
0.357473 0.282277 0
0.38854 0.282216 0
0.41799 0.283742 0
0.446998 0.286732 0
0.475181 0.290761 0
0.503929 0.295491 0
0.533364 0.300099 0
0.565133 0.30602 0
0.597925 0.312413 0
0.631495 0.319295 0
0.666743 0.326177 0
0.702571 0.335103 0
0.740246 0.345617 0
0.780316 0.357473 0.00163272
0.822309 0.371008 0.0415503
0.86772 0.385901 0.0970626
0.919188 0.402319 0.157137
0.0717174 0.256916 0.0133516
0.0885634 0.257786 0.0149996
0.10367 0.258762 0.0164034
0.119265 0.25977 0.0180209
0.134127 0.261051 0.0186923
0.146944 0.262608 0.0189822
0.159716 0.264576 0.0188144
0.173434 0.266285 0.0190585
0.189181 0.268299 0.0192874
0.206104 0.270558 0.0209964
0.224445 0.273075 0.0201419
0.243717 0.277256 0.0157626
0.263081 0.283574 0.00724804
0.282521 0.290089 0
0.306203 0.297169 0
0.330968 0.303334 0
0.357534 0.309331 0
0.387274 0.312154 0
0.419043 0.311955 0
0.449882 0.313237 0
0.479759 0.315862 0
0.508659 0.320577 0
0.538323 0.325154 0
0.570855 0.330892 0
0.603693 0.337133 0
0.636805 0.343938 0
0.671717 0.351141 0
0.707576 0.360418 0
0.745342 0.371115 0
0.785611 0.383932 0
0.82916 0.398322 0.0335851
0.876234 0.413931 0.0981155
0.92903 0.433219 0.15874
0.0780346 0.279149 0.0104372
0.094255 0.280034 0.011368
0.110185 0.280949 0.0120089
0.126497 0.282277 0.0123751
0.142611 0.283619 0.012192
0.155657 0.286061 0.0108644
0.168032 0.28809 0.0124056
0.181735 0.290318 0.0145876
0.198199 0.292622 0.0181277
0.214817 0.294377 0.0231479
0.232761 0.296681 0.0261082
0.252232 0.300175 0.0238956
0.27216 0.305379 0.0175631
0.291325 0.311589 0.0081178
0.311604 0.318822 0
0.336049 0.325856 0
0.362646 0.332433 0
0.389807 0.338491 0
0.418708 0.343099 0
0.450935 0.343603 0
0.4822 0.344808 0
0.512749 0.347524 0
0.54345 0.351141 0
0.575799 0.356741 0
0.608911 0.362768 0
0.641917 0.369284 0
0.675883 0.376684 0
0.711315 0.38558 0
0.749508 0.396109 0
0.790234 0.408591 0
0.834028 0.423713 0.0226139
0.882078 0.440604 0.0882734
0.936385 0.460975 0.157412
0.0863661 0.30219 0.00288396
0.102358 0.302907 0.0041352
0.118151 0.304204 0.00790417
0.134371 0.305745 0.0114137
0.151476 0.307317 0.0149996
0.16463 0.309361 0.0174258
0.177386 0.311528 0.0194553
0.191791 0.314061 0.0215763
0.207767 0.316518 0.0239872
0.224369 0.319081 0.0264897
0.241901 0.321569 0.0291142
0.261402 0.325063 0.0281071
0.282582 0.329809 0.0231632
0.302953 0.335348 0.0158236
0.321721 0.34168 0.00749218
0.342931 0.349264 0
0.36762 0.356603 0
0.393881 0.363577 0
0.4215 0.37052 0
0.449744 0.376486 0
0.482811 0.376822 0
0.514717 0.378149 0
0.546471 0.38056 0
0.580102 0.384268 0
0.613474 0.389609 0
0.64651 0.395804 0
0.680385 0.402686 0
0.715846 0.411093 0
0.753613 0.42092 0
0.794125 0.433143 0
0.838071 0.447776 0.0110323
0.886336 0.465507 0.0730907
0.941543 0.487022 0.150912
0.0902113 0.325902 0.00935378
0.10695 0.327367 0.0119326
0.124163 0.328618 0.0144503
0.141833 0.330129 0.0167239
0.158724 0.332021 0.0188144
0.17464 0.333928 0.0203403
0.18793 0.336278 0.0206912
0.202136 0.339223 0.0213169
0.217899 0.342412 0.0217288
0.234546 0.345815 0.0219425
0.251804 0.348791 0.0230106
0.271153 0.351827 0.0281834
0.292973 0.355871 0.0281987
0.313603 0.360494 0.0251926
0.333516 0.366262 0.0171511
0.352911 0.373388 0.00868238
0.37464 0.381048 0
0.399603 0.389029 0
0.426078 0.396201 0
0.45388 0.403647 0
0.482277 0.410849 0
0.515969 0.411658 0
0.548882 0.412451 0
0.583383 0.414878 0
0.617426 0.419181 0
0.650889 0.424277 0
0.68455 0.430488 0
0.7205 0.437186 0
0.757961 0.446494 0
0.79762 0.457801 0
0.840986 0.471992 0
0.889464 0.489281 0.0649119
0.944869 0.511223 0.139528
0.0976425 0.350484 0.0107424
0.11548 0.351965 0.0125277
0.132967 0.353582 0.0140688
0.149691 0.355627 0.0153964
0.167819 0.357473 0.016434
0.185718 0.359609 0.0168307
0.199176 0.362737 0.0154421
0.213657 0.365988 0.0148165
0.22974 0.369665 0.0175326
0.246296 0.37322 0.0199893
0.263783 0.376028 0.0247654
0.282811 0.379355 0.0301671
0.303929 0.382666 0.0359655
0.324697 0.387198 0.0347906
0.345357 0.392462 0.0292821
0.365835 0.398688 0.0184787
0.385428 0.406439 0.00988785
0.40763 0.414542 0
0.433295 0.422675 0
0.459831 0.430732 0
0.487266 0.438849 0
0.515755 0.44654 0
0.548898 0.448371 0
0.584955 0.449577 0
0.619562 0.452262 0
0.653971 0.45597 0
0.688167 0.461234 0
0.723842 0.467185 0
0.761395 0.47451 0
0.802106 0.483589 0
0.844907 0.496651 0
0.891981 0.512825 0.047303
0.947417 0.534829 0.129564
0.108904 0.37644 0.00486763
0.127108 0.378195 0.00537118
0.144442 0.380133 0.00537118
0.162081 0.382269 0.00607309
0.179873 0.384421 0.0111696
0.196994 0.386618 0.0158999
0.211124 0.389151 0.0192569
0.225788 0.392599 0.0222477
0.242115 0.396262 0.0251011
0.258808 0.399863 0.0284733
0.276463 0.403586 0.0319524
0.295369 0.407553 0.0353857
0.315847 0.41207 0.0387274
0.337652 0.416449 0.0385443
0.358328 0.420859 0.0379339
0.379187 0.426108 0.0323949
0.399176 0.432929 0.0215
0.418051 0.440085 0.0178378
0.441566 0.449226 0
0.466667 0.458106 0
0.493599 0.466697 0
0.520821 0.475425 0
0.548837 0.484352 0
0.584573 0.487419 0
0.621744 0.487984 0
0.656474 0.490578 0
0.690929 0.494163 0
0.726558 0.499687 0
0.764401 0.505959 0
0.804837 0.513497 0
0.849119 0.522454 0.00830091
0.895613 0.53785 0.0579843
0.949264 0.558083 0.123247
0.116426 0.403159 0.00733959
0.13402 0.404623 0.0107118
0.151949 0.406729 0.014023
0.170352 0.408881 0.0171359
0.188693 0.411261 0.0200656
0.206653 0.414054 0.0225071
0.223957 0.416831 0.0244144
0.239307 0.420569 0.0250095
0.25594 0.425269 0.0249332
0.273167 0.429877 0.0252689
0.290608 0.434241 0.0279545
0.309316 0.437781 0.0353094
0.329793 0.44152 0.0433509
0.350347 0.445014 0.0509194
0.371572 0.449805 0.0504463
0.392599 0.45478 0.0468147
0.413275 0.461006 0.0387427
0.433692 0.468544 0.0252537
0.452155 0.475593 0.0271153
0.476249 0.484932 0
0.501869 0.495171 0
0.528664 0.504555 0
0.55613 0.514 0
0.585275 0.524453 0
0.619379 0.52874 0
0.656214 0.529702 0
0.692287 0.531624 0
0.729061 0.535073 0
0.766583 0.540246 0
0.806485 0.547234 0
0.850385 0.555047 0.0099031
0.899397 0.564446 0.0724346
0.953109 0.583169 0.139864
0.12665 0.430915 0.00950637
0.145678 0.43299 0.0119173
0.164645 0.435309 0.0142824
0.182132 0.437659 0.0165255
0.201038 0.440452 0.0187228
0.220142 0.443671 0.0204166
0.23856 0.446632 0.0216068
0.253651 0.45069 0.024033
0.270512 0.454932 0.0286107
0.287633 0.459449 0.0327153
0.305318 0.463661 0.0369726
0.324376 0.467872 0.0422675
0.344915 0.472648 0.0487984
0.365042 0.476448 0.0566567
0.38645 0.480888 0.0594339
0.407614 0.485557 0.0587167
0.428824 0.491142 0.0544137
0.449409 0.497902 0.0453498
0.468833 0.504997 0.0353399
0.486671 0.512276 0.0424353
0.511208 0.521477 0.00492866
0.536797 0.532158 0
0.563607 0.543587 0
0.592645 0.555459 0
0.62179 0.566598 0
0.655192 0.571817 0
0.691691 0.57319 0
0.728801 0.574929 0
0.767391 0.578653 0
0.807645 0.58378 0
0.851041 0.590723 0.00357061
0.899077 0.599405 0.0702068
0.956634 0.611048 0.155489
0.141131 0.460487 0.00712596
0.160021 0.46305 0.00854505
0.178546 0.465492 0.00972
0.196429 0.468376 0.0138552
0.215503 0.471077 0.0189975
0.233921 0.473915 0.024567
0.251514 0.476799 0.0291142
0.268742 0.480598 0.0331121
0.286198 0.485618 0.0354162
0.303548 0.490669 0.0374456
0.321828 0.495827 0.0389258
0.340978 0.501442 0.0406348
0.361547 0.50602 0.047715
0.381674 0.509987 0.058381
0.40209 0.513375 0.0704967
0.423545 0.517632 0.0753033
0.444434 0.522255 0.0755169
0.465171 0.527901 0.0688487
0.485176 0.534905 0.0592203
0.504326 0.542855 0.053666
0.523125 0.551064 0.0590219
0.548653 0.560418 0.0187533
0.575097 0.571176 0
0.603342 0.583535 0
0.631281 0.595911 0
0.658946 0.608621 0
0.690227 0.61735 0
0.727855 0.61915 0
0.767163 0.620478 0
0.807263 0.624445 0
0.850202 0.630106 0
0.898009 0.638224 0.0547799
0.954757 0.649104 0.150744
0.153582 0.492805 0.0114137
0.172625 0.495323 0.0143893
0.192081 0.4981 0.0172885
0.211582 0.500908 0.0199588
0.23061 0.504494 0.0221561
0.250431 0.508171 0.0241855
0.270176 0.512245 0.0254368
0.28835 0.517098 0.02533
0.306249 0.522637 0.0263676
0.323415 0.526925 0.0351873
0.340536 0.531151 0.0441596
0.359442 0.535515 0.054078
0.379919 0.539757 0.0645151
0.399969 0.544274 0.0739452
0.420432 0.548272 0.0848096
0.441444 0.552514 0.0939651
0.462974 0.557076 0.0953536
0.484215 0.562737 0.0925917
0.504494 0.568704 0.0861219
0.523445 0.576226 0.0819257
0.54136 0.583993 0.0844739
0.559274 0.592126 0.0936751
0.586389 0.601846 0.0535286
0.615656 0.613474 0.00146487
0.644724 0.625834 0
0.673045 0.637949 0
0.701167 0.650156 0
0.732692 0.660243 0
0.770245 0.664195 0
0.809277 0.668162 0
0.852583 0.672984 0
0.900175 0.679957 0.0500343
0.954894 0.690959 0.151431
0.17229 0.527047 0.00842298
0.192493 0.529976 0.0110323
0.2103 0.533257 0.0136416
0.229084 0.5364 0.0163577
0.24892 0.539681 0.0218509
0.267659 0.543099 0.0294652
0.285939 0.546212 0.0361181
0.305684 0.550286 0.0424048
0.323903 0.555367 0.0470893
0.341695 0.560479 0.0515908
0.36022 0.566384 0.0552224
0.379751 0.571984 0.0595254
0.400214 0.577523 0.0670787
0.420432 0.581918 0.0788434
0.44062 0.58555 0.0932021
0.461204 0.589349 0.107454
0.482795 0.592645 0.117617
0.5037 0.597528 0.119936
0.5234 0.602884 0.1187
0.542519 0.610132 0.11574
0.561532 0.618082 0.114092
0.580041 0.626657 0.117617
0.598062 0.635401 0.125551
0.626719 0.645212 0.0972915
0.656901 0.657069 0.0483101
0.686107 0.668696 0
0.715236 0.680903 0
0.744945 0.693385 0
0.777295 0.704433 0
0.816388 0.70985 0
0.858595 0.71548 0
0.904463 0.721889 0.0676127
0.957275 0.732509 0.167361
0.189075 0.560861 0.0149233
0.207706 0.563622 0.0197147
0.2262 0.566705 0.0243839
0.246174 0.569863 0.0287938
0.265705 0.573526 0.0331426
0.285267 0.577462 0.0370489
0.305333 0.581506 0.0405585
0.326452 0.586465 0.043061
0.345129 0.592737 0.0421607
0.36318 0.598154 0.0489509
0.381048 0.603189 0.0576486
0.400458 0.608164 0.0682383
0.421271 0.61294 0.0818952
0.440833 0.616602 0.0981918
0.460746 0.620554 0.11194
0.481712 0.624643 0.124468
0.503227 0.628321 0.138079
0.524788 0.633188 0.143328
0.544976 0.638941 0.142809
0.563149 0.645182 0.143374
0.580591 0.651835 0.14786
0.59913 0.659861 0.151125
0.617777 0.669245 0.156527
0.638468 0.679561 0.160678
0.668177 0.689296 0.138964
0.697795 0.700298 0.108721
0.728222 0.71223 0.0648356
0.75903 0.725017 0.0154421
0.791089 0.738277 0
0.825376 0.750729 0
0.866621 0.75668 0.014435
0.910613 0.764279 0.103105
0.960815 0.774548 0.195651
0.21001 0.596582 0.0144045
0.230549 0.599878 0.016556
0.249622 0.603479 0.0177615
0.268925 0.607126 0.0200656
0.289128 0.6112 0.0238956
0.308507 0.614588 0.0337987
0.326284 0.618112 0.0431373
0.346349 0.622019 0.0534981
0.365484 0.627207 0.0617685
0.383352 0.63267 0.0691081
0.401938 0.638086 0.0760052
0.422049 0.64416 0.0831464
0.442649 0.649256 0.0958114
0.462806 0.653437 0.110521
0.483009 0.657511 0.125475
0.503532 0.661006 0.142138
0.524773 0.664164 0.158709
0.546258 0.667338 0.174533
0.565637 0.673777 0.172961
0.584482 0.680659 0.17258
0.602853 0.687572 0.174319
0.62063 0.695293 0.17995
0.637644 0.703182 0.18996
0.657496 0.713954 0.200092
0.680262 0.724453 0.199969
0.710307 0.735164 0.18735
0.741039 0.746212 0.171649
0.773007 0.758648 0.149065
0.805646 0.771954 0.121294
0.839323 0.785672 0.0873274
0.875563 0.798764 0.0799573
0.919005 0.806378 0.164034
0.966293 0.815976 0.238972
0.231357 0.632929 0.0203403
0.25008 0.635904 0.0256657
0.269184 0.639216 0.0308843
0.289174 0.642969 0.035996
0.30898 0.646937 0.0408637
0.329076 0.651286 0.0451362
0.349065 0.655543 0.0506752
0.370428 0.66009 0.0561685
0.388754 0.665675 0.0642252
