subtle niceties LUT V2 beta 6 (SSH-TS reimagined).cube
TITLE "Generated by Resolve"
LUT_3D_SIZE 5
0.00817884 0.00727855 0.0100862
0.111315 0.02121 0.0148775
0.251972 0.0265049 0.0371862
0.441688 0.0520485 0.095201
0.847333 0.162692 0.259846
0.0198978 0.135729 0.0237888
0.159762 0.148852 0.0121767
0.312261 0.147402 0.0179294
0.486061 0.183642 0.0830549
0.892912 0.270253 0.237919
0 0.30869 0.0416876
0.181537 0.32636 0.0324712
0.386267 0.34226 0
0.594003 0.359365 3.0518e-05
0.947082 0.462959 0.222034
0 0.55433 0.0819867
0.228916 0.563638 0.181872
0.443198 0.606119 0.0592355
0.685573 0.644678 0.108339
1 0.676616 0.259098
0.306538 0.958862 0.347478
0.514199 0.977401 0.398581
0.690608 1 0.423056
0.901823 1 0.595422
1 1 0.656535
0.0361791 0.0400244 0.133486
0.142565 0.039704 0.150179
0.272801 0.049012 0.161379
0.465385 0.0607156 0.186236
0.867109 0.170657 0.325399
0.0519112 0.161181 0.147616
0.17882 0.177523 0.160861
0.352544 0.173373 0.158984
0.519966 0.211566 0.170428
0.91104 0.311482 0.27776
0 0.339162 0.149676
0.211032 0.365942 0.145068
0.439628 0.373465 0.160983
0.644114 0.386358 0.198093
0.987625 0.483909 0.322942
0 0.581842 0.138888
0.256397 0.604898 0.223835
0.466865 0.647562 0.25388
0.736324 0.68043 0.284291
1 0.731609 0.483146
0.294026 0.995514 0.377798
0.545815 1 0.415259
0.763317 1 0.52163
0.921447 1 0.723369
0.984146 1 0.818158
0.0945449 0.106325 0.287312
0.180316 0.10869 0.298131
0.314611 0.0868849 0.329473
0.489708 0.108919 0.357076
0.903319 0.175463 0.435798
0.114733 0.196048 0.312169
0.220508 0.210193 0.3205
0.343145 0.237736 0.354116
0.545495 0.251942 0.386557
0.971252 0.31725 0.380362
0.0994888 0.36878 0.336873
0.256596 0.38378 0.380713
0.425162 0.422339 0.394247
0.667002 0.436088 0.423789
1 0.517845 0.45716
0 0.619867 0.338903
0.17641 0.662623 0.380926
0.518563 0.685359 0.441093
0.76524 0.729137 0.463478
1 0.793927 0.637003
0.244404 1 0.438575
0.604334 1 0.542367
0.847944 1 0.731304
0.992737 1 0.914168
0.985367 0.996017 0.961013
0.202716 0.208804 0.514015
0.250904 0.193652 0.531273
0.370687 0.199435 0.536843
0.55819 0.164569 0.584161
0.962478 0.280354 0.677989
0.207889 0.269535 0.541787
0.284825 0.282429 0.543572
0.401022 0.305592 0.557244
0.588037 0.316747 0.609583
0.972824 0.403388 0.680385
0.20415 0.416831 0.562661
0.322591 0.434989 0.576364
0.474098 0.461067 0.60412
0.643473 0.516045 0.655253
1 0.583749 0.714046
0.199069 0.652964 0.598901
0.383261 0.675868 0.6439
0.549493 0.710552 0.700267
0.76849 0.766903 0.718135
1 0.847456 0.831891
0.330159 1 0.66067
0.653101 1 0.740047
0.94342 1 0.833844
0.985367 0.996017 0.961013
0.985367 0.996017 0.961013
0.5561 0.517968 1
0.561654 0.482292 1
0.612329 0.4654 1
0.74168 0.448295 1
0.985962 0.413504 1
0.522881 0.545449 1
0.535683 0.518959 1
0.583871 0.490974 1
0.721447 0.511498 1
0.983063 0.523445 1
0.475502 0.589822 1
0.515755 0.585779 1
0.603494 0.594049 1
0.739406 0.633158 1
0.973816 0.722728 1
0.417227 0.743877 1
0.519738 0.754574 1
0.658457 0.776349 1
0.827253 0.814725 1
0.984543 0.927794 0.97644
0.679744 1 0.98999
0.809659 1 1
0.985534 0.997299 0.956008
0.985367 0.996017 0.961013
0.985367 0.996017 0.961013
