subtle niceties LUT V2 beta 7 (SSH-TS reimagined).cube
TITLE "Generated by Resolve"
LUT_3D_SIZE 5
0.0131228 0.0118563 0.0171969
0.1178 0.0187991 0.0194247
0.236698 0.035462 0.0292058
0.406241 0.0718853 0.0552987
0.781826 0.185153 0.163165
0.0261845 0.128801 0.0334936
0.145983 0.139956 0.0246738
0.293065 0.132006 0.0252079
0.45185 0.155642 0.0778821
0.815091 0.256336 0.178241
0.00560006 0.283803 0.0451514
0.164828 0.299184 0.042649
0.348226 0.311498 0.00416571
0.537942 0.318349 0
0.875807 0.378653 0.193912
0 0.505257 0.0757458
0.188281 0.510094 0.161105
0.380621 0.544259 0.0348058
0.619974 0.562264 0.0241398
0.979721 0.586496 0.151217
0 0.9131 0.227436
0.334844 0.907637 0.320302
0.543328 0.927504 0.343954
0.728054 0.959411 0.388296
0.978302 0.971527 0.653544
0.0396735 0.0417945 0.125261
0.132296 0.0519265 0.133883
0.26363 0.0471809 0.144594
0.440085 0.0462501 0.148928
0.812573 0.152743 0.209735
0.0576181 0.150286 0.139315
0.160708 0.160372 0.162844
0.312825 0.166079 0.155077
0.490822 0.159045 0.159426
0.843351 0.250584 0.22475
0 0.31339 0.139055
0.170321 0.329641 0.169772
0.357931 0.341482 0.201968
0.561761 0.351125 0.185855
0.920378 0.360601 0.30692
0 0.527764 0.128069
0.199619 0.540032 0.226993
0.396658 0.576303 0.213718
0.613809 0.604837 0.272633
0.986191 0.634638 0.322881
0 0.930632 0.263416
0.337209 0.935317 0.384253
0.553948 0.957092 0.447059
0.76318 0.985443 0.499641
0.967956 1 0.749859
0.0916762 0.103532 0.267201
0.16733 0.106874 0.277394
0.284825 0.119081 0.289235
0.450935 0.108202 0.328939
0.849424 0.116075 0.361044
0.113405 0.186694 0.280934
0.20029 0.19443 0.294362
0.33106 0.201724 0.327733
0.490211 0.239963 0.337697
0.901305 0.223468 0.3364
0.100893 0.338155 0.310216
0.231342 0.347204 0.345052
0.372686 0.372427 0.377981
0.583383 0.39588 0.373175
0.960098 0.405936 0.404166
0 0.563149 0.297841
0.15314 0.586114 0.368307
0.362921 0.623972 0.402609
0.650111 0.640162 0.45127
0.998947 0.677638 0.52781
0 0.973373 0.359762
0.256397 0.983032 0.46598
0.564935 0.995529 0.554879
0.755062 1 0.655024
0.895674 0.99968 1
0.18323 0.197177 0.467536
0.229877 0.185718 0.484443
0.345892 0.190112 0.488426
0.497444 0.21236 0.507729
0.893599 0.231266 0.609415
0.19498 0.252674 0.488914
0.261372 0.258885 0.496498
0.362737 0.277668 0.511177
0.530007 0.304662 0.53608
0.919463 0.311955 0.591867
0.193332 0.38265 0.511147
0.292882 0.398047 0.516426
0.415305 0.415503 0.549859
0.608438 0.432349 0.600427
0.957931 0.50248 0.624949
0.170977 0.593179 0.542885
0.322515 0.609934 0.576928
0.482597 0.640436 0.60647
0.670039 0.669886 0.680949
1 0.73547 0.69723
0.0512551 0.99501 0.581888
0.305547 1 0.657237
0.567803 1 0.77258
0.818448 1 0.855161
0.913954 0.996384 1
0.469352 0.482948 1
0.486229 0.445884 1
0.535729 0.410452 1
0.666178 0.423423 0.981704
0.958358 0.463554 0.991302
0.449744 0.509026 0.999924
0.471656 0.486427 0.985199
0.523095 0.45623 0.989715
0.651469 0.469749 0.971801
0.948531 0.537392 0.974029
0.428412 0.553292 1
0.467247 0.545357 0.987549
0.547784 0.540536 0.978271
0.66305 0.564721 0.980163
0.975875 0.637079 0.985809
0.389654 0.687602 1
0.471183 0.694133 0.983307
0.593317 0.714839 0.96759
0.743648 0.737575 0.981628
0.994797 0.808164 0.996323
0.488594 0.995026 0.937621
0.630457 0.992844 0.963256
0.782254 1 0.9691
0.913359 0.998322 1
0.913954 0.996384 1
