subtle niceties LUT V2 beta 4 (SSH-TS reimagined).cube
TITLE "Generated by Resolve"
LUT_3D_SIZE 9
0.00802625 0.00720226 0.00813306
0.0640879 0.0124819 0.0111849
0.124849 0.0177462 0.0143587
0.193774 0.0231174 0.0180209
0.27042 0.0294957 0.0250095
0.357733 0.0444495 0.037583
0.464851 0.0714275 0.0596933
0.612177 0.111666 0.102693
0.924498 0.191363 0.200885
0.0321813 0.0666514 0.0220493
0.0769665 0.0741894 0.0179446
0.135119 0.0764324 0.0166171
0.199451 0.0783246 0.0203403
0.274067 0.0779889 0.0279088
0.366674 0.0751812 0.0378729
0.486397 0.0875105 0.0573434
0.637385 0.127703 0.10248
0.940993 0.203571 0.200748
0.0451209 0.133028 0.0271763
0.0915847 0.140658 0.0207065
0.148547 0.14548 0.0124514
0.213993 0.146807 0.00480659
0.288228 0.151049 0.0117952
0.380011 0.15906 0.0290532
0.500038 0.172213 0.0638437
0.660502 0.193347 0.110079
0.951736 0.289769 0.219074
0.0597848 0.206134 0.0474708
0.10428 0.212589 0.035172
0.162234 0.221363 0.016495
0.234607 0.229984 0.00122072
0.316762 0.239124 0
0.409522 0.253773 0.000854505
0.52781 0.27628 0.0339971
0.680842 0.31014 0.100237
0.952361 0.403021 0.23415
0.0934005 0.290227 0.0852827
0.124086 0.300237 0.0780041
0.188693 0.313756 0.0563058
0.26566 0.330098 0.0231022
0.35346 0.346593 0.00198367
0.452689 0.36437 0
0.569451 0.39089 0.00637827
0.713802 0.429404 0.0700084
0.955856 0.518654 0.22681
0.146807 0.398901 0.136904
0.163088 0.411521 0.13817
0.232441 0.429053 0.117922
0.314733 0.449546 0.0818189
0.403449 0.472511 0.0313726
0.50454 0.495552 0.0157931
0.623148 0.523095 0.0194247
0.759441 0.561212 0.0989242
0.973907 0.641459 0.280125
0.217105 0.541299 0.204364
0.230106 0.555627 0.208347
0.303075 0.575723 0.188815
0.38883 0.597787 0.157931
0.479606 0.622171 0.108415
0.575936 0.649653 0.0851453
0.688441 0.678187 0.169162
0.816739 0.711009 0.258442
0.996902 0.773327 0.417716
0.303838 0.717021 0.287617
0.33225 0.732403 0.285191
0.412909 0.751446 0.261295
0.500008 0.771115 0.228428
0.588464 0.792493 0.21413
0.68014 0.815412 0.277272
0.775982 0.841428 0.373281
0.878218 0.865644 0.484047
1 0.891707 0.591913
0.574273 0.960891 0.356603
0.644343 0.966049 0.409384
0.706004 0.971176 0.468009
0.764508 0.976776 0.525307
0.817212 0.982345 0.578393
0.865339 0.987701 0.624857
0.903807 0.992386 0.654688
0.938048 0.996201 0.663447
0.998276 0.994171 0.655985
0.0286107 0.0220951 0.0793927
0.0843214 0.0246586 0.0824598
0.141299 0.0269017 0.0818494
0.20882 0.026978 0.0798962
0.285664 0.0276951 0.0777447
0.374365 0.0368811 0.0778515
0.48217 0.0559396 0.0848402
0.627482 0.0935683 0.122805
0.937697 0.173388 0.218936
0.0416876 0.0855726 0.074052
0.0932479 0.0901045 0.0789349
0.15169 0.0917678 0.0792554
0.217929 0.0874952 0.0726482
0.287327 0.0856336 0.0675517
0.37969 0.0762493 0.0700694
0.500282 0.069688 0.0849317
0.655085 0.108919 0.126116
0.956115 0.182467 0.222507
0.0798047 0.140963 0.0855726
0.119127 0.151003 0.0848249
0.164309 0.158572 0.0856489
0.229358 0.160388 0.0744945
0.301885 0.164553 0.0692302
0.392844 0.171847 0.0835889
0.5131 0.184192 0.115251
0.674022 0.202457 0.149569
0.96643 0.293446 0.249302
0.0860914 0.214328 0.0777905
0.133379 0.221607 0.0823072
0.184649 0.234012 0.0761425
0.251713 0.245747 0.0757916
0.333135 0.256031 0.0700542
0.425727 0.271443 0.0769665
0.543465 0.293355 0.111345
0.695201 0.326543 0.163821
0.959838 0.411063 0.274128
0.101152 0.299977 0.0924849
0.151934 0.312184 0.0817884
0.21474 0.327779 0.082063
0.287343 0.346883 0.0709392
0.372335 0.36527 0.0843671
0.471901 0.384482 0.0927596
0.588037 0.411322 0.118486
0.731106 0.449149 0.16997
0.966613 0.531487 0.287221
0.152728 0.41091 0.142596
0.18938 0.426368 0.136568
0.259876 0.445396 0.116762
0.340063 0.467445 0.101991
0.426764 0.492317 0.107027
0.52636 0.516823 0.143496
0.644587 0.54519 0.178408
0.779751 0.582666 0.235874
0.984298 0.658579 0.357885
0.224109 0.555505 0.211093
0.254276 0.572503 0.209064
0.331655 0.593317 0.18761
0.417578 0.616434 0.169802
0.506859 0.641779 0.176715
0.601526 0.670207 0.224338
0.711757 0.699397 0.298054
0.836957 0.732006 0.365393
1 0.790631 0.487343
0.311482 0.732494 0.294942
0.360693 0.74902 0.283894
0.443839 0.7682 0.258473
0.532036 0.788235 0.264073
0.620951 0.809293 0.317754
0.710063 0.832883 0.383429
0.801694 0.859312 0.463218
0.897124 0.883726 0.563577
1 0.905974 0.643153
0.600671 0.963806 0.410681
0.671138 0.969146 0.467063
0.732357 0.974533 0.519783
0.790265 0.98027 0.572671
0.841627 0.985946 0.621881
0.88687 0.991272 0.665568
0.92137 0.995789 0.69575
0.953628 0.999985 0.710185
0.998901 0.993896 0.719051
0.0555734 0.0378882 0.156588
0.109438 0.0400244 0.154101
0.160296 0.0399176 0.158938
0.221317 0.0391699 0.157443
0.29276 0.0372931 0.156329
0.379568 0.040238 0.156481
0.493446 0.0629282 0.160449
0.640085 0.0987411 0.180667
0.947753 0.178531 0.265095
0.0563058 0.10454 0.143374
0.112963 0.108064 0.140703
0.161898 0.112352 0.151354
0.233448 0.105409 0.151019
0.310994 0.0911116 0.142382
0.403037 0.0754559 0.141482
0.521447 0.0685283 0.151369
0.674006 0.106783 0.180117
0.965927 0.191928 0.269245
0.0681621 0.16643 0.148074
0.136309 0.165713 0.150851
0.178393 0.173709 0.156847
0.24387 0.178149 0.159747
0.328786 0.174716 0.155444
0.41593 0.181598 0.158709
0.532265 0.19501 0.167575
0.690044 0.21529 0.194324
0.979202 0.297581 0.283162
0.110384 0.226581 0.154849
0.167941 0.231632 0.161608
0.212482 0.246815 0.166812
0.270359 0.263005 0.179232
0.356008 0.273671 0.177768
0.447776 0.289494 0.182483
0.563638 0.311009 0.198123
0.712581 0.34342 0.230381
0.969665 0.422629 0.320394
0.144381 0.308659 0.161486
0.190784 0.323583 0.17116
0.249836 0.34107 0.182391
0.315404 0.363699 0.188769
0.395819 0.384512 0.206287
0.495171 0.404562 0.215412
0.610712 0.43151 0.234607
0.751751 0.468605 0.269886
0.979889 0.547845 0.360555
0.167041 0.423301 0.171527
0.225925 0.440421 0.184512
0.297368 0.459922 0.203555
0.372335 0.484535 0.218921
0.453849 0.511498 0.232776
0.550301 0.537682 0.266682
0.66862 0.565774 0.294133
0.800763 0.603494 0.336706
0.996353 0.677455 0.432807
0.232105 0.57023 0.220111
0.286687 0.588678 0.222126
0.367514 0.609735 0.238834
0.450828 0.633509 0.267933
0.537423 0.660258 0.296986
0.628519 0.690028 0.333974
0.73518 0.71957 0.396094
0.857786 0.75201 0.453071
1 0.808835 0.552636
0.31899 0.746365 0.301198
0.392767 0.765118 0.2925
0.479805 0.783307 0.315785
0.567452 0.803326 0.36437
0.653544 0.825147 0.413199
0.739651 0.849363 0.467796
0.8271 0.876204 0.539788
0.911803 0.901289 0.636881
1 0.923888 0.697383
0.627573 0.965972 0.469078
0.697551 0.971847 0.518669
0.758389 0.977523 0.567132
0.815778 0.983474 0.615824
0.866621 0.989258 0.662272
0.9075 0.99443 0.707301
0.93991 0.998184 0.737072
0.976364 1 0.77615
0.995102 0.995666 0.791501
0.0959182 0.059678 0.240833
0.142763 0.0617533 0.238056
0.186908 0.0624399 0.239078
0.243702 0.0580148 0.243793
0.310506 0.0535286 0.242023
0.39173 0.049424 0.239811
0.507469 0.0662852 0.248356
0.655772 0.107301 0.262333
0.959655 0.186679 0.334813
0.0918746 0.126528 0.229389
0.142794 0.129671 0.224796
0.189075 0.131792 0.229679
0.246937 0.130404 0.239765
0.320012 0.124819 0.239094
0.411307 0.116884 0.239719
0.531136 0.109636 0.248661
0.689509 0.117037 0.269474
0.977432 0.191928 0.338674
0.0862593 0.187213 0.228733
0.146731 0.18819 0.225818
0.198993 0.192889 0.225956
0.256916 0.20061 0.239765
0.344762 0.198993 0.245563
0.44622 0.195087 0.247013
0.572457 0.191272 0.247547
0.728634 0.202655 0.260029
0.991958 0.286503 0.328466
0.0862593 0.256184 0.230579
0.165057 0.259068 0.237064
0.234836 0.265003 0.245045
0.290105 0.283192 0.260334
0.370871 0.29868 0.272602
0.476921 0.3075 0.280705
0.598352 0.322866 0.292241
0.742962 0.354711 0.319005
0.990677 0.431601 0.387594
0.146395 0.332174 0.244038
0.219715 0.341588 0.259922
0.287785 0.356207 0.273365
0.34609 0.38204 0.287297
0.41651 0.406806 0.312291
0.523888 0.425681 0.320195
0.640558 0.45182 0.337545
0.77937 0.487907 0.367132
0.998276 0.564508 0.440436
0.200534 0.438788 0.26627
0.282521 0.452781 0.289097
0.339193 0.476036 0.305379
0.409735 0.502419 0.323781
0.485115 0.532448 0.341512
0.575128 0.56025 0.375601
0.696956 0.587182 0.397253
0.826612 0.624582 0.433326
1 0.697353 0.51104
0.26949 0.582086 0.297642
0.33846 0.603387 0.323522
0.411292 0.625834 0.349538
0.490394 0.651057 0.375937
0.571374 0.67985 0.400687
0.658167 0.710964 0.43299
0.758572 0.741283 0.491859
0.881209 0.772366 0.538796
1 0.82829 0.621912
0.352636 0.760876 0.345983
0.440452 0.779156 0.384482
0.523018 0.798032 0.421683
0.606104 0.818814 0.461006
0.688853 0.841428 0.502724
0.771649 0.86595 0.550546
0.851331 0.893217 0.622126
0.928603 0.919203 0.709041
1 0.94345 0.756863
0.661143 0.967971 0.532647
0.728023 0.97438 0.574014
0.78735 0.980453 0.617426
0.844007 0.986755 0.662074
0.891585 0.992508 0.708644
0.930648 0.996887 0.752621
0.967117 1 0.799725
0.990082 0.998047 0.862882
0.989334 0.997879 0.88278
0.146731 0.0902876 0.333852
0.184115 0.0918135 0.33196
0.222278 0.0924392 0.331777
0.27274 0.0898299 0.333455
0.335744 0.0804303 0.33756
0.414359 0.0729076 0.336873
0.529793 0.0868544 0.347295
0.69247 0.116091 0.377096
0.968032 0.192874 0.42179
0.14139 0.151263 0.328939
0.182681 0.154101 0.32488
0.22446 0.155138 0.325872
0.277333 0.153658 0.330343
0.344671 0.149325 0.340764
0.430808 0.148409 0.34374
0.547829 0.152392 0.351843
0.706035 0.161563 0.372457
0.978683 0.219043 0.430976
0.134783 0.208453 0.325734
0.18024 0.210636 0.319921
0.229816 0.215808 0.31783
0.28716 0.222736 0.328023
0.358801 0.230137 0.346593
0.455924 0.235126 0.355901
0.58056 0.240284 0.363653
0.742046 0.247868 0.374914
0.987182 0.292088 0.426429
0.109743 0.279255 0.325414
0.176608 0.284749 0.327504
0.246296 0.293233 0.329381
0.314534 0.3075 0.338827
0.38909 0.325292 0.36228
0.495415 0.336599 0.377707
0.634455 0.339513 0.38883
0.790509 0.356619 0.402884
1 0.425605 0.458701
0.113268 0.367468 0.333013
0.204807 0.377172 0.345769
0.293904 0.386938 0.358877
0.377234 0.40209 0.375769
0.440238 0.431296 0.399619
0.537682 0.455497 0.420035
0.663691 0.478279 0.44004
0.819715 0.500511 0.460365
1 0.578836 0.523354
0.199481 0.467414 0.359472
0.290639 0.48072 0.381353
0.370413 0.49778 0.400153
0.447135 0.521355 0.419638
0.51545 0.553964 0.440574
0.597375 0.584772 0.476646
0.718257 0.613108 0.497688
0.857237 0.644892 0.525139
1 0.716197 0.591134
0.293034 0.603525 0.403494
0.394949 0.617227 0.435325
0.463951 0.640711 0.453193
0.530663 0.669581 0.47396
0.606302 0.699596 0.498756
0.685695 0.732341 0.53106
0.778943 0.764126 0.584909
0.895644 0.796857 0.62678
1 0.853941 0.697475
0.429023 0.770047 0.462852
0.498527 0.791333 0.490791
0.569665 0.812238 0.519783
0.646464 0.834058 0.552605
0.724697 0.857588 0.587747
0.801129 0.883162 0.633249
0.875395 0.910567 0.698741
0.946883 0.937346 0.776455
0.99884 0.963821 0.815763
0.697459 0.969497 0.598337
0.761105 0.976654 0.63357
0.818036 0.983307 0.670054
0.871794 0.989792 0.712673
0.916899 0.99501 0.757519
0.956939 0.999054 0.806714
0.989487 0.999466 0.880293
0.99089 0.998947 0.947219
0.99089 0.998947 0.947219
0.207843 0.131792 0.444022
0.236393 0.13135 0.442084
0.26862 0.131441 0.441566
0.312947 0.12932 0.441917
0.370398 0.123537 0.444022
0.448035 0.11516 0.451606
0.56025 0.121218 0.464317
0.726314 0.159686 0.498573
0.976532 0.210529 0.545022
0.203815 0.181735 0.445991
0.235447 0.183536 0.442512
0.271153 0.183886 0.441749
0.318715 0.183108 0.442863
0.380758 0.182147 0.448661
0.462898 0.180163 0.461631
0.574578 0.188159 0.471626
0.734051 0.217868 0.494789
0.979706 0.259373 0.539223
0.194583 0.234409 0.444114
0.22977 0.237552 0.438697
0.274205 0.24332 0.436561
0.328695 0.249973 0.441581
0.396658 0.258412 0.453391
0.483513 0.267582 0.47425
0.600244 0.281392 0.488014
0.756207 0.302174 0.501259
0.988663 0.341665 0.544198
0.176623 0.303716 0.441886
0.226413 0.311192 0.441352
0.283986 0.321004 0.440314
0.350942 0.336049 0.444343
0.423133 0.353002 0.462928
0.511284 0.372549 0.491066
0.63975 0.388556 0.509483
0.796078 0.409949 0.528008
1 0.460166 0.572595
0.136858 0.396643 0.448615
0.218006 0.408301 0.455695
0.302251 0.420722 0.462287
0.387366 0.437308 0.471443
0.468254 0.45951 0.489662
0.559518 0.48542 0.519646
0.686442 0.508675 0.542885
0.850843 0.524956 0.562951
1 0.579095 0.606241
0.163897 0.508064 0.463554
0.267918 0.522393 0.480308
0.367971 0.536004 0.497185
0.464408 0.552254 0.516854
0.557504 0.575799 0.531868
0.622995 0.611582 0.569375
0.73547 0.643168 0.596231
0.865278 0.678752 0.626566
1 0.747265 0.681941
0.292836 0.637125 0.504128
0.393668 0.651896 0.529335
0.483391 0.668162 0.553506
0.581445 0.684062 0.581643
0.642405 0.719783 0.595834
0.715785 0.754482 0.623743
0.801617 0.787991 0.672618
0.90956 0.822492 0.710399
1 0.88304 0.772686
0.442496 0.794553 0.566308
0.54493 0.806973 0.597452
0.62948 0.822797 0.622156
0.690867 0.848722 0.645563
0.759945 0.873793 0.674754
0.831739 0.89984 0.713191
0.901579 0.927581 0.771756
0.966888 0.955673 0.839124
0.991287 0.985809 0.872648
0.737194 0.970397 0.667735
0.796353 0.978576 0.696239
0.849638 0.985809 0.728923
0.900175 0.99234 0.766262
0.94345 0.997345 0.808347
0.98291 0.999939 0.878828
0.99089 0.998947 0.947219
0.99089 0.998947 0.947219
0.99089 0.998947 0.947219
0.296681 0.198642 0.596414
0.314717 0.193378 0.591104
0.340322 0.190021 0.58854
0.377798 0.186984 0.587503
0.429145 0.183474 0.589059
0.50193 0.180911 0.596155
0.610178 0.179446 0.615412
0.764828 0.205203 0.644358
0.985779 0.304173 0.720409
0.291905 0.233219 0.599802
0.311528 0.229358 0.59321
0.338735 0.226703 0.589837
0.379553 0.225666 0.588968
0.435325 0.226688 0.591959
0.511421 0.229267 0.600626
0.619135 0.234867 0.62034
0.767681 0.262425 0.64094
0.986175 0.332296 0.690364
0.281209 0.277104 0.600687
0.305104 0.275914 0.594141
0.340322 0.280018 0.590112
0.388403 0.286381 0.591241
0.450675 0.295506 0.596704
0.530663 0.30695 0.608957
0.63856 0.321202 0.632105
0.782864 0.350164 0.650828
0.992477 0.408072 0.687694
0.264118 0.342565 0.600061
0.297704 0.346532 0.594736
0.343984 0.356741 0.590555
0.404761 0.371511 0.590845
0.47361 0.387549 0.600275
0.557336 0.406928 0.61796
0.664744 0.431922 0.647288
0.810666 0.461845 0.667918
1 0.521553 0.70489
0.23946 0.432227 0.60206
0.292149 0.440696 0.600717
0.356863 0.454124 0.601984
0.431403 0.471275 0.603632
0.510765 0.493675 0.612467
0.596292 0.519112 0.636011
0.700587 0.550652 0.669627
0.845716 0.582361 0.691554
1 0.637476 0.729076
0.186069 0.549096 0.61149
0.279377 0.56083 0.618051
0.372076 0.57615 0.626703
0.470603 0.593576 0.635493
0.562676 0.61529 0.649042
0.653254 0.642771 0.671397
0.758801 0.675319 0.703075
0.886992 0.709819 0.728084
1 0.7794 0.775464
0.257069 0.684306 0.627558
0.369329 0.69807 0.644251
0.474998 0.712215 0.661677
0.577615 0.72755 0.680598
0.669932 0.747189 0.702037
0.753719 0.777905 0.716869
0.827054 0.813748 0.759701
0.924804 0.850401 0.791608
1 0.914321 0.843244
0.451438 0.827115 0.675273
0.555734 0.83827 0.700328
0.644404 0.850919 0.722576
0.735317 0.863676 0.748577
0.803525 0.888594 0.764294
0.865171 0.916945 0.790494
0.928115 0.944991 0.83859
0.978912 0.975387 0.893828
0.988144 0.997101 0.922103
0.78436 0.969512 0.747829
0.833875 0.979583 0.768429
0.881575 0.987808 0.792325
0.928466 0.994675 0.822568
0.974975 0.999619 0.876631
0.99089 0.998947 0.947219
0.99089 0.998947 0.947219
0.99089 0.998947 0.947219
0.99089 0.998947 0.947219
0.431449 0.30277 0.820203
0.442542 0.291356 0.809445
0.461402 0.283024 0.802594
0.490684 0.276402 0.798413
0.533898 0.271748 0.79762
0.59707 0.26952 0.80119
0.692439 0.27042 0.813107
0.829786 0.284733 0.836027
0.992004 0.361456 0.881575
0.421851 0.325933 0.81915
0.433082 0.313787 0.807645
0.452384 0.305669 0.799756
0.483665 0.301122 0.794934
0.529229 0.30016 0.793256
0.594598 0.302342 0.795773
0.690028 0.309239 0.805783
0.82623 0.325277 0.828977
0.992218 0.398733 0.860685
0.408423 0.359686 0.819776
0.424323 0.3505 0.807919
0.447578 0.346792 0.799558
0.483589 0.347219 0.794415
0.534264 0.352087 0.792523
0.603693 0.361913 0.794781
0.700557 0.377752 0.804898
0.832303 0.403098 0.82771
0.993652 0.47454 0.857145
0.390097 0.414557 0.818982
0.411444 0.408942 0.807889
0.44332 0.411154 0.798489
0.489067 0.420096 0.790616
0.547372 0.43331 0.788998
0.622858 0.452003 0.793072
0.720668 0.477211 0.80557
0.846571 0.511131 0.830686
0.999725 0.587335 0.855406
0.365026 0.492622 0.815442
0.397147 0.492653 0.804913
0.441123 0.500389 0.796109
0.500282 0.515267 0.788357
0.572519 0.536339 0.785245
0.652064 0.559747 0.792737
0.748806 0.590158 0.808713
0.86482 0.630213 0.835218
1 0.708431 0.857755
0.328817 0.597116 0.810452
0.383566 0.602579 0.803662
0.449012 0.614527 0.799878
0.525963 0.631968 0.798444
0.610498 0.652857 0.796872
0.696727 0.679408 0.802289
0.789395 0.71165 0.820752
0.893751 0.753307 0.843717
1 0.82707 0.867491
0.268544 0.733471 0.807645
0.36936 0.74342 0.809415
0.469276 0.757198 0.813214
0.57322 0.772625 0.815702
0.670329 0.790249 0.821012
0.762432 0.812116 0.830777
0.851148 0.841703 0.84802
0.941802 0.878218 0.867811
0.995621 0.943191 0.901167
0.433616 0.87129 0.804654
0.539986 0.881804 0.818524
0.643412 0.889769 0.829618
0.74136 0.8981 0.842588
0.825605 0.910964 0.855711
0.902602 0.932097 0.86154
0.951843 0.962234 0.892454
0.985458 0.993759 0.927871
0.99089 0.998947 0.947219
0.830335 0.968215 0.839933
0.879576 0.977356 0.845838
0.913115 0.988022 0.858366
0.953933 0.996124 0.882628
0.98938 0.999619 0.940932
0.99089 0.998947 0.947219
0.99089 0.998947 0.947219
0.99089 0.998947 0.947219
0.99089 0.998947 0.947219
0.760128 0.624811 1
0.7682 0.590051 1
0.779355 0.562814 1
0.795575 0.539712 1
0.819089 0.521187 1
0.854551 0.506767 1
0.907423 0.494514 1
0.982849 0.488655 1
0.990051 0.51107 1
0.729503 0.622553 1
0.735821 0.584497 1
0.744991 0.556466 1
0.760967 0.533959 1
0.785382 0.517464 1
0.820005 0.502968 1
0.877043 0.494087 1
0.965774 0.494896 1
0.989761 0.537072 1
0.697795 0.624872 1
0.705226 0.587564 1
0.716609 0.561929 1
0.734966 0.543282 1
0.762036 0.530007 1
0.801343 0.520638 1
0.863554 0.519127 1
0.956405 0.530449 1
0.989273 0.594644 1
0.661967 0.635966 1
0.675456 0.605768 1
0.691142 0.585519 1
0.714504 0.573251 1
0.745815 0.566552 1
0.790784 0.566155 1
0.857542 0.576349 1
0.950515 0.601968 1
0.987976 0.682857 1
0.622492 0.666773 1
0.641306 0.643046 1
0.665003 0.631922 1
0.697307 0.630671 1
0.733471 0.632746 1
0.784176 0.64387 1
0.855146 0.666392 1
0.9449 0.702373 1
0.986633 0.784649 1
0.576623 0.72401 1
0.602777 0.712428 1
0.635599 0.710872 1
0.674525 0.714488 1
0.725902 0.726177 1
0.790158 0.746975 1
0.863493 0.772946 1
0.943206 0.809934 1
0.985107 0.885588 0.992401
0.522499 0.816815 1
0.561669 0.815747 1
0.610132 0.819806 1
0.67158 0.829282 1
0.740673 0.842756 1
0.815549 0.860639 1
0.89131 0.884565 0.996445
0.95668 0.917739 0.966918
0.98677 0.975296 0.955978
0.493889 0.933715 1
0.570413 0.937789 1
0.646433 0.943236 1
0.734401 0.948714 1
0.816693 0.955962 1
0.892164 0.96611 0.975296
0.976989 0.979919 0.940383
0.989822 0.998459 0.940444
0.99089 0.998947 0.947219
0.831205 0.992355 0.959777
0.87451 0.991592 0.960449
0.910719 0.991897 0.964202
0.95996 0.991318 0.958511
0.989731 0.999451 0.946563
0.99089 0.998947 0.947219
0.99089 0.998947 0.947219
0.99089 0.998947 0.947219
0.99089 0.998947 0.947219
