subtle niceties LUT V2 beta 5 (SSH-TS reimagined).cube
TITLE "Generated by Resolve"
LUT_3D_SIZE 9
0.00840772 0.00694286 0.00840772
0.0613413 0.0139315 0.0121767
0.124636 0.0182498 0.0135805
0.195499 0.0216983 0.0148165
0.272786 0.0264439 0.0196689
0.360662 0.0393835 0.0291295
0.468467 0.0633249 0.0462501
0.616739 0.10013 0.0808118
0.931258 0.173419 0.169131
0.0158999 0.0724651 0.0198978
0.0691844 0.0788434 0.0132296
0.131884 0.0777447 0.0193484
0.198077 0.0802167 0.0192721
0.275273 0.0770733 0.0245365
0.369558 0.0702068 0.0305943
0.490211 0.0780499 0.043946
0.642115 0.116091 0.0801099
0.947753 0.186221 0.168856
0.0153811 0.140063 0.0234379
0.0779126 0.142901 0.025803
0.140795 0.147829 0.0162509
0.210971 0.148058 0.00827039
0.289265 0.149844 0.0126497
0.383108 0.155138 0.026627
0.503502 0.167376 0.0545052
0.665171 0.185214 0.0916152
0.95758 0.280522 0.192828
0 0.217227 0.0343786
0.0756085 0.216342 0.0416114
0.151034 0.222599 0.0284276
0.232334 0.228534 0.0178225
0.31342 0.240085 0.00271611
0.411933 0.25095 0.00614939
0.532387 0.270832 0.0347143
0.684962 0.30518 0.0913558
0.954284 0.403326 0.216281
0 0.305867 0.057023
0.0357214 0.311467 0.0663767
0.16556 0.315877 0.0783093
0.251331 0.332097 0.0439307
0.350591 0.344518 0.0348211
0.450355 0.363699 0.0101167
0.56643 0.39263 0.0126192
0.714504 0.428428 0.0732433
0.951385 0.525414 0.216541
0 0.418967 0.0977951
0 0.430167 0.105653
0.170077 0.437598 0.125933
0.292332 0.451301 0.120592
0.384268 0.475929 0.0660258
0.498726 0.493858 0.0745403
0.619837 0.521385 0.071931
0.750805 0.565118 0.124804
0.96434 0.648188 0.288975
0 0.567117 0.15407
0 0.580865 0.161456
0.192889 0.590295 0.184909
0.351202 0.601053 0.200626
0.453681 0.624796 0.162417
0.543709 0.657801 0.12134
0.659663 0.68809 0.188556
0.792248 0.717281 0.306157
0.964767 0.781918 0.476112
0 0.749905 0.223529
0 0.761913 0.235508
0.282414 0.768917 0.2598
0.446143 0.776715 0.275364
0.547463 0.797238 0.268055
0.627008 0.828031 0.299107
0.723308 0.862028 0.349157
0.843427 0.894118 0.389853
0.978439 0.911376 0.580957
0.439048 0.980346 0.365927
0.519768 0.987213 0.420523
0.57911 0.996353 0.475181
0.654108 1 0.537865
0.721355 1 0.594995
0.781781 1 0.639796
0.832105 1 0.658473
0.886595 1 0.654063
0.966949 1 0.567895
0.0269322 0.0246128 0.0757916
0.0912032 0.0187076 0.0864881
0.14316 0.0239414 0.0845502
0.21178 0.0231174 0.0788128
0.290028 0.0206912 0.0717479
0.3794 0.0266117 0.0660563
0.487892 0.0413672 0.0642863
0.632639 0.0781415 0.0995346
0.945129 0.15111 0.185595
0.029221 0.0865949 0.0819257
0.0899062 0.0891127 0.0855268
0.143664 0.0925154 0.0915694
0.205417 0.0970321 0.0824292
0.282185 0.0925917 0.071397
0.380606 0.0762798 0.063447
0.504448 0.059968 0.0668498
0.660197 0.0948196 0.102434
0.963561 0.160739 0.188815
0.0411841 0.149126 0.0869917
0.0930953 0.157473 0.0876936
0.157824 0.165331 0.0664378
0.217807 0.164416 0.0883497
0.296147 0.16846 0.0752422
0.391501 0.174563 0.0787213
0.513985 0.185321 0.104112
0.677745 0.198047 0.13138
0.972229 0.28542 0.222507
0 0.229725 0.0570382
0.0809491 0.23183 0.0773632
0.160754 0.239826 0.0815137
0.234546 0.255131 0.0573434
0.323995 0.258076 0.0932326
0.420813 0.274617 0.0829633
0.540108 0.297536 0.107668
0.693477 0.330861 0.153368
0.960586 0.413977 0.256214
0 0.31632 0.0623789
0.0855573 0.321386 0.0789502
0.187106 0.33138 0.102007
0.262242 0.353185 0.0812848
0.35111 0.373877 0.082948
0.463127 0.385916 0.123461
0.580682 0.415015 0.13257
0.725124 0.45449 0.171084
0.96199 0.538018 0.280324
0 0.431464 0.102541
0.0470588 0.442084 0.116579
0.212619 0.45156 0.135393
0.313451 0.47071 0.135134
0.393729 0.501411 0.118975
0.498238 0.528176 0.14226
0.628351 0.548684 0.219257
0.765301 0.587411 0.268818
0.966125 0.668269 0.383825
0 0.581888 0.159686
0.00621042 0.595422 0.172549
0.244907 0.605203 0.195468
0.382528 0.61912 0.216022
0.467475 0.649088 0.208072
0.555581 0.685145 0.22121
0.671977 0.720592 0.253376
0.800214 0.747066 0.382605
0.966232 0.804288 0.531945
0 0.766003 0.229633
0.0980545 0.775464 0.247517
0.339269 0.782544 0.270436
0.472023 0.795789 0.304906
0.561425 0.819623 0.351095
0.646693 0.849851 0.391943
0.754757 0.880858 0.428336
0.870512 0.912886 0.462776
0.984955 0.923949 0.633356
0.438117 0.989868 0.404059
0.518044 0.99826 0.461555
0.601404 1 0.522271
0.679652 1 0.582284
0.7458 1 0.635523
0.801846 1 0.684276
0.856306 1 0.718822
0.911391 1 0.726604
0.977432 1 0.689143
0.0502327 0.0454871 0.149813
0.109026 0.0400244 0.154391
0.167788 0.0295415 0.163409
0.226474 0.0292821 0.161303
0.298283 0.0269474 0.15552
0.384955 0.0280766 0.152193
0.499825 0.0453498 0.14992
0.647929 0.071809 0.161486
0.958831 0.140352 0.232136
0.0528267 0.107622 0.139361
0.112001 0.105379 0.146624
0.181155 0.0919661 0.164004
0.22977 0.103395 0.161105
0.30663 0.0957351 0.147036
0.406317 0.0687572 0.137285
0.528069 0.049485 0.137606
0.6822 0.0783703 0.157733
0.977386 0.154528 0.23444
0.0401312 0.170352 0.151888
0.115343 0.16849 0.160021
0.173373 0.172198 0.166506
0.231891 0.177462 0.180102
0.31397 0.182559 0.170657
0.400183 0.195941 0.172549
0.524941 0.205661 0.173037
0.68896 0.219913 0.187976
0.980972 0.298238 0.267323
0.0361486 0.236225 0.159564
0.116762 0.242542 0.163561
0.182528 0.253117 0.176913
0.265141 0.266773 0.172732
0.340749 0.278721 0.19205
0.429709 0.298009 0.202762
0.551354 0.320134 0.211231
0.705455 0.351995 0.233158
0.963729 0.432685 0.318456
0.00920119 0.325917 0.149477
0.0671855 0.344396 0.149508
0.190417 0.354788 0.179507
0.285466 0.372763 0.188983
0.379995 0.398688 0.159792
0.472328 0.413718 0.230701
0.591318 0.438254 0.267155
0.737072 0.477653 0.288029
0.965087 0.560678 0.373724
0 0.449134 0.120485
0.0499275 0.462531 0.154467
0.204654 0.477287 0.195071
0.320485 0.495232 0.231708
0.417533 0.523827 0.226398
0.523919 0.555932 0.214374
0.639063 0.577676 0.31191
0.773587 0.611856 0.380652
0.965347 0.691142 0.476036
0 0.597589 0.166705
0.0846571 0.610971 0.192813
0.261143 0.626749 0.235386
0.378073 0.646998 0.281621
0.480766 0.673106 0.312444
0.584863 0.706783 0.316838
0.705242 0.743572 0.31957
0.820371 0.771344 0.446143
0.973068 0.824338 0.586587
0 0.780301 0.235309
0.183185 0.790051 0.265385
0.351247 0.803632 0.313542
0.46305 0.823148 0.372473
0.572625 0.842054 0.433371
0.676417 0.867384 0.471962
0.78352 0.898711 0.500633
0.889921 0.92076 0.589364
0.980972 0.940444 0.688289
0.427024 1 0.444587
0.537697 1 0.508171
0.627115 1 0.567224
0.705821 1 0.62324
0.770733 1 0.676997
0.828367 1 0.742336
0.883452 1 0.777935
0.955077 0.996078 0.821881
0.978515 0.991897 0.826947
0.0854658 0.075227 0.231418
0.138338 0.0660258 0.236805
0.18822 0.0608682 0.239445
0.252171 0.0411536 0.248692
0.318959 0.0315404 0.247517
0.398993 0.0303807 0.239841
0.514488 0.0444038 0.244556
0.664012 0.0780957 0.25211
0.970977 0.147753 0.312261
0.0848402 0.136828 0.217548
0.142901 0.128573 0.226276
0.196765 0.124865 0.232792
0.264881 0.10486 0.250156
0.324788 0.112078 0.247211
0.41355 0.110063 0.242695
0.538613 0.0896315 0.243519
0.6981 0.0871748 0.257893
0.988952 0.152468 0.315221
0.0862745 0.190936 0.221057
0.132799 0.189456 0.231189
0.19884 0.190112 0.231846
0.277256 0.177584 0.259556
0.33872 0.194553 0.263828
0.432578 0.205402 0.259586
0.565957 0.200565 0.253712
0.729183 0.20293 0.256367
0.99176 0.289906 0.321828
0.0397192 0.263203 0.226871
0.127794 0.260578 0.253574
0.218463 0.267292 0.253239
0.282872 0.281102 0.273991
0.350561 0.296941 0.305379
0.458503 0.312505 0.304799
0.572198 0.340673 0.314961
0.718059 0.377966 0.341176
0.971954 0.45478 0.404364
0.0209812 0.346014 0.242313
0.135073 0.353262 0.271153
0.234562 0.367239 0.282765
0.310994 0.387152 0.308675
0.412055 0.404913 0.32517
0.502678 0.431159 0.341009
0.612345 0.463645 0.36321
0.747631 0.506127 0.396185
0.967758 0.58648 0.471946
0.00576791 0.45481 0.273701
0.131563 0.477012 0.277119
0.21001 0.504097 0.284016
0.33785 0.521126 0.321828
0.44596 0.544381 0.344762
0.558618 0.577401 0.325978
0.671717 0.598459 0.404471
0.790356 0.638697 0.466163
0.968399 0.718456 0.549722
0 0.612375 0.262791
0.0344701 0.639475 0.275395
0.243977 0.656748 0.322332
0.386709 0.674647 0.370245
0.505089 0.695689 0.413046
0.616739 0.728695 0.412818
0.736782 0.764309 0.421149
0.851942 0.787594 0.534356
0.988647 0.837934 0.661158
0 0.801892 0.269154
0.130068 0.818067 0.332067
0.332296 0.832395 0.392981
0.474983 0.847379 0.453193
0.595575 0.863737 0.511482
0.703563 0.885298 0.557549
0.813184 0.904875 0.630137
0.917266 0.919234 0.725597
0.984741 0.943664 0.787503
0.45333 1 0.504051
0.567163 1 0.561166
0.655909 1 0.615076
0.734722 1 0.668833
0.803403 1 0.740139
0.859449 1 0.804089
0.927108 0.996735 0.860136
0.967056 0.990753 0.911696
0.969909 0.991653 0.923156
0.133974 0.110094 0.324605
0.17586 0.100725 0.329641
0.219821 0.0975052 0.329793
0.275654 0.0856489 0.333883
0.345693 0.0538033 0.342992
0.426062 0.0322576 0.344076
0.53959 0.0513008 0.348013
0.701961 0.0780041 0.373495
0.979721 0.151492 0.408286
0.130388 0.16968 0.312612
0.178149 0.160998 0.319554
0.222812 0.155978 0.325978
0.281956 0.147204 0.333196
0.360372 0.119829 0.349981
0.441215 0.120897 0.35285
0.554376 0.134157 0.354864
0.716579 0.131121 0.367239
0.991196 0.180194 0.416617
0.126116 0.221942 0.307912
0.17319 0.217197 0.31313
0.228748 0.212665 0.323369
0.298985 0.211261 0.33518
0.386404 0.195377 0.36318
0.462898 0.217288 0.37116
0.575235 0.242298 0.372564
0.741497 0.24712 0.378042
0.992172 0.281971 0.420188
0.115602 0.284855 0.311574
0.173159 0.286061 0.326345
0.22237 0.292866 0.344976
0.315175 0.304738 0.344335
0.406424 0.301869 0.390173
0.482002 0.328038 0.414572
0.610391 0.350759 0.416144
0.763821 0.38265 0.424048
0.987778 0.458747 0.481437
0.0404669 0.377661 0.322148
0.144289 0.383505 0.354147
0.239612 0.388617 0.388815
0.363836 0.403845 0.383886
0.430686 0.428428 0.417899
0.507576 0.452018 0.468223
0.639094 0.481346 0.475593
0.789029 0.51487 0.494255
0.981292 0.609293 0.559243
0.00859083 0.485679 0.3514
0.159762 0.497215 0.390799
0.282139 0.511345 0.418616
0.390005 0.531762 0.439063
0.473747 0.557519 0.474861
0.586252 0.58085 0.503944
0.688594 0.61915 0.526467
0.824735 0.654093 0.561151
0.990829 0.732555 0.631189
0.0129549 0.625437 0.408194
0.233448 0.640192 0.442847
0.310048 0.672053 0.442222
0.405112 0.700435 0.463569
0.528572 0.718029 0.513405
0.641001 0.739773 0.560937
0.770565 0.765209 0.593576
0.86511 0.806836 0.64242
0.980438 0.86273 0.740505
0.0845045 0.806912 0.438422
0.215595 0.834516 0.452964
0.345357 0.856901 0.481544
0.491905 0.871305 0.533913
0.618402 0.88513 0.590906
0.725887 0.898314 0.66656
0.839582 0.910369 0.745571
0.926741 0.931426 0.82121
0.974197 0.95697 0.86865
0.485328 1 0.567132
0.597131 1 0.617548
0.685908 1 0.665522
0.772747 1 0.73666
0.837812 1 0.806073
0.898939 0.999985 0.870954
0.969696 0.993118 0.92166
0.979202 0.996689 0.965591
0.979202 0.996689 0.965591
0.192096 0.155077 0.434119
0.223682 0.144366 0.438865
0.26186 0.142092 0.438041
0.311788 0.134722 0.439231
0.374655 0.117174 0.444358
0.46006 0.0762188 0.457923
0.575814 0.0528115 0.473899
0.738872 0.112596 0.500923
0.989853 0.162585 0.539666
0.18909 0.208957 0.42649
0.222065 0.20116 0.432242
0.258412 0.191562 0.44123
0.313161 0.187457 0.442557
0.384131 0.175998 0.451026
0.478248 0.145159 0.470863
0.589868 0.142351 0.482872
0.743572 0.19028 0.499031
0.993439 0.221118 0.533135
0.18024 0.256001 0.423362
0.218799 0.253941 0.423484
0.272297 0.246693 0.433539
0.331716 0.247593 0.442451
0.408026 0.245243 0.459251
0.51017 0.226261 0.489723
0.614633 0.249104 0.504021
0.756786 0.294667 0.510155
0.991592 0.333349 0.547066
0.160449 0.320424 0.419837
0.21445 0.323964 0.425101
0.276158 0.325246 0.437415
0.34844 0.330388 0.45568
0.440589 0.335454 0.476585
0.555169 0.323384 0.517449
0.646403 0.366796 0.535927
0.780667 0.415381 0.549538
0.987533 0.482261 0.591699
0.150607 0.404562 0.42739
0.220569 0.411399 0.447898
0.286641 0.419547 0.47303
0.349126 0.434379 0.503288
0.469963 0.456474 0.495033
0.570947 0.461845 0.557305
0.661891 0.493736 0.60734
0.809903 0.536782 0.61268
1 0.607874 0.659373
0.0573129 0.521584 0.447181
0.181842 0.532723 0.483467
0.301762 0.538766 0.526146
0.39968 0.558618 0.547219
0.539651 0.577142 0.54641
0.610636 0.607813 0.593194
0.695476 0.636881 0.662303
0.832547 0.676768 0.682857
0.995209 0.754482 0.731655
0.0321355 0.660639 0.493919
0.221347 0.673198 0.538918
0.356207 0.685756 0.578302
0.511391 0.69543 0.607034
0.583932 0.727092 0.630106
0.668986 0.755993 0.670436
0.779782 0.781155 0.71986
0.869703 0.820325 0.770596
0.969421 0.882017 0.837674
0.167178 0.821698 0.576822
0.361822 0.833677 0.612863
0.475868 0.854322 0.625956
0.553994 0.88069 0.648768
0.660822 0.895796 0.696483
0.76257 0.908156 0.761639
0.862043 0.923003 0.831739
0.942397 0.948348 0.889311
0.968841 0.979034 0.918364
0.517555 1 0.633631
0.638682 1 0.686946
0.734569 1 0.745953
0.814755 1 0.808545
0.877592 1 0.869276
0.958343 0.994614 0.922194
0.979202 0.996689 0.965591
0.979202 0.996689 0.965591
0.979202 0.996689 0.965591
0.276127 0.227237 0.584619
0.295491 0.210788 0.587259
0.327611 0.206043 0.583932
0.371466 0.199878 0.582742
0.428611 0.189868 0.58555
0.507485 0.172595 0.59646
0.625696 0.129656 0.623575
0.786297 0.114794 0.657847
1 0.256229 0.728496
0.272099 0.271641 0.575799
0.288716 0.258457 0.579065
0.317388 0.240711 0.588235
0.368002 0.236988 0.586358
0.432074 0.231968 0.590112
0.516457 0.22089 0.602594
0.637018 0.189837 0.630838
0.78851 0.197543 0.655665
0.99794 0.298375 0.69778
0.262943 0.309957 0.575189
0.287236 0.306233 0.571496
0.326558 0.296956 0.579843
0.377432 0.292912 0.590661
0.447898 0.296696 0.597345
0.538735 0.294804 0.61413
0.665461 0.272145 0.647898
0.803754 0.301015 0.669596
0.996185 0.392859 0.699168
0.242924 0.368917 0.574121
0.281788 0.371878 0.568368
0.332586 0.372045 0.575769
0.40679 0.371145 0.590173
0.484154 0.380285 0.602594
0.579293 0.384558 0.628626
0.707546 0.375204 0.672648
0.829007 0.423606 0.69543
0.997772 0.520897 0.728008
0.212207 0.452811 0.575525
0.277943 0.459266 0.574136
0.340749 0.465797 0.58909
0.418311 0.472679 0.608865
0.507012 0.484749 0.631296
0.621256 0.494087 0.657725
0.759594 0.489387 0.707088
0.849454 0.553552 0.739696
1 0.640864 0.776608
0.20798 0.55967 0.582345
0.287434 0.566171 0.603296
0.367605 0.575402 0.630411
0.431724 0.590585 0.66453
0.524193 0.612268 0.68397
0.656077 0.639399 0.676677
0.759014 0.653941 0.750652
0.840558 0.687907 0.832181
0.948684 0.77673 0.881865
0.124712 0.701228 0.609415
0.258961 0.71136 0.647807
0.385504 0.717968 0.692119
0.485176 0.730388 0.73283
0.621103 0.754116 0.724743
0.729412 0.779477 0.737453
0.812192 0.809049 0.788846
0.883375 0.837674 0.872526
0.95436 0.90341 0.930449
0.198688 0.855207 0.674022
0.376074 0.861463 0.721447
0.502846 0.870039 0.757778
0.657099 0.875868 0.77821
0.743557 0.894377 0.804669
0.812665 0.920974 0.833082
0.903181 0.940993 0.877852
0.962539 0.970413 0.925963
0.975647 0.993118 0.946761
0.631785 1 0.755795
0.708247 1 0.785885
0.787884 1 0.828595
0.8607 1 0.876982
0.93611 0.997879 0.924361
0.979202 0.996689 0.965591
0.979202 0.996689 0.965591
0.979202 0.996689 0.965591
0.979202 0.996689 0.965591
0.40325 0.338354 0.805951
0.414984 0.313954 0.80499
0.440955 0.304768 0.797055
0.477272 0.296239 0.792157
0.527214 0.287633 0.791455
0.596918 0.277043 0.796796
0.699931 0.258747 0.813794
0.850721 0.222431 0.847395
1 0.236164 0.905364
0.394278 0.376318 0.790051
0.403998 0.349142 0.792569
0.42446 0.32604 0.796475
0.464805 0.319692 0.790509
0.518776 0.314885 0.788586
0.592248 0.309041 0.79266
0.696941 0.297917 0.807843
0.848875 0.26717 0.84213
1 0.305318 0.883955
0.383749 0.407141 0.787289
0.398932 0.395926 0.778546
0.420127 0.378943 0.783703
0.455116 0.363302 0.793759
0.516564 0.36492 0.791135
0.597299 0.367224 0.794415
0.706783 0.366171 0.809766
0.862226 0.343374 0.845426
1 0.397894 0.88423
0.365713 0.455238 0.785351
0.387366 0.450095 0.774121
0.423484 0.44332 0.773129
0.476493 0.434562 0.781399
0.540627 0.437308 0.788464
0.626673 0.447654 0.7953
0.739727 0.453925 0.815747
0.892088 0.443458 0.857053
1 0.527413 0.891066
0.333867 0.525795 0.782238
0.375265 0.526055 0.768582
0.422599 0.526558 0.768368
0.489387 0.527977 0.776089
0.572656 0.532616 0.790463
0.66598 0.547189 0.800992
0.780362 0.558053 0.828336
0.929992 0.554604 0.874617
1 0.659403 0.91516
0.288487 0.623301 0.77705
0.37052 0.62678 0.76611
0.426688 0.633295 0.775845
0.505669 0.641108 0.792309
0.589075 0.651057 0.813703
0.692439 0.669535 0.824613
0.820172 0.682933 0.847196
0.939467 0.698787 0.898756
0.983856 0.789288 0.975692
0.296132 0.74609 0.772152
0.381399 0.750027 0.790402
0.467033 0.756878 0.814939
0.539391 0.767056 0.846403
0.598123 0.783276 0.882094
0.732204 0.810575 0.859327
0.854627 0.838911 0.851453
0.913542 0.870771 0.916625
0.965637 0.934173 0.957443
0.294011 0.888975 0.800565
0.419562 0.893584 0.839643
0.541375 0.89305 0.878859
0.628214 0.905653 0.899809
0.777859 0.917678 0.87924
0.873793 0.93431 0.884886
0.936843 0.959136 0.917174
0.973831 0.990326 0.949828
0.979202 0.996689 0.965591
0.744549 0.981552 0.873243
0.813642 0.984131 0.888029
0.855756 0.992782 0.901335
0.909438 0.998581 0.921996
0.974182 0.997574 0.962509
0.979202 0.996689 0.965591
0.979202 0.996689 0.965591
0.979202 0.996689 0.965591
0.979202 0.996689 0.965591
0.760723 0.624552 1
0.765179 0.591409 1
0.774411 0.56527 1
0.790097 0.542489 1
0.814847 0.522759 1
0.854261 0.503807 1
0.915663 0.479332 1
1 0.448631 1
1 0.46685 1
0.72668 0.624811 1
0.728405 0.588891 1
0.735088 0.562478 1
0.750408 0.540749 1
0.776211 0.523537 1
0.814633 0.505913 1
0.880842 0.486137 1
0.983337 0.461631 1
1 0.49189 1
0.692256 0.629145 1
0.694789 0.593668 1
0.70396 0.56939 1
0.72221 0.551217 1
0.751156 0.537102 1
0.794629 0.524575 1
0.865507 0.513497 1
0.975204 0.498817 1
1 0.547494 1
0.649042 0.654414 1
0.667872 0.618204 1
0.678813 0.592523 1
0.70312 0.579919 1
0.73727 0.571633 1
0.787625 0.567132 1
0.864271 0.567117 1
0.975204 0.568551 1
1 0.633677 1
0.601602 0.694667 1
0.623819 0.66717 1
0.65304 0.649332 1
0.693507 0.636271 1
0.732525 0.634134 1
0.789761 0.640269 1
0.871489 0.652338 1
0.979324 0.667048 1
1 0.737728 1
0.552392 0.756329 1
0.579492 0.741848 1
0.614923 0.735027 1
0.659052 0.730999 1
0.721096 0.730205 1
0.789014 0.739864 1
0.876951 0.757382 1
0.977172 0.775647 1
1 0.849424 1
0.50901 0.844694 1
0.540795 0.84184 1
0.581201 0.843244 1
0.644114 0.845594 1
0.716869 0.849104 1
0.787076 0.856077 1
0.882719 0.87631 1
0.9729 0.905257 0.979461
0.977432 0.972854 0.971954
0.506416 0.947784 1
0.572366 0.946303 1
0.637751 0.945739 1
0.691188 0.946014 1
0.734936 0.948806 1
0.851438 0.965133 1
0.970016 0.97763 0.95378
0.97734 0.995819 0.96083
0.979202 0.996689 0.965591
0.738201 0.992554 1
0.780713 1 1
0.843854 1 0.994079
0.943709 0.99353 0.968597
0.975158 0.997833 0.966186
0.979202 0.996689 0.965591
0.979202 0.996689 0.965591
0.979202 0.996689 0.965591
0.979202 0.996689 0.965591
