subtle niceties LUT V2 beta 13 (SSH-TS reimagined).cube
TITLE "Generated by Resolve"
LUT_3D_SIZE 5
0.00874342 0.00794995 0.0108339
0.111513 0.0193484 0.0158541
0.265812 0.0335241 0.0186007
0.473198 0.0848707 0.0565499
0.955825 0.2972 0.255116
0.0608072 0.132677 0.0311589
0.15552 0.153414 0.020264
0.316258 0.152667 0
0.546319 0.173953 0
1 0.417227 0.328695
0.123629 0.285512 0.0501564
0.222904 0.307408 0.0310674
0.362448 0.335256 0
0.560967 0.353262 0
1 0.527581 0.229328
0.187335 0.497581 0.117891
0.321828 0.517647 0.0861524
0.449653 0.553429 0.0470588
0.629053 0.597192 0
1 0.650095 0.0860456
0.410727 0.87216 0.245792
0.556756 0.882918 0.230106
0.686015 0.903929 0.307485
0.814054 0.949523 0.376379
1 1 0.49836
0.0242771 0.0379187 0.114046
0.156466 0.0384985 0.144594
0.276097 0.0677195 0.14435
0.480323 0.0838331 0.164721
0.933516 0.30428 0.334737
0.0316625 0.158633 0.16527
0.173587 0.173877 0.165347
0.349233 0.174868 0.16022
0.555657 0.210086 0.182086
1 0.438392 0.386358
0.0949264 0.316365 0.167742
0.224033 0.344869 0.151415
0.375723 0.374151 0.146471
0.60145 0.394491 0.187793
1 0.581857 0.37174
0.212604 0.521187 0.195254
0.341619 0.546242 0.213748
0.480507 0.584115 0.215778
0.63946 0.633005 0.243946
1 0.72314 0.368231
0.454124 0.890318 0.296208
0.572732 0.908003 0.352193
0.699535 0.937102 0.410986
0.835111 0.99649 0.456428
1 1 0.677485
0.0716564 0.0951553 0.287266
0.157763 0.0942702 0.306065
0.332753 0.0801251 0.310643
0.51104 0.0961929 0.332662
0.910094 0.309041 0.444556
0.0634623 0.197528 0.302525
0.175143 0.200183 0.331136
0.368658 0.188373 0.355947
0.554299 0.234318 0.363455
1 0.436515 0.509255
0.0322881 0.347494 0.356893
0.177691 0.369039 0.381033
0.39321 0.394873 0.381552
0.645884 0.420569 0.39382
1 0.60444 0.584985
0.156756 0.558724 0.382193
0.241718 0.604303 0.364111
0.461448 0.639704 0.365606
0.678172 0.679347 0.367453
1 0.806256 0.603464
0.424384 0.923812 0.463264
0.56083 0.945174 0.489601
0.694362 0.990265 0.508858
0.890867 1 0.596597
1 1 0.933471
0.0773785 0.145571 0.524376
0.199145 0.177813 0.5084
0.34873 0.195132 0.503029
0.585336 0.16527 0.547448
0.980606 0.325643 0.656947
0.151766 0.263874 0.501915
0.205768 0.265675 0.526925
0.367895 0.271504 0.543511
0.610147 0.265354 0.581659
0.98883 0.420325 0.667063
0.120775 0.390951 0.546715
0.213214 0.41181 0.562707
0.391058 0.424781 0.600122
0.669688 0.416098 0.634379
1 0.560662 0.746441
0.0509041 0.596551 0.615503
0.223896 0.623423 0.642435
0.39617 0.661555 0.674861
0.689799 0.695109 0.674861
1 0.79234 0.771801
0.316182 0.964172 0.660639
0.445899 1 0.647471
0.659281 1 0.705196
0.983597 1 0.819623
1 1 1
0.261524 0.361837 1
0.340291 0.365179 1
0.466606 0.399481 0.985962
0.643244 0.448066 0.930709
1 0.453223 1
0.279576 0.423972 1
0.358206 0.419074 1
0.455283 0.420813 0.996109
0.611704 0.413184 1
1 0.507637 1
0.334813 0.551034 0.982361
0.376654 0.543694 0.973236
0.434852 0.536309 0.992248
0.626154 0.553521 0.996704
1 0.582467 1
0.205798 0.691051 0.998779
0.317784 0.70399 0.990173
0.428412 0.736233 0.987869
0.673426 0.73669 1
1 0.801968 1
0.292119 0.983001 1
0.484123 0.995315 1
0.67538 1 1
1 1 0.988113
1 1 1
