subtle niceties LUT V2 beta 12 (SSH-TS reimagined).cube
TITLE "Generated by Resolve"
LUT_3D_SIZE 9
0.00874342 0.00762951 0.011429
0.0546578 0.0122683 0.0131533
0.111406 0.01944 0.0159762
0.190326 0.0184482 0.00695811
0.271351 0.024567 0.00848402
0.358282 0.0397498 0.0204166
0.482048 0.0611582 0.0311284
0.654353 0.112367 0.0644999
0.955459 0.297871 0.255985
0.0311437 0.0647898 0.0157626
0.0817884 0.0784161 0.0147555
0.149722 0.0745861 0.0233768
0.224781 0.0700389 0.00833143
0.305684 0.0619669 0
0.393301 0.0720531 0
0.511879 0.105531 0.00962844
0.676539 0.183261 0.101534
0.989532 0.358831 0.299245
0.0618906 0.132647 0.0302281
0.109148 0.14107 0.0267033
0.158007 0.154437 0.0101625
0.238834 0.15108 0.00140383
0.317891 0.152102 0
0.417655 0.156588 0
0.547082 0.172946 0
0.70959 0.237797 0.0853437
1 0.419806 0.332174
0.0937972 0.204379 0.0382849
0.141115 0.213016 0.0353704
0.18529 0.225879 0.0301976
0.251194 0.240879 0
0.343999 0.237201 0
0.42707 0.246845 0
0.549889 0.268482 0
0.730526 0.3178 0.0162661
1 0.470024 0.298054
0.123934 0.285466 0.0501869
0.174777 0.294163 0.0420691
0.223056 0.307347 0.03122
0.281804 0.322957 0.0242771
0.362325 0.335332 0
0.46569 0.334249 0
0.565225 0.350881 0
0.716899 0.389853 0
1 0.530098 0.254551
0.151995 0.380423 0.0726329
0.21413 0.388632 0.0627146
0.265583 0.401877 0.0504921
0.323857 0.419196 0.0250095
0.39408 0.435508 0.0235447
0.48777 0.4495 0
0.609171 0.453208 0
0.73489 0.473915 0
1 0.577188 0.144274
0.187839 0.497536 0.117815
0.258488 0.50576 0.105165
0.322225 0.51754 0.0864424
0.38088 0.535348 0.0512398
0.449729 0.553384 0.0474098
0.523873 0.573541 0.0636912
0.628702 0.597421 0
0.772503 0.610193 0
0.997452 0.651728 0.129198
0.241337 0.640818 0.172229
0.321386 0.648478 0.159808
0.397436 0.658503 0.135225
0.460655 0.674998 0.116762
0.528557 0.692668 0.115297
0.601648 0.7122 0.15819
0.668086 0.741497 0.213519
0.786633 0.773098 0.0841993
0.989517 0.794949 0.0467079
0.411536 0.872053 0.245792
0.486107 0.876661 0.231769
0.557473 0.882734 0.230533
0.623728 0.89221 0.263401
0.686687 0.903807 0.306935
0.754223 0.919539 0.346334
0.823453 0.946792 0.376623
0.894926 0.98677 0.397772
1 1 0.522805
0.012253 0.0171054 0.0519265
0.0763409 0.0211032 0.0701762
0.134127 0.0288701 0.0744488
0.197971 0.0436255 0.0699168
0.285817 0.0286107 0.0552529
0.379431 0.0209049 0.0476234
0.498054 0.028687 0.0549935
0.646845 0.125505 0.135805
0.948898 0.300801 0.287205
0.0191958 0.0808728 0.0820783
0.081529 0.0880598 0.08925
0.162554 0.0882887 0.0769055
0.236713 0.0853437 0.0673991
0.304295 0.0912642 0.07187
0.391806 0.101976 0.0712139
0.512886 0.130144 0.0857404
0.674846 0.202335 0.162264
0.988083 0.368841 0.331563
0.0442512 0.150256 0.0770581
0.101122 0.160952 0.0690776
0.172702 0.165515 0.0688792
0.251499 0.163516 0.0780346
0.335088 0.162478 0.0736553
0.434287 0.159579 0.0650187
0.553872 0.183658 0.0703136
0.708049 0.257084 0.172686
1 0.436362 0.361822
0.0901961 0.218082 0.0905318
0.138277 0.23122 0.0751049
0.193439 0.244327 0.0640879
0.263203 0.25594 0.0556039
0.349248 0.257496 0.0504158
0.449409 0.253498 0.094316
0.575158 0.276204 0.0815747
0.7467 0.327413 0.149874
1 0.49543 0.336797
0.128023 0.297261 0.101228
0.182712 0.307515 0.0965896
0.240406 0.318791 0.0986191
0.294484 0.338033 0.0831769
0.364828 0.356756 0.0414282
0.466499 0.364034 0
0.584527 0.364889 0.0806287
0.747723 0.405356 0.130358
1 0.564828 0.340703
0.172457 0.389776 0.10695
0.228473 0.399847 0.112749
0.284428 0.41236 0.118029
0.347814 0.428519 0.116701
0.399435 0.451987 0.114137
0.48455 0.47483 0.0301213
0.609552 0.485283 0
0.750561 0.49395 0.0946822
1 0.604135 0.321263
0.216144 0.506218 0.132052
0.283894 0.514763 0.129686
0.344976 0.527092 0.14139
0.407721 0.543862 0.148409
0.470085 0.564095 0.156573
0.528496 0.591012 0.163485
0.631571 0.619577 0.0548257
0.77438 0.639445 0
1 0.671168 0.301518
0.273167 0.649271 0.174304
0.348302 0.657359 0.166995
0.418982 0.668345 0.177279
0.486534 0.684108 0.193683
0.553903 0.702129 0.214847
0.619028 0.726055 0.230838
0.689799 0.758328 0.235294
0.801709 0.787137 0.203922
0.998611 0.810071 0.270924
0.433402 0.880461 0.24828
0.506905 0.884825 0.260288
0.576196 0.891936 0.285679
0.634668 0.904295 0.323903
0.698466 0.917311 0.359609
0.771359 0.934508 0.396628
0.825772 0.971832 0.405051
0.919234 1 0.437842
1 1 0.583429
0.0163729 0.0345464 0.116075
0.0797894 0.0366369 0.140093
0.156558 0.0382849 0.144717
0.22063 0.0419013 0.145541
0.276005 0.0678874 0.144274
0.362097 0.074876 0.150347
0.485115 0.071107 0.158206
0.645319 0.117052 0.191135
0.932708 0.305837 0.335698
0.0348821 0.0932021 0.143557
0.0854658 0.0986038 0.155352
0.177386 0.0864576 0.16347
0.243824 0.0923018 0.159655
0.314092 0.104601 0.151537
0.395254 0.128679 0.156298
0.519036 0.151522 0.170764
0.673335 0.222049 0.229099
0.982834 0.377249 0.366354
0.0315862 0.158618 0.165347
0.0827497 0.167483 0.170718
0.164889 0.174624 0.172137
0.262959 0.174228 0.164248
0.347372 0.173312 0.169772
0.439811 0.187808 0.15729
0.549798 0.21799 0.187869
0.706706 0.284382 0.247501
1 0.451011 0.395819
0.0932174 0.227268 0.173602
0.102251 0.251865 0.152865
0.184604 0.261967 0.154772
0.277577 0.267353 0.157229
0.367208 0.270222 0.162158
0.465324 0.281025 0.169711
0.591104 0.301198 0.183673
0.75729 0.351446 0.229297
1 0.523568 0.399298
0.107942 0.314885 0.167422
0.166064 0.327657 0.163424
0.223972 0.344884 0.151369
0.296483 0.362188 0.135958
0.380545 0.372549 0.143587
0.48014 0.375906 0.160708
0.605997 0.387091 0.207401
0.77174 0.437232 0.252537
1 0.603128 0.403037
0.165331 0.404608 0.185977
0.222278 0.417227 0.1841
0.280385 0.433677 0.17792
0.344686 0.453178 0.168307
0.415595 0.47303 0.157458
0.50309 0.490272 0.148836
0.620752 0.500114 0.144549
0.772747 0.515999 0.255238
1 0.658335 0.404288
0.220249 0.519768 0.198718
0.281987 0.531365 0.206714
0.344549 0.546105 0.210101
0.417365 0.561578 0.221103
0.487373 0.581598 0.219226
0.550683 0.611002 0.198138
0.649592 0.635325 0.185046
0.785824 0.651072 0.173129
1 0.707393 0.401266
0.291447 0.661585 0.218875
0.359182 0.671412 0.233783
0.423713 0.68545 0.246616
0.493751 0.701595 0.267659
0.567437 0.719249 0.283345
0.638605 0.743679 0.285206
0.708278 0.778637 0.272999
0.819013 0.802838 0.292027
1 0.830671 0.400061
0.455711 0.890059 0.296498
0.515801 0.897322 0.325719
0.57557 0.907973 0.347692
0.642237 0.919341 0.381308
0.707881 0.935149 0.411093
0.760159 0.964797 0.418982
0.832547 0.999634 0.435813
0.945983 1 0.512871
1 1 0.685176
0.0174258 0.0667735 0.202258
0.087541 0.0650492 0.217807
0.152483 0.0614328 0.229465
0.241474 0.0560922 0.223758
0.296574 0.0736095 0.230732
0.38146 0.0760967 0.232303
0.468971 0.136278 0.24947
0.622507 0.168658 0.281437
0.925856 0.288106 0.374441
0.0390021 0.12314 0.207401
0.0918135 0.112779 0.232456
0.168109 0.114305 0.237003
0.257328 0.10396 0.244068
0.326253 0.11162 0.246723
0.399512 0.139834 0.243122
0.50248 0.180438 0.253422
0.659892 0.228626 0.293172
0.959335 0.376471 0.417273
0.0492409 0.17145 0.234775
0.108278 0.178149 0.238727
0.17673 0.182498 0.250004
0.281041 0.170245 0.262913
0.355077 0.180468 0.263828
0.451164 0.18909 0.262425
0.564294 0.223972 0.273045
0.723964 0.290227 0.321859
1 0.446052 0.445563
0.0310521 0.249058 0.255482
0.0820783 0.259831 0.263569
0.16849 0.271122 0.266178
0.265187 0.278294 0.276631
0.377462 0.278477 0.276524
0.481819 0.287266 0.276158
0.613169 0.306996 0.292241
0.765072 0.37171 0.330968
1 0.537209 0.473716
0.134478 0.319539 0.275608
0.141878 0.340856 0.272908
0.18471 0.366827 0.252125
0.283101 0.379797 0.260044
0.387976 0.385962 0.269856
0.496391 0.393759 0.275654
0.633143 0.41387 0.305776
0.79147 0.468116 0.345327
1 0.622446 0.492592
0.190311 0.416052 0.276112
0.178424 0.444007 0.255756
0.246708 0.460014 0.260212
0.332341 0.479286 0.25005
0.415198 0.498619 0.242756
0.521645 0.506783 0.262684
0.645579 0.515648 0.286122
0.800732 0.553368 0.351934
1 0.702449 0.504662
0.209842 0.535958 0.296925
0.272068 0.550118 0.296895
0.334325 0.569375 0.284428
0.397101 0.593942 0.26865
0.459983 0.621256 0.246372
0.557946 0.63827 0.25774
0.667567 0.654887 0.285634
0.806363 0.667124 0.329137
1 0.754757 0.489342
0.284566 0.678203 0.315389
0.350301 0.690532 0.325704
0.416526 0.706844 0.327535
0.487724 0.72697 0.328069
0.554833 0.750347 0.326207
0.626963 0.777401 0.3196
0.720287 0.803128 0.330129
0.833417 0.821469 0.38497
1 0.856687 0.502525
0.453025 0.904524 0.384421
0.513634 0.913344 0.4038
0.574548 0.925902 0.415457
0.639628 0.941238 0.434455
0.698116 0.964355 0.446097
0.744808 1 0.437201
0.855787 1 0.513756
0.980865 1 0.589532
1 1 0.813657
0.0219883 0.0907149 0.300084
0.0934157 0.100877 0.296117
0.162951 0.108034 0.292943
0.234699 0.0902113 0.314778
0.337423 0.0733043 0.309636
0.392554 0.111421 0.325551
0.511025 0.096376 0.332525
0.62501 0.199634 0.363638
0.909651 0.309957 0.444602
0.0364538 0.144762 0.295308
0.090959 0.130892 0.318288
0.179873 0.130251 0.320607
0.239902 0.131197 0.339757
0.348379 0.128923 0.329244
0.419394 0.148028 0.33994
0.525475 0.168551 0.339864
0.646922 0.249058 0.369268
0.943618 0.378729 0.469612
0.0645914 0.198093 0.301427
0.0937972 0.204578 0.311437
0.175494 0.201175 0.329641
0.274174 0.203525 0.332723
0.370367 0.188006 0.354452
0.456657 0.198383 0.357153
0.556802 0.230961 0.363241
0.701122 0.291295 0.392279
1 0.437018 0.50956
0.0593729 0.263294 0.330846
0.109728 0.266789 0.34934
0.183581 0.276738 0.355856
0.285542 0.282963 0.362051
0.399466 0.273045 0.377646
0.492119 0.289143 0.37557
0.616831 0.304204 0.399863
0.782498 0.360662 0.438025
1 0.516533 0.552697
0.0318914 0.347524 0.356893
0.104097 0.356893 0.368109
0.158877 0.373602 0.376928
0.274922 0.386984 0.378561
0.377401 0.395819 0.394797
0.508263 0.398444 0.402029
0.646708 0.419181 0.395789
0.814893 0.455695 0.464195
1 0.609277 0.600031
0.138933 0.432059 0.385626
0.19733 0.445777 0.389761
0.239734 0.467903 0.388128
0.289219 0.501305 0.366064
0.397162 0.516472 0.374853
0.517479 0.524132 0.392325
0.654231 0.537057 0.403525
0.827253 0.57734 0.467002
1 0.715221 0.627329
0.313512 0.533822 0.39791
0.248631 0.57203 0.380682
0.27071 0.600748 0.363394
0.363622 0.618784 0.372671
0.461982 0.639658 0.365118
0.555581 0.662623 0.360403
0.690684 0.667842 0.400519
0.826871 0.686519 0.439963
1 0.798764 0.606241
0.291875 0.690333 0.425391
0.332357 0.710597 0.415641
0.398138 0.729564 0.412909
0.466499 0.753582 0.405234
0.539315 0.778729 0.398215
0.62153 0.804089 0.397513
0.720623 0.82681 0.423011
0.855634 0.835752 0.49012
1 0.880079 0.602197
0.44979 0.91873 0.473823
0.511543 0.92932 0.482963
0.573037 0.943786 0.48484
0.634424 0.965637 0.485573
0.692622 0.991638 0.501869
0.766537 1 0.535256
0.89163 1 0.595483
1 1 0.713222
1 1 0.943862
0.0304875 0.112871 0.402136
0.103349 0.128069 0.394675
0.170794 0.141176 0.389364
0.247776 0.151598 0.384298
0.329763 0.131624 0.407858
0.44976 0.102007 0.411292
0.520348 0.156344 0.437858
0.679377 0.150256 0.458885
0.906676 0.359335 0.533288
0.0507668 0.173571 0.392126
0.0806439 0.173587 0.403861
0.168566 0.170275 0.411109
0.25658 0.173831 0.412634
0.338354 0.162295 0.436027
0.454322 0.165759 0.430014
0.538537 0.198337 0.452964
0.688838 0.217685 0.462074
0.936339 0.386358 0.541878
0.0539406 0.225895 0.397543
0.109957 0.228443 0.403983
0.176547 0.213916 0.434409
0.308812 0.210101 0.426581
0.34876 0.223255 0.456931
0.478523 0.213886 0.455665
0.574639 0.239307 0.469306
0.708507 0.283772 0.481926
0.989242 0.429404 0.570306
0.100694 0.287922 0.410422
0.134585 0.295888 0.419379
0.183444 0.304601 0.431312
0.272328 0.306111 0.452827
0.391028 0.304753 0.46067
0.507012 0.292027 0.482856
0.61503 0.310475 0.490059
0.762219 0.349996 0.513695
1 0.49865 0.625711
0.0703593 0.365026 0.44097
0.13341 0.370077 0.458289
0.176257 0.379797 0.479393
0.286824 0.391196 0.486076
0.406241 0.395056 0.496986
0.537316 0.391516 0.507424
0.660014 0.415702 0.502937
0.81265 0.452674 0.563989
1 0.603098 0.707362
0.0374151 0.460014 0.473716
0.109209 0.472511 0.484443
0.192447 0.485359 0.498878
0.258808 0.507607 0.508721
0.388678 0.523079 0.510292
0.508873 0.532555 0.530968
0.66389 0.540688 0.550393
0.841581 0.578454 0.543633
1 0.69482 0.700572
0.166598 0.5664 0.509621
0.23975 0.578576 0.519524
0.259068 0.604273 0.521828
0.351461 0.632547 0.500893
0.410758 0.66305 0.498085
0.531106 0.680476 0.510491
0.672374 0.689647 0.5393
0.835584 0.70602 0.565545
1 0.815488 0.695537
0.436423 0.681666 0.53196
0.372717 0.718242 0.531273
0.359854 0.754528 0.507469
0.391119 0.786984 0.497673
0.506722 0.80325 0.511254
0.61207 0.822736 0.524437
0.712963 0.846296 0.546059
0.855177 0.856107 0.614816
1 0.89839 0.701518
0.434455 0.935714 0.561563
0.492378 0.949004 0.56199
0.547982 0.966232 0.565332
0.613687 0.988312 0.577859
0.694423 1 0.601022
0.79382 1 0.634928
0.916762 1 0.715618
1 1 0.822446
1 1 1
0.0486915 0.142077 0.529152
0.118715 0.158633 0.521019
0.18732 0.177646 0.511498
0.264195 0.201343 0.496651
0.343481 0.20734 0.496345
0.439902 0.183871 0.528878
0.593057 0.153735 0.544793
0.691081 0.233036 0.588724
0.980606 0.325841 0.656733
0.0609751 0.199847 0.524086
0.0840314 0.212467 0.523751
0.172534 0.219806 0.521752
0.25922 0.221256 0.525505
0.347692 0.223621 0.52903
0.448142 0.211017 0.556023
0.595972 0.210941 0.561837
0.701579 0.269215 0.599893
0.979812 0.369635 0.652216
0.098085 0.262318 0.512963
0.0956893 0.266682 0.524086
0.169131 0.250965 0.549035
0.270222 0.246632 0.559701
0.366445 0.25684 0.558145
0.45832 0.256504 0.584512
0.611063 0.263279 0.582528
0.727184 0.307073 0.613886
0.990799 0.418189 0.665736
0.0767529 0.322713 0.528023
0.132891 0.333959 0.525567
0.194141 0.334462 0.540612
0.280568 0.321218 0.575647
0.420783 0.321004 0.568276
0.489601 0.335973 0.593668
0.634974 0.328237 0.611765
0.771054 0.356893 0.629084
1 0.476204 0.696696
0.135912 0.391882 0.54258
0.184268 0.400824 0.548043
0.211917 0.409674 0.56643
0.29279 0.422568 0.574823
0.383261 0.426169 0.601999
0.526604 0.422675 0.61323
0.672114 0.410636 0.639307
0.802853 0.442618 0.653574
1 0.554574 0.746853
0.0757763 0.483406 0.575692
0.155352 0.489693 0.591104
0.212665 0.498939 0.611933
0.287785 0.512337 0.632013
0.41178 0.525017 0.638132
0.542535 0.530953 0.652262
0.702953 0.529305 0.664378
0.856275 0.566766 0.661799
1 0.687404 0.799878
0.0504768 0.596551 0.615579
0.118303 0.611566 0.625422
0.224231 0.623407 0.64239
0.287633 0.646586 0.653193
0.391516 0.660655 0.679179
0.525811 0.685725 0.666545
0.664546 0.696986 0.694865
0.828077 0.713298 0.73547
1 0.799588 0.772335
0.22063 0.726101 0.657786
0.283619 0.73901 0.671962
0.339315 0.759472 0.676829
0.41825 0.780407 0.686351
0.487465 0.81796 0.654124
0.568704 0.842618 0.669963
0.694133 0.864363 0.684276
0.838666 0.877653 0.753262
1 0.917067 0.839551
0.475776 0.943435 0.670863
0.464027 0.971511 0.650309
0.491905 0.994537 0.650553
0.537209 1 0.664561
0.659968 1 0.705318
0.786709 1 0.761913
0.943542 1 0.812436
1 1 0.950683
1 1 1
0.0938125 0.194461 0.703227
0.154788 0.206363 0.692531
0.219821 0.224033 0.67985
0.292226 0.247379 0.664073
0.372351 0.284657 0.634974
0.459709 0.282948 0.643229
0.582544 0.257252 0.693889
0.783276 0.246586 0.728664
1 0.382055 0.808713
0.0630961 0.239506 0.703761
0.117098 0.246647 0.697673
0.198093 0.259022 0.687892
0.282338 0.273945 0.677424
0.36817 0.290486 0.666255
0.461112 0.294896 0.670054
0.58648 0.277577 0.714214
0.780652 0.290806 0.738293
1 0.398688 0.809903
0.126665 0.303899 0.686992
0.119295 0.3084 0.689647
0.156252 0.324849 0.683894
0.265339 0.321645 0.68893
0.367025 0.313054 0.700282
0.470527 0.319005 0.702571
0.594797 0.312856 0.740871
0.782818 0.343481 0.751247
1 0.4271 0.816327
0.166583 0.375494 0.669902
0.135683 0.375479 0.683879
0.186587 0.375204 0.694697
0.276051 0.350088 0.730419
0.391653 0.345403 0.740291
0.512795 0.364996 0.725795
0.607126 0.380056 0.762295
0.805081 0.385702 0.771466
1 0.474006 0.828443
0.130236 0.437598 0.68806
0.159884 0.445548 0.690806
0.223331 0.459419 0.687221
0.292836 0.4551 0.714839
0.395743 0.445991 0.745785
0.544228 0.448966 0.741619
0.656443 0.462745 0.762783
0.822065 0.460838 0.794842
1 0.540581 0.83331
0.167269 0.515435 0.706722
0.229801 0.523705 0.70959
0.269322 0.533745 0.721691
0.316396 0.545815 0.74081
0.411124 0.560479 0.74786
0.511147 0.565744 0.778668
0.688533 0.558999 0.793301
0.858717 0.554086 0.817456
1 0.642222 0.854841
0.0757916 0.62623 0.74052
0.182696 0.633127 0.753292
0.257252 0.640955 0.773098
0.308232 0.654963 0.79762
0.416449 0.670588 0.80911
0.559991 0.683528 0.813397
0.699214 0.697841 0.823377
0.861662 0.715496 0.83003
1 0.779477 0.888747
0.08542 0.758282 0.782223
0.159152 0.773205 0.791012
0.273533 0.784436 0.806149
0.355383 0.80322 0.819577
0.429313 0.825879 0.830213
0.593179 0.842741 0.819623
0.711727 0.8645 0.838895
0.847013 0.887449 0.886656
1 0.937514 0.927764
0.502129 0.942901 0.82855
0.501076 0.964004 0.833371
0.515587 0.988525 0.837201
0.595071 1 0.818036
0.678523 1 0.835431
0.821103 1 0.876524
1 1 0.909636
1 1 1
1 1 1
0.220905 0.355703 1
0.272938 0.353124 1
0.328054 0.357427 1
0.390936 0.369512 1
0.458244 0.389059 0.995102
0.539269 0.424048 0.958694
0.641352 0.448157 0.931655
0.781765 0.418021 0.993332
1 0.44509 1
0.155917 0.375128 1
0.222751 0.370947 1
0.289723 0.373739 1
0.363317 0.383993 1
0.439353 0.400565 0.998047
0.521828 0.41976 0.97557
0.632456 0.452049 0.940597
0.770275 0.423056 1
1 0.475547 1
0.162158 0.416373 1
0.153689 0.411597 1
0.234974 0.411704 1
0.325612 0.418036 1
0.413825 0.429007 1
0.507225 0.439307 0.985473
0.625101 0.460197 0.960678
0.761593 0.434134 1
1 0.512886 1
0.229557 0.478996 1
0.211688 0.472038 1
0.208499 0.475242 1
0.26537 0.48864 1
0.376867 0.488182 0.996139
0.494362 0.476112 0.9991
0.631754 0.483421 0.985458
0.764065 0.462425 1
1 0.535332 1
0.284443 0.549691 0.992844
0.257633 0.542718 0.997772
0.232212 0.541161 1
0.27866 0.538369 1
0.379065 0.507042 1
0.508934 0.500252 1
0.676081 0.519814 1
0.77203 0.529015 1
1 0.579614 1
0.296834 0.62266 0.96846
0.242176 0.614099 0.987259
0.238499 0.612924 0.995132
0.324987 0.6177 0.99144
0.413291 0.611337 1
0.523186 0.59147 1
0.710155 0.590219 1
0.81178 0.637781 1
1 0.657191 1
0.200748 0.690425 1
0.24892 0.695109 0.996704
0.318914 0.704768 0.988815
0.380011 0.71754 0.988067
0.422553 0.726925 1
0.532021 0.737057 1
0.661707 0.739025 1
0.845884 0.749844 1
1 0.775799 1
0.15465 0.80856 1
0.25948 0.81413 1
0.337575 0.816922 1
0.41648 0.817578 1
0.488762 0.826947 1
0.59675 0.842344 1
0.751232 0.864408 1
0.894606 0.900282 1
1 0.973434 1
0.291341 0.983078 1
0.381476 0.987198 1
0.460533 0.998474 1
0.524071 1 1
0.687053 1 1
0.886473 1 1
1 1 1
1 1 1
1 1 1
