subtle niceties LUT V2 beta 15 (SSH-TS reimagined).cube
TITLE "Generated by Resolve"
LUT_3D_SIZE 5
0.0115663 0.011368 0.0174258
0.16556 0.0211795 0.0236362
0.323049 0.031693 0
0.493446 0.0547951 0
0.759594 0.11075 0
0.0638285 0.174014 0.0263523
0.192157 0.188006 0.0134432
0.367025 0.180819 0
0.544228 0.191318 0
0.80679 0.247929 0
0.121416 0.345846 0.0241398
0.249348 0.359518 0.0364996
0.398138 0.392782 0
0.599084 0.407752 0
0.864698 0.45304 0
0.253559 0.583856 0.0513313
0.372305 0.591379 0.0801099
0.514717 0.61355 0.141115
0.668467 0.662776 0.125643
0.90837 0.719997 0.129839
0.473121 0.891066 0.182605
0.582437 0.890303 0.251209
0.702296 0.907637 0.333288
0.814664 0.949752 0.376532
0.978515 0.970565 0.485573
0.0115206 0.0340734 0.11223
0.189593 0.0429847 0.162081
0.347707 0.0654765 0.176944
0.533028 0.0938582 0.196979
0.830381 0.085069 0.161654
0.000320439 0.189029 0.180774
0.184222 0.184405 0.173541
0.413687 0.205737 0.194568
0.578851 0.210895 0.209705
0.831388 0.259098 0.238621
0.0474403 0.393225 0.165255
0.252003 0.406775 0.173022
0.428733 0.418509 0.201678
0.622934 0.413977 0.226368
0.864317 0.456489 0.286702
0.237476 0.59527 0.210513
0.361517 0.597436 0.226429
0.503166 0.631037 0.250629
0.676936 0.666575 0.304692
0.912764 0.695735 0.393942
0.465232 0.899733 0.344427
0.558343 0.89337 0.369619
0.671153 0.910628 0.411017
0.794781 0.955627 0.466941
0.971679 0.966995 0.601602
0.0168307 0.0936904 0.275593
0.171191 0.110597 0.292531
0.377401 0.117372 0.346502
0.571435 0.160464 0.401602
0.865583 0.262226 0.46598
0 0.210224 0.389975
0.165209 0.201144 0.36022
0.441077 0.211185 0.409232
0.608423 0.269581 0.425666
0.878874 0.341238 0.441566
0 0.432975 0.431113
0.168704 0.417929 0.414328
0.40972 0.412467 0.394049
0.690425 0.456626 0.454719
0.892821 0.491493 0.476036
0.176883 0.645075 0.453025
0.277684 0.670207 0.399466
0.47512 0.709361 0.405722
0.704982 0.709697 0.490562
0.933455 0.714611 0.571389
0.384939 0.929915 0.495964
0.507149 0.915923 0.496742
0.638956 0.949157 0.506523
0.766735 0.995254 0.589014
0.971115 0.987213 0.699001
0.0408179 0.186587 0.451362
0.188693 0.201373 0.462837
0.396185 0.19884 0.51751
0.648081 0.242908 0.589395
0.92015 0.357809 0.710445
0 0.275425 0.573053
0.199466 0.28632 0.527169
0.393835 0.27013 0.575784
0.679316 0.297688 0.619226
0.899306 0.410697 0.688762
0 0.458717 0.691676
0.216587 0.437858 0.637598
0.401251 0.401709 0.641077
0.713451 0.484001 0.71284
0.920104 0.547539 0.728603
0.0507668 0.722759 0.719631
0.243259 0.719448 0.712108
0.461601 0.692103 0.708965
0.706569 0.711849 0.687816
1 0.764218 0.75874
0.363622 0.970871 0.740337
0.452476 0.973816 0.704646
0.573892 1 0.715908
0.827741 1 0.78854
0.978912 0.999802 0.871473
0.0628824 0.335256 0.726528
0.237461 0.346838 0.732235
0.405051 0.370016 0.764523
0.68481 0.350622 0.864729
1 0.449454 0.951278
0.0697185 0.423514 0.822858
0.285145 0.434287 0.790494
0.420249 0.414008 0.814435
0.672068 0.416663 0.87071
1 0.479088 0.944808
0 0.581033 0.969162
0.30782 0.582101 0.867262
0.437842 0.524437 0.867277
0.655543 0.553643 0.892607
1 0.596384 0.962341
0.215488 0.81091 1
0.324926 0.786023 0.980377
0.508736 0.723507 0.929488
0.675776 0.690776 0.946792
1 0.822171 1
0.317968 1 1
0.484352 1 1
0.652247 1 1
0.832624 1 1
0.992248 1 0.976745
