subtle niceties LUT V2 beta (SSH-TS reimagined).cube
TITLE "Generated by Resolve"
LUT_3D_SIZE 33
0.00801099 0.00801099 0.00801099
0.0216526 0.00962844 0.00851453
0.0382544 0.0102541 0.00828565
0.0563668 0.0105135 0.0084535
0.0736095 0.0106813 0.00868238
0.0940414 0.0107729 0.00898756
0.114748 0.0108034 0.00936904
0.136477 0.0108186 0.0099031
0.158297 0.0108492 0.0105592
0.179995 0.0108949 0.0113985
0.20264 0.011017 0.0124361
0.226917 0.0112459 0.0137942
0.250629 0.0116274 0.0153658
0.274403 0.0121462 0.0172122
0.298466 0.0128786 0.0193484
0.323064 0.0138247 0.0218204
0.348348 0.0149996 0.0247196
0.374334 0.0163882 0.0280766
0.401251 0.0181582 0.0319524
0.428656 0.0200809 0.0362554
0.456657 0.0223697 0.0411383
0.486748 0.0267338 0.0478828
0.518425 0.0331121 0.0564279
0.548837 0.040589 0.0653239
0.580362 0.049424 0.0756542
0.614542 0.0602884 0.0881971
0.650797 0.0737774 0.10161
0.689616 0.0901503 0.11635
0.731487 0.1084 0.132631
0.778759 0.129778 0.151461
0.832807 0.155581 0.173785
0.899596 0.189014 0.202625
1 0.249058 0.252384
0.0111086 0.02327 0.0112001
0.0249943 0.0248569 0.0120241
0.0405585 0.0260319 0.0117342
0.057435 0.0271 0.0120394
0.0738231 0.0278782 0.0123598
0.0937972 0.0285039 0.0127108
0.114458 0.0288701 0.0130465
0.136477 0.02916 0.0134127
0.158816 0.029221 0.0138705
0.181064 0.029221 0.0145113
0.204257 0.0291447 0.0153811
0.229129 0.0292668 0.0166018
0.25333 0.0294499 0.0180514
0.277531 0.0297551 0.019791
0.301946 0.0302281 0.0218509
0.326879 0.0309606 0.0243229
0.352453 0.0318456 0.0272221
0.378683 0.03299 0.0306096
0.405768 0.0343481 0.0344549
0.433265 0.0359655 0.0388037
0.461433 0.038056 0.0436561
0.492454 0.0410163 0.0495308
0.524651 0.0468757 0.0573587
0.5552 0.0550546 0.0666056
0.586679 0.0647898 0.0772717
0.620768 0.0768139 0.0900893
0.656977 0.091249 0.103746
0.695689 0.107225 0.1187
0.737423 0.125109 0.13518
0.784436 0.146258 0.154284
0.838178 0.171649 0.176852
0.904418 0.205264 0.205921
1 0.265202 0.256336
0.0130159 0.0403449 0.0133822
0.0276799 0.0416571 0.0144045
0.0436408 0.0430152 0.0149081
0.0606088 0.0440986 0.0148318
0.0768749 0.0452125 0.0153353
0.0964828 0.0461738 0.0158694
0.116732 0.0471046 0.0164034
0.138308 0.0477455 0.016968
0.160418 0.0483406 0.0176089
0.182589 0.0486 0.0183261
0.205997 0.0488746 0.0191653
0.231235 0.0488441 0.0202182
0.255863 0.0489967 0.0215305
0.280476 0.049012 0.0231327
0.305364 0.0492866 0.0251316
0.330587 0.049424 0.0274968
0.356451 0.0502327 0.0303502
0.38294 0.0512093 0.0336767
0.41033 0.0527962 0.0375067
0.43801 0.0547646 0.0417487
0.466423 0.0573129 0.0465553
0.49752 0.0607614 0.0521248
0.530907 0.0655222 0.0591592
0.562005 0.0729686 0.0679789
0.593591 0.0837262 0.0788434
0.627573 0.0961318 0.0919356
0.663706 0.110079 0.105898
0.702205 0.125582 0.121035
0.743801 0.143069 0.137835
0.790478 0.163989 0.157137
0.843946 0.189227 0.180056
0.909575 0.222461 0.209506
1 0.282628 0.26038
0.0147555 0.0586099 0.0155642
0.0301823 0.0598001 0.0168307
0.0463417 0.0611734 0.0175326
0.0637064 0.0624399 0.0182956
0.0803388 0.0635691 0.0184024
0.0999924 0.0647593 0.0190127
0.120012 0.0658274 0.0197299
0.14139 0.0669413 0.0205081
0.163256 0.0676127 0.0213016
0.185382 0.0682689 0.0221256
0.208698 0.0687724 0.0230869
0.233906 0.0693675 0.0242924
0.258671 0.0697337 0.0256504
0.283528 0.0701152 0.0272221
0.308659 0.0704967 0.0290837
0.334279 0.0712749 0.0313573
0.36051 0.0722362 0.0341192
0.387228 0.0737011 0.0372931
0.414893 0.0754253 0.0409552
0.442863 0.0779583 0.0451057
0.471427 0.0808423 0.0496223
0.502724 0.0852522 0.0553902
0.536309 0.0902419 0.0624704
0.568536 0.0961166 0.0701915
0.600687 0.104891 0.0806592
0.634791 0.116472 0.0937362
0.670787 0.129809 0.107988
0.709148 0.145037 0.123491
0.750454 0.162234 0.140475
0.796963 0.182681 0.16022
0.849882 0.207691 0.183368
0.914931 0.24097 0.213199
1 0.300786 0.26479
0.0165408 0.0761425 0.0178073
0.0324559 0.0773327 0.0192416
0.049012 0.0788128 0.0203555
0.0664378 0.0803998 0.0210727
0.0837415 0.0818952 0.0220951
0.103441 0.0832685 0.0222629
0.123461 0.0847028 0.0229953
0.144747 0.0861677 0.0239109
0.166522 0.0875105 0.0248875
0.18854 0.0887007 0.0258793
0.211795 0.0897993 0.026978
0.236988 0.0908522 0.028275
0.261753 0.091783 0.0297093
0.286656 0.0926986 0.0313726
0.311879 0.0937057 0.0332799
0.337682 0.0947433 0.035523
0.364141 0.0960098 0.0381323
0.39118 0.0975814 0.0411383
0.419104 0.0995499 0.0446479
0.447272 0.101991 0.0484321
0.47602 0.105013 0.0530709
0.507576 0.109041 0.0589151
0.541329 0.114076 0.0661173
0.573678 0.119631 0.0740063
0.606897 0.126223 0.0834516
0.64155 0.136156 0.0957504
0.677623 0.148852 0.109957
0.715801 0.163668 0.125734
0.756863 0.180575 0.143069
0.802991 0.200855 0.163073
0.855619 0.225437 0.186679
0.919966 0.258488 0.216892
1 0.31812 0.269108
0.0185397 0.097322 0.0204166
0.0349584 0.098497 0.0220188
0.0518959 0.0999313 0.0234531
0.0695354 0.101686 0.0246891
0.087129 0.103304 0.0255436
0.107073 0.104707 0.0267643
0.127382 0.106111 0.0269322
0.148745 0.10782 0.0278172
0.170489 0.109438 0.0289006
0.192401 0.110948 0.0300755
0.215579 0.112352 0.0313115
0.240742 0.113924 0.0327916
0.265476 0.115328 0.0343328
0.290394 0.11667 0.0360571
0.315709 0.117906 0.0380102
0.341573 0.119493 0.0403143
0.368124 0.121111 0.0428626
0.395346 0.122927 0.0457313
0.423484 0.124849 0.0488289
0.451896 0.12755 0.0527504
0.480842 0.130602 0.0573739
0.512657 0.134524 0.0633402
0.546548 0.139345 0.0706798
0.579034 0.144976 0.078706
0.612451 0.151202 0.0881208
0.648188 0.159091 0.0987716
0.684794 0.170001 0.112352
0.723003 0.184192 0.128222
0.763745 0.2009 0.145861
0.809552 0.220783 0.166247
0.861616 0.245136 0.190173
0.925414 0.277775 0.220951
1 0.337469 0.273747
0.0206455 0.119036 0.0233616
0.0375219 0.120134 0.0251164
0.0548867 0.121721 0.0268406
0.0726024 0.123323 0.0284276
0.0907912 0.125093 0.0297093
0.110765 0.126741 0.0309453
0.131319 0.128374 0.0321813
0.152956 0.129961 0.0323796
0.174792 0.131823 0.0333562
0.196704 0.13344 0.0345769
0.219883 0.135302 0.035996
0.244923 0.137072 0.037583
0.269657 0.138888 0.039292
0.29453 0.14049 0.0410925
0.319829 0.142351 0.043183
0.345708 0.144045 0.0453803
0.372351 0.146044 0.0478981
0.399664 0.147967 0.0505074
0.427893 0.150439 0.0539406
0.456443 0.153063 0.057908
0.485588 0.156359 0.062623
0.517555 0.16022 0.0686351
0.551644 0.165225 0.0760815
0.584314 0.170367 0.0844129
0.617853 0.176577 0.093492
0.653758 0.183948 0.103792
0.691356 0.193286 0.115877
0.730159 0.205524 0.130907
0.770764 0.22179 0.14876
0.81622 0.241154 0.169619
0.86775 0.265507 0.193927
0.930648 0.297765 0.225147
1 0.357061 0.278752
0.0230106 0.142092 0.0267643
0.040238 0.143343 0.028687
0.0580301 0.144747 0.0306249
0.0762036 0.146578 0.0325475
0.0948959 0.148287 0.0341955
0.114931 0.150164 0.0357214
0.135439 0.151919 0.0373846
0.157305 0.15378 0.0385901
0.179416 0.155612 0.0388037
0.201541 0.157427 0.0397955
0.224643 0.159319 0.0411688
0.249714 0.161532 0.0428931
0.274357 0.163561 0.0447089
0.299229 0.165545 0.0467079
0.324498 0.167468 0.0487068
0.350423 0.169635 0.0509804
0.37705 0.171786 0.0532998
0.404349 0.174228 0.05626
0.432654 0.176715 0.0598611
0.461234 0.179889 0.0640726
0.49044 0.18323 0.0690013
0.522591 0.187243 0.0752117
0.556848 0.191989 0.0829633
0.589517 0.197498 0.0910506
0.623102 0.203494 0.0999313
0.659236 0.21059 0.110109
0.697169 0.218952 0.121401
0.736751 0.229938 0.135103
0.778058 0.244083 0.152041
0.823011 0.263371 0.173266
0.873976 0.287098 0.198047
0.936156 0.319066 0.229847
1 0.377859 0.284352
0.0254826 0.165637 0.0305333
0.0430457 0.166979 0.0326085
0.0611887 0.168551 0.0347601
0.0799725 0.170321 0.0369421
0.0990463 0.172061 0.0388647
0.119265 0.174029 0.0407874
0.13994 0.175998 0.0425574
0.161883 0.177966 0.0448615
0.184115 0.179904 0.0458381
0.206409 0.181842 0.0459907
0.229755 0.183886 0.0470436
0.254871 0.18616 0.0486305
0.2795 0.188403 0.0505074
0.304326 0.190616 0.0524605
0.329549 0.192874 0.0543069
0.355383 0.195209 0.056672
0.381979 0.197696 0.0594186
0.409293 0.200366 0.0626841
0.437568 0.203326 0.0665293
0.466224 0.2065 0.0710307
0.49546 0.210025 0.0762493
0.52755 0.214298 0.0829938
0.561852 0.219257 0.0906539
0.594644 0.224567 0.0985122
0.628367 0.230426 0.107179
0.664424 0.237537 0.117113
0.702358 0.245869 0.128344
0.74255 0.255543 0.140963
0.784146 0.268711 0.156985
0.829526 0.28632 0.177462
0.88011 0.309438 0.202533
0.941344 0.341009 0.234852
1 0.399115 0.290242
0.0280461 0.18938 0.0346075
0.0458534 0.190814 0.0368505
0.0643015 0.192355 0.0391546
0.0841077 0.194278 0.0415808
0.103395 0.196033 0.0437781
0.123842 0.198047 0.0460059
0.14461 0.200031 0.0481117
0.166552 0.202304 0.0502327
0.188891 0.204395 0.0531624
0.211322 0.206409 0.0537881
0.234852 0.208438 0.0539101
0.260121 0.21091 0.0550546
0.284871 0.21323 0.0566262
0.309651 0.215595 0.0582437
0.334844 0.21796 0.060441
0.360708 0.220615 0.0630961
0.387243 0.223346 0.0661631
0.414511 0.226276 0.0697032
0.442725 0.229313 0.0738842
0.47129 0.232898 0.0786908
0.500542 0.236561 0.0844434
0.532647 0.240955 0.0910353
0.566857 0.245975 0.0986343
0.599634 0.251438 0.106538
0.633204 0.25745 0.115145
0.669276 0.264439 0.125002
0.707149 0.272541 0.135927
0.747311 0.282155 0.148257
0.789975 0.293492 0.162493
0.835386 0.310216 0.182483
0.88539 0.332708 0.207965
0.946044 0.363455 0.240589
1 0.420676 0.296513
0.0308537 0.214466 0.0392462
0.0489204 0.2159 0.0415961
0.0672923 0.217762 0.0441444
0.0882277 0.219516 0.0467231
0.107774 0.221485 0.049134
0.128679 0.223407 0.0516213
0.149752 0.22562 0.0541085
0.171817 0.227756 0.0565499
0.194217 0.230137 0.0590982
0.216571 0.232212 0.0624247
0.240223 0.234546 0.0627909
0.265629 0.236851 0.0624552
0.290486 0.239399 0.0635996
0.315358 0.241779 0.0654002
0.340612 0.244526 0.0677653
0.366339 0.247181 0.0705882
0.39292 0.250172 0.073991
0.420066 0.253208 0.077821
0.448295 0.256672 0.0826276
0.476738 0.260182 0.0876173
0.506035 0.264088 0.0932326
0.538064 0.268452 0.099855
0.572198 0.273869 0.1075
0.604807 0.279225 0.115297
0.6383 0.28542 0.123903
0.674266 0.292256 0.1337
0.71191 0.300649 0.144686
0.751949 0.309789 0.15697
0.794507 0.320958 0.170962
0.840742 0.335836 0.18909
0.890715 0.357351 0.214282
0.950347 0.387381 0.247349
1 0.443976 0.304036
0.0338445 0.241733 0.0445869
0.0520027 0.243381 0.0471351
0.0709239 0.245106 0.0498054
0.0927443 0.247181 0.0526741
0.11284 0.249058 0.0552834
0.134066 0.251133 0.0580301
0.155398 0.253162 0.0607156
0.177752 0.255558 0.0635233
0.200122 0.257939 0.0662852
0.222644 0.260227 0.0688029
0.24625 0.262455 0.0727855
0.271748 0.265156 0.0731365
0.296696 0.26772 0.0733196
0.321706 0.270329 0.0747539
0.346975 0.272938 0.0769818
0.372732 0.275975 0.0799268
0.399237 0.279011 0.0837873
0.426368 0.282307 0.0878462
0.454444 0.28571 0.0924086
0.482979 0.289509 0.0975509
0.511986 0.293553 0.103166
0.543938 0.298192 0.109804
0.577966 0.30341 0.117403
0.610452 0.309102 0.125292
0.6439 0.315068 0.133852
0.679515 0.322225 0.143633
0.717189 0.330007 0.154574
0.756756 0.339574 0.166873
0.798962 0.350484 0.180835
0.845121 0.364828 0.198337
0.895232 0.38468 0.222751
0.954223 0.413931 0.255634
1 0.468727 0.312749
0.036759 0.26862 0.050248
0.0546578 0.27039 0.0529335
0.0748608 0.272297 0.0557565
0.0973526 0.274327 0.0586709
0.117845 0.276249 0.0614023
0.139513 0.278355 0.0643015
0.161151 0.280507 0.0669718
0.183658 0.282841 0.0700389
0.206332 0.285222 0.0732128
0.228885 0.287633 0.0765545
0.252522 0.290166 0.0803082
0.277852 0.292912 0.0857099
0.302953 0.295521 0.0858778
0.328023 0.298253 0.086244
0.35346 0.301015 0.0880293
0.379232 0.304006 0.0907301
0.405615 0.307225 0.0940414
0.432685 0.310613 0.098024
0.460761 0.314199 0.102617
0.489143 0.318029 0.107729
0.518135 0.322103 0.113375
0.54995 0.326818 0.120027
0.583841 0.332235 0.127718
0.61619 0.337774 0.135515
0.649317 0.343923 0.14406
0.684825 0.350927 0.153826
0.722072 0.358984 0.164782
0.761486 0.368139 0.17705
0.803174 0.379065 0.190967
0.849149 0.392874 0.207919
0.898878 0.412055 0.232044
0.957137 0.440192 0.265293
1 0.493797 0.322759
0.0393988 0.295781 0.0560616
0.0575875 0.297658 0.0588693
0.0788434 0.299535 0.061738
0.102129 0.301701 0.0645151
0.123064 0.303655 0.0673838
0.145144 0.305791 0.0705577
0.167147 0.307881 0.0738384
0.189853 0.310384 0.0774243
0.212696 0.31284 0.0814069
0.235431 0.315282 0.0852522
0.259007 0.317815 0.0893873
0.284596 0.320699 0.0942702
0.309316 0.323552 0.0996872
0.334462 0.326314 0.0997635
0.359884 0.329076 0.100313
0.385748 0.332219 0.102403
0.412131 0.3355 0.105348
0.439323 0.338857 0.109133
0.467216 0.342428 0.113542
0.495537 0.346441 0.118578
0.52433 0.350622 0.124163
0.555993 0.355413 0.130816
0.58967 0.360739 0.138369
0.621897 0.3664 0.146242
0.654749 0.372534 0.154772
0.690074 0.379477 0.164508
0.727108 0.387243 0.175433
0.766033 0.396582 0.187671
0.807416 0.407218 0.201709
0.85301 0.42063 0.21825
0.902312 0.438972 0.242039
0.959487 0.466636 0.275517
1 0.518761 0.333547
0.0415045 0.323491 0.0618601
0.0608377 0.325322 0.0647288
0.0838178 0.327459 0.0678569
0.107454 0.329458 0.0711681
0.128756 0.331609 0.0744182
0.15108 0.3337 0.0779736
0.173449 0.336065 0.0819715
0.196429 0.338369 0.0859693
0.219638 0.340887 0.090135
0.242374 0.343297 0.094255
0.266087 0.34609 0.0987716
0.291539 0.348867 0.103807
0.316426 0.351843 0.109209
0.341207 0.354665 0.114702
0.366629 0.357748 0.114992
0.392462 0.360723 0.115694
0.418936 0.364096 0.118105
0.445975 0.367437 0.121386
0.473884 0.371283 0.125566
0.502007 0.375113 0.130297
0.53077 0.3794 0.135805
0.562203 0.3841 0.142306
0.595605 0.389761 0.149905
0.627634 0.395117 0.157626
0.660319 0.401297 0.166186
0.69543 0.407965 0.175875
0.732052 0.416007 0.18677
0.77055 0.424933 0.199008
0.811444 0.435584 0.212955
0.85684 0.448264 0.22948
0.90547 0.4663 0.253086
0.961669 0.492866 0.286641
1 0.543832 0.345037
0.0440528 0.351965 0.0685588
0.0646525 0.353994 0.0717632
0.0889296 0.355962 0.0752422
0.113069 0.358251 0.0789807
0.134936 0.360296 0.082826
0.157702 0.362539 0.0867628
0.18027 0.364706 0.0907759
0.203586 0.367239 0.09514
0.226856 0.369726 0.0994736
0.249805 0.372259 0.103929
0.273548 0.374838 0.108675
0.299092 0.377874 0.114061
0.323964 0.380758 0.1196
0.348699 0.383764 0.12546
0.373816 0.386694 0.130907
0.399634 0.38996 0.131655
0.426062 0.39324 0.132586
0.453101 0.396689 0.135225
0.480797 0.400366 0.138827
0.508858 0.404425 0.143343
0.537392 0.408621 0.148531
0.568765 0.413382 0.154925
0.601923 0.418753 0.162249
0.633677 0.424369 0.16997
0.666133 0.43032 0.178424
0.70074 0.437186 0.188083
0.736996 0.4448 0.198901
0.775143 0.453788 0.211139
0.815824 0.463783 0.225132
0.860349 0.476524 0.241718
0.908156 0.493874 0.265171
0.963439 0.519753 0.298787
1 0.569009 0.357412
0.0470893 0.38143 0.0764782
0.0696727 0.383429 0.0801251
0.0951095 0.385565 0.0842451
0.119631 0.387808 0.0882124
0.141985 0.389838 0.0920729
0.164981 0.392142 0.0962081
0.187671 0.394476 0.100481
0.211368 0.396887 0.104997
0.234699 0.399405 0.109651
0.257755 0.401938 0.114321
0.281575 0.404654 0.119387
0.307149 0.407584 0.125002
0.332021 0.410483 0.130709
0.356725 0.413474 0.136812
0.381582 0.416602 0.143114
0.407141 0.419806 0.148669
0.433417 0.423148 0.149859
0.460395 0.426612 0.151308
0.487984 0.430396 0.153826
0.515923 0.434318 0.157809
0.544411 0.438422 0.162631
0.575509 0.443153 0.168719
0.608454 0.448569 0.175875
0.639902 0.454017 0.183398
0.67219 0.4598 0.191714
0.706462 0.466499 0.201328
0.742168 0.474205 0.212009
0.779889 0.482811 0.224216
0.819791 0.492775 0.238087
0.863645 0.50518 0.254856
0.91078 0.521965 0.278431
0.964752 0.546975 0.312016
1 0.594202 0.372107
0.0514992 0.411734 0.0860609
0.0755322 0.413809 0.0899062
0.101625 0.415869 0.0939345
0.127138 0.418173 0.0981918
0.149493 0.42031 0.102205
0.172732 0.422629 0.106569
0.195834 0.424826 0.110948
0.21944 0.42742 0.115785
0.243091 0.429908 0.120638
0.266316 0.432425 0.125597
0.290227 0.434989 0.1308
0.315862 0.438025 0.136706
0.34049 0.441016 0.142611
0.365301 0.443915 0.148806
0.390127 0.44686 0.155398
0.415427 0.450217 0.162219
0.441199 0.453696 0.167895
0.468147 0.457084 0.169619
0.495613 0.460685 0.171633
0.523415 0.464698 0.174273
0.55172 0.468757 0.178302
0.582391 0.473564 0.183932
0.615137 0.478691 0.190707
0.646479 0.484016 0.198077
0.678233 0.489799 0.20621
0.712093 0.496391 0.21561
0.747372 0.503761 0.226154
0.784695 0.512169 0.238361
0.823987 0.521889 0.252094
0.866636 0.534264 0.269306
0.912825 0.550393 0.292805
0.96585 0.574395 0.326467
1 0.619196 0.390066
0.057145 0.443183 0.0965286
0.0828565 0.445197 0.100526
0.109667 0.447501 0.104829
0.135393 0.449577 0.109224
0.158099 0.45185 0.113436
0.18146 0.454078 0.117891
0.204791 0.456519 0.122591
0.228534 0.458869 0.127504
0.252293 0.461463 0.132662
0.275395 0.463874 0.137743
0.299596 0.466621 0.143328
0.325048 0.469429 0.149264
0.349813 0.47245 0.155474
0.374395 0.475257 0.161761
0.399191 0.478416 0.168521
0.424399 0.481407 0.175723
0.450019 0.484901 0.183001
0.476173 0.488365 0.188815
0.503624 0.492149 0.191196
0.531182 0.495827 0.193866
0.559274 0.499992 0.197116
0.589868 0.504433 0.201236
0.622248 0.509773 0.207294
0.65304 0.514824 0.214191
0.684504 0.520562 0.222065
0.717952 0.526787 0.231174
0.752789 0.534173 0.241718
0.789349 0.542199 0.25359
0.828092 0.551629 0.267384
0.869581 0.563607 0.285191
0.914763 0.579431 0.308934
0.967056 0.601801 0.343969
1 0.644846 0.409247
0.06392 0.475196 0.107912
0.0918593 0.477272 0.112169
0.118456 0.479377 0.116518
0.144091 0.481804 0.121141
0.167285 0.483894 0.125505
0.191043 0.486183 0.130266
0.21442 0.488365 0.135042
0.238392 0.490944 0.140215
0.261997 0.493477 0.145449
0.285405 0.495918 0.15082
0.309346 0.498421 0.156466
0.334905 0.501411 0.162768
0.359594 0.504234 0.169055
0.384268 0.507057 0.175616
0.408881 0.509911 0.182376
0.433783 0.513176 0.1897
0.459434 0.51635 0.197574
0.485237 0.519875 0.205127
0.511833 0.523522 0.2112
0.539147 0.527443 0.214176
0.566918 0.53135 0.217609
0.59733 0.53579 0.221881
0.629328 0.540688 0.2271
0.660044 0.545724 0.233066
0.690883 0.551263 0.239872
0.723918 0.557366 0.248417
0.758343 0.564126 0.258457
0.794141 0.572244 0.270237
0.83209 0.581247 0.283833
0.872648 0.592844 0.303349
0.916793 0.607767 0.328496
0.967666 0.629389 0.364385
1 0.670008 0.429297
0.0727703 0.507881 0.120363
0.101076 0.510048 0.124743
0.128389 0.512215 0.129366
0.154482 0.514443 0.134081
0.177401 0.516609 0.138598
0.20145 0.518837 0.143526
0.225177 0.52108 0.148562
0.24889 0.523583 0.153857
0.27274 0.525963 0.159319
0.295995 0.52842 0.164828
0.320104 0.530953 0.170764
0.345464 0.533761 0.177218
0.370123 0.536507 0.183658
0.394461 0.539345 0.190326
0.419028 0.542214 0.197269
0.443824 0.545235 0.204623
0.46894 0.548424 0.212512
0.49482 0.551659 0.220996
0.520867 0.555428 0.228885
0.547753 0.559075 0.235294
0.575219 0.56289 0.238911
0.605081 0.567239 0.243366
0.636744 0.572076 0.248844
0.666835 0.576898 0.254734
0.697353 0.582162 0.261601
0.729625 0.58819 0.269856
0.7635 0.594766 0.279789
0.79881 0.602304 0.291386
0.835599 0.611109 0.305959
0.875334 0.622126 0.32546
0.918349 0.636454 0.3505
0.968292 0.656565 0.386007
1 0.695338 0.450294
0.0840925 0.543938 0.13492
0.113176 0.545983 0.139513
0.140352 0.547982 0.144213
0.166567 0.550347 0.149248
0.189639 0.552453 0.153903
0.213993 0.554604 0.159075
0.237583 0.556649 0.164187
0.261234 0.559258 0.169741
0.285008 0.561639 0.175372
0.30811 0.564034 0.181079
0.331975 0.566354 0.187076
0.357565 0.569162 0.193805
0.381979 0.571847 0.200427
0.406043 0.574609 0.207233
0.430518 0.577142 0.214298
0.455161 0.580194 0.221866
0.480201 0.5832 0.22977
0.505623 0.586343 0.23827
0.531426 0.589654 0.247333
0.557717 0.593378 0.255695
0.58436 0.597177 0.262715
0.613947 0.601236 0.267445
0.644923 0.605798 0.272969
0.674571 0.610498 0.279103
0.704311 0.615641 0.285969
0.736446 0.621057 0.294438
0.769512 0.627222 0.304204
0.803845 0.634638 0.315938
0.83946 0.643046 0.331426
0.878126 0.653422 0.350591
0.920195 0.66659 0.37554
0.968399 0.685771 0.410544
1 0.722026 0.473884
0.0989242 0.582254 0.151644
0.12726 0.584176 0.156344
0.154757 0.586389 0.161364
0.180926 0.588357 0.166476
0.203693 0.590631 0.171298
0.22797 0.592554 0.176623
0.251606 0.594858 0.182025
0.27538 0.597025 0.18764
0.299229 0.59939 0.193591
0.32224 0.601541 0.199405
0.346014 0.604074 0.205722
0.371008 0.606577 0.212436
0.395209 0.609277 0.219348
0.418952 0.61178 0.2262
0.443503 0.614389 0.23357
0.467948 0.616876 0.241169
0.492668 0.619883 0.249241
0.517632 0.622751 0.257633
0.54345 0.625986 0.266957
0.568719 0.629343 0.276417
0.594736 0.633097 0.285298
0.623438 0.636866 0.293599
0.653773 0.641505 0.299565
0.682872 0.645579 0.305684
0.712139 0.650446 0.312917
0.743221 0.655573 0.321294
0.775311 0.661723 0.331502
0.808652 0.668269 0.344167
0.84303 0.676417 0.359487
0.88069 0.685908 0.378302
0.921218 0.698573 0.403342
0.967895 0.715984 0.437491
1 0.74963 0.499565
0.114 0.618921 0.168673
0.142824 0.620813 0.173648
0.169528 0.622736 0.178622
0.195773 0.624903 0.1841
0.218433 0.626932 0.189059
0.242695 0.628916 0.194553
0.266239 0.630793 0.200076
0.289967 0.633143 0.206043
0.31342 0.63534 0.212024
0.336446 0.637461 0.218082
0.360189 0.639506 0.224491
0.385031 0.642115 0.231495
0.408484 0.644709 0.238437
0.432593 0.646967 0.24567
0.456184 0.649363 0.252872
0.480278 0.652003 0.260761
0.504631 0.654658 0.268894
0.529244 0.657496 0.277409
0.55462 0.660243 0.286534
0.579965 0.663417 0.296223
0.605493 0.666499 0.307774
0.633112 0.670405 0.31722
0.662715 0.674449 0.325734
0.6907 0.678798 0.332433
0.719234 0.683207 0.339925
0.749325 0.688167 0.348974
0.780697 0.693492 0.359533
0.81294 0.699962 0.372274
0.846616 0.707271 0.387137
0.88275 0.716426 0.406104
0.921813 0.727962 0.43064
0.966857 0.744259 0.464164
1 0.774807 0.524575
0.131701 0.656275 0.187381
0.159686 0.658122 0.192416
0.18645 0.660044 0.197757
0.211872 0.662058 0.203204
0.23505 0.663859 0.208408
0.259358 0.66566 0.21416
0.281987 0.66775 0.219806
0.305821 0.669734 0.22591
0.329091 0.671778 0.232074
0.351675 0.673808 0.238331
0.374823 0.675959 0.244877
0.399634 0.678157 0.25211
0.423148 0.68043 0.259236
0.447028 0.682506 0.26659
0.470527 0.684779 0.274067
0.493629 0.687266 0.281926
0.517769 0.689647 0.290105
0.541939 0.692226 0.298817
0.566766 0.694911 0.307973
0.591897 0.697475 0.318517
0.616861 0.700267 0.330053
0.643458 0.70367 0.34313
0.672145 0.707576 0.353323
0.699138 0.711543 0.362066
0.726802 0.715648 0.369604
0.756115 0.72018 0.378714
0.786404 0.725277 0.389227
0.817578 0.731167 0.401648
0.850065 0.737896 0.416678
0.884932 0.746273 0.435706
0.922652 0.756878 0.459571
0.96585 0.771725 0.491997
1 0.799191 0.550378
0.15314 0.695964 0.208789
0.180697 0.697627 0.214069
0.206516 0.699275 0.219501
0.231998 0.701274 0.225177
0.254841 0.702907 0.23061
0.277806 0.704784 0.236378
0.300984 0.706325 0.242267
0.324422 0.708354 0.248615
0.346975 0.710323 0.254917
0.369818 0.712016 0.261402
0.392233 0.713893 0.268055
0.416663 0.716075 0.275547
0.439948 0.718074 0.282811
0.462837 0.720119 0.290242
0.485954 0.721904 0.297856
0.509041 0.724208 0.305913
0.532692 0.726314 0.31426
0.556359 0.728542 0.323613
0.580575 0.730648 0.333623
0.605066 0.733074 0.344366
0.629404 0.735561 0.355581
0.65539 0.738613 0.368231
0.682719 0.741711 0.383185
0.70869 0.745525 0.39292
0.735454 0.749172 0.402365
0.763439 0.753445 0.411536
0.792126 0.75819 0.422019
0.822675 0.763287 0.434821
0.853819 0.769436 0.449699
0.886992 0.777142 0.468086
0.923339 0.786419 0.49099
0.965011 0.799542 0.522332
1 0.82446 0.577585
0.182879 0.736339 0.235691
0.20705 0.737987 0.24065
0.232456 0.739788 0.246174
0.257145 0.741253 0.251637
0.278599 0.743069 0.257069
0.300877 0.74461 0.262837
0.323247 0.746426 0.268879
0.34609 0.74789 0.275029
0.368444 0.749767 0.281575
0.390005 0.751308 0.287984
0.412512 0.75314 0.295048
0.436057 0.754788 0.302541
0.459312 0.756542 0.310338
0.481392 0.758206 0.317922
0.504082 0.760037 0.326146
0.52665 0.761593 0.334554
0.549523 0.763561 0.343587
0.572534 0.765255 0.35285
0.596109 0.767422 0.36289
0.619226 0.769421 0.373175
0.643137 0.771588 0.384298
0.668452 0.773907 0.397116
0.695094 0.776822 0.411917
0.719722 0.779583 0.426291
0.7449 0.783169 0.436927
0.771572 0.786816 0.447684
