subtle niceties LUT V2 beta 8 (SSH-TS reimagined).cube
TITLE "Generated by Resolve"
LUT_3D_SIZE 9
0.0135653 0.0119173 0.0166323
0.0662394 0.0163272 0.0164645
0.105379 0.0274815 0.0231479
0.172045 0.0287327 0.0226749
0.235798 0.0370489 0.0290837
0.310369 0.0493629 0.0390784
0.406241 0.0718853 0.0552987
0.532219 0.105852 0.0856794
0.781826 0.185153 0.163165
0.0279088 0.0658579 0.0234226
0.076173 0.0715953 0.0172885
0.140276 0.0688945 0.0125277
0.192462 0.0731365 0.0238041
0.25156 0.085481 0.0333562
0.326528 0.0953841 0.0466926
0.421118 0.111681 0.0651713
0.545174 0.137667 0.09337
0.796948 0.202274 0.165362
0.0366522 0.126253 0.0344091
0.0756085 0.13666 0.0271763
0.150835 0.139467 0.0173495
0.224384 0.135286 0.014786
0.289616 0.137377 0.0192264
0.354849 0.153521 0.0362402
0.44387 0.172335 0.064271
0.564813 0.196017 0.104845
0.814588 0.25774 0.177768
0.0268406 0.198947 0.0499123
0.0879988 0.2065 0.0438087
0.157412 0.216739 0.0218509
0.241825 0.219532 0.0102083
0.324468 0.215595 0.0121767
0.405356 0.217624 0.00831617
0.486397 0.238727 0.0337224
0.59678 0.267384 0.0880446
0.835447 0.325612 0.181643
0.00062562 0.281041 0.0719615
0.0919509 0.286549 0.0742351
0.164828 0.299184 0.042649
0.257755 0.307881 0.00535592
0.348226 0.311498 0.00416571
0.439094 0.311498 0.0084535
0.537942 0.318349 0
0.647471 0.34107 0.034638
0.862425 0.404761 0.163317
0 0.37467 0.131075
0.0658427 0.382864 0.116258
0.180682 0.392309 0.0870222
0.260075 0.409766 0.0339971
0.370138 0.416724 0
0.471748 0.421424 0.00158694
0.581018 0.425315 0.0145876
0.704662 0.436286 0.0102998
0.910445 0.487114 0.121965
0 0.487846 0.21088
0 0.503441 0.17113
0.188159 0.509819 0.163745
0.289586 0.525872 0.109636
0.380621 0.544259 0.0348058
0.503304 0.552865 0
0.619974 0.562264 0.0241398
0.753109 0.569818 0.0756237
0.980941 0.586175 0.1411
0 0.632197 0.301137
0 0.653101 0.242786
0.181399 0.659236 0.236423
0.327123 0.671214 0.201602
0.423682 0.690181 0.137789
0.531304 0.707652 0.0931716
0.661372 0.722362 0.0913252
0.783871 0.741558 0.156649
0.990219 0.761578 0.235599
0 0.896834 0.3794
0.0896468 0.904234 0.350271
0.333745 0.905486 0.341207
0.455009 0.914092 0.333989
0.54435 0.927367 0.343618
0.629068 0.944198 0.35259
0.728054 0.959411 0.388296
0.822385 0.971984 0.48368
0.953552 0.989166 0.616938
0.0272221 0.0267338 0.0606851
0.0762341 0.0277562 0.0712291
0.113619 0.0379034 0.0796979
0.178714 0.0444343 0.069398
0.254002 0.0361028 0.0655528
0.330419 0.0395209 0.0661173
0.424292 0.0579232 0.0768749
0.544106 0.0960861 0.106859
0.791363 0.179339 0.179904
0.0304723 0.078233 0.0742504
0.0781415 0.0826276 0.0803693
0.155779 0.0764935 0.0678111
0.211383 0.078645 0.0704356
0.254215 0.103334 0.0862135
0.339086 0.100038 0.0783551
0.434485 0.111147 0.0903944
0.556497 0.137392 0.11751
0.806241 0.207004 0.185794
0.0348516 0.142962 0.0651713
0.0953994 0.143603 0.0873121
0.151705 0.153674 0.0821393
0.23183 0.154025 0.0610513
0.298756 0.152392 0.0771496
0.365087 0.164569 0.0907912
0.454978 0.181201 0.100587
0.576684 0.200488 0.135241
0.8262 0.258015 0.19765
0.0354772 0.207172 0.109148
0.109453 0.217227 0.0908827
0.158907 0.228931 0.0976272
0.24892 0.235798 0.0674144
0.332616 0.236362 0.0526436
0.415534 0.234348 0.0626688
0.497322 0.251301 0.0918898
0.60412 0.282414 0.132036
0.845212 0.332723 0.209964
0.0152285 0.289647 0.118181
0.115969 0.296941 0.112337
0.179126 0.310826 0.0996109
0.259998 0.323766 0.0767071
0.352255 0.330388 0.0626383
0.443946 0.333684 0.0618906
0.556848 0.328573 0.0633249
0.660548 0.352972 0.111223
0.86923 0.419516 0.201968
0 0.383993 0.144121
0.0985275 0.392096 0.141466
0.196063 0.403372 0.134432
0.271855 0.422095 0.103212
0.372671 0.433585 0.0783246
0.471199 0.443687 0.0712902
0.586374 0.447654 0.085771
0.723766 0.447745 0.100053
0.921981 0.500542 0.197513
0 0.500343 0.195468
0.0607004 0.511177 0.179812
0.211749 0.520012 0.182147
0.303258 0.537926 0.158434
0.389456 0.558495 0.120073
0.506111 0.570657 0.103655
0.620325 0.585367 0.114504
0.753948 0.596475 0.143542
0.987305 0.609537 0.201602
0 0.644511 0.290196
0 0.662303 0.24332
0.228473 0.667979 0.236561
0.344503 0.682857 0.229831
0.436545 0.703029 0.204456
0.538384 0.723445 0.193118
0.664652 0.741054 0.196719
0.799969 0.75671 0.234562
1 0.776013 0.289113
0 0.908904 0.368963
0.16408 0.911986 0.353262
0.350042 0.915404 0.367224
0.468589 0.924865 0.380774
0.562158 0.938994 0.390753
0.644617 0.956512 0.404868
0.735012 0.968826 0.477684
0.819623 0.985641 0.55726
0.955947 0.99733 0.692546
0.0455329 0.045304 0.116381
0.102327 0.0458534 0.113649
0.141634 0.0492561 0.127611
0.183886 0.055787 0.149248
0.249027 0.070222 0.142977
0.333425 0.0672618 0.140902
0.432822 0.0696727 0.148211
0.560571 0.0943313 0.159838
0.809842 0.164569 0.208576
0.0317235 0.0876326 0.141817
0.103471 0.0923171 0.128191
0.154208 0.0922255 0.146899
0.207568 0.100481 0.156542
0.277653 0.111543 0.137011
0.354238 0.114199 0.139818
0.461997 0.0967422 0.133898
0.580774 0.119936 0.149889
0.82443 0.195666 0.208972
0.043122 0.154223 0.136629
0.114656 0.154376 0.143221
0.156176 0.163378 0.15964
0.249073 0.161669 0.147143
0.311955 0.168078 0.151736
0.380835 0.177172 0.16054
0.457008 0.20528 0.180667
0.595605 0.201129 0.172702
0.840406 0.258534 0.224079
0.0266728 0.231357 0.130236
0.111482 0.235981 0.137346
0.168872 0.241215 0.170993
0.250721 0.249897 0.171435
0.334508 0.255161 0.161868
0.421683 0.256138 0.162356
0.513313 0.260594 0.188937
0.619394 0.291844 0.203159
0.858625 0.339223 0.244205
0.0214847 0.299199 0.193576
0.11342 0.312779 0.173373
0.207935 0.318914 0.18497
0.257816 0.338323 0.190875
0.349737 0.35137 0.168978
0.466987 0.349828 0.130251
0.56492 0.354055 0.154269
0.673915 0.36997 0.20206
0.883055 0.432212 0.261479
0.026978 0.38735 0.233463
0.0868238 0.408988 0.196246
0.223499 0.417288 0.19266
0.283009 0.435279 0.205203
0.370977 0.452689 0.189807
0.486244 0.461173 0.170703
0.605371 0.467094 0.155505
0.738537 0.471229 0.161837
0.933944 0.51693 0.279515
0 0.508797 0.246143
0.0591592 0.526787 0.223972
0.235554 0.534646 0.233524
0.321721 0.552956 0.228687
0.396719 0.576288 0.213672
0.508415 0.592187 0.202655
0.641032 0.602029 0.20296
0.776074 0.614054 0.211017
0.995697 0.633951 0.273121
0 0.658335 0.288716
0.0167391 0.674647 0.270466
0.243748 0.682322 0.285496
0.364736 0.697505 0.291508
0.45211 0.719005 0.286061
0.545235 0.742214 0.28069
0.666529 0.76202 0.290379
0.811536 0.775357 0.323583
1 0.792859 0.34583
0 0.920851 0.373724
0.173907 0.924529 0.384405
0.361654 0.92929 0.412024
0.495598 0.937697 0.427207
0.583719 0.952621 0.440528
0.658854 0.966964 0.488441
0.741054 0.978393 0.574182
0.837476 0.994873 0.63386
0.977478 0.995331 0.782559
0.0690929 0.0689097 0.188846
0.117494 0.0778821 0.179522
0.175357 0.062974 0.192615
0.223117 0.0638743 0.207187
0.266926 0.0773785 0.225422
0.331273 0.0990616 0.235096
0.433387 0.110674 0.230213
0.565438 0.112551 0.240284
0.822354 0.172137 0.277653
0.0400092 0.113405 0.202747
0.122606 0.114748 0.193668
0.186099 0.113161 0.196048
0.231022 0.113283 0.224369
0.280598 0.12845 0.237995
0.349355 0.154971 0.228534
0.456748 0.154772 0.226215
0.592691 0.144381 0.234302
0.84564 0.185855 0.268132
0.0612497 0.170092 0.205158
0.0960708 0.165759 0.233433
0.182376 0.173602 0.222202
0.244816 0.180194 0.236774
0.320607 0.177478 0.251835
0.394949 0.196872 0.237125
0.478447 0.221271 0.23949
0.61941 0.209567 0.239384
0.870878 0.236439 0.259022
0.0758221 0.239551 0.219348
0.116762 0.246098 0.233127
0.188312 0.250202 0.248096
0.252903 0.263081 0.259022
0.353765 0.266453 0.248661
0.442222 0.27097 0.244434
0.5449 0.268772 0.252445
0.622461 0.321477 0.292287
0.873671 0.352819 0.314214
0.0467536 0.325154 0.219287
0.0953231 0.33814 0.222843
0.193652 0.349691 0.219699
0.269093 0.352377 0.276326
0.367025 0.360113 0.283482
0.459648 0.371084 0.277638
0.574121 0.375708 0.269245
0.688991 0.384939 0.311742
0.895247 0.447745 0.354269
0.00366217 0.422126 0.224399
0.0673991 0.430533 0.25716
0.259907 0.426215 0.283116
0.329946 0.44152 0.298283
0.378866 0.467811 0.301961
0.479103 0.484688 0.293111
0.612161 0.489754 0.27837
0.743404 0.500313 0.280507
0.952056 0.528344 0.378302
0.0246433 0.514 0.353429
0.124666 0.530007 0.350179
0.219013 0.557015 0.301671
0.34638 0.56939 0.307866
0.402182 0.588174 0.351217
0.497658 0.612558 0.338125
0.631113 0.629496 0.325353
0.79585 0.633783 0.305745
0.997986 0.663066 0.373373
0 0.662882 0.393332
0.0962234 0.68304 0.374609
0.230671 0.703853 0.352193
0.397162 0.714687 0.353719
0.469795 0.73547 0.375326
0.5467 0.756832 0.413718
0.657603 0.783475 0.415076
0.795987 0.803937 0.433204
1 0.818311 0.479408
0 0.926619 0.455375
0.158526 0.94136 0.442939
0.378271 0.944732 0.467201
0.532311 0.951232 0.477424
0.60853 0.964904 0.513527
0.672419 0.977157 0.585885
0.768109 0.989059 0.644007
0.863432 1 0.714427
0.985718 0.990448 0.87277
0.105348 0.0985733 0.267231
0.139666 0.106905 0.263401
0.182818 0.121706 0.252949
0.261662 0.0724804 0.281361
0.312352 0.0762036 0.294697
0.361791 0.104372 0.309758
0.437766 0.128008 0.334752
0.568994 0.158938 0.333974
0.833188 0.187106 0.35845
0.0712749 0.140093 0.278233
0.150546 0.144945 0.265141
0.210758 0.146563 0.261311
0.267857 0.153796 0.259983
0.314641 0.156588 0.290242
0.371695 0.158724 0.325872
0.452796 0.188586 0.332662
0.590341 0.203159 0.323461
0.858076 0.212757 0.353674
0.0496529 0.185565 0.300237
0.121218 0.193271 0.292836
0.220005 0.196643 0.277455
0.272999 0.201892 0.294469
0.336828 0.195254 0.330617
0.397421 0.216861 0.341741
0.476585 0.257359 0.33193
0.610574 0.268681 0.333486
0.89192 0.249531 0.340856
0.110735 0.265095 0.27361
0.117159 0.270039 0.298756
0.199039 0.262364 0.329427
0.276493 0.272755 0.332937
0.349218 0.287617 0.339834
0.443992 0.284779 0.35967
0.532448 0.305821 0.364904
0.66952 0.318196 0.340398
0.882597 0.384634 0.39115
0.0898146 0.339117 0.310826
0.136645 0.349203 0.318181
0.220966 0.347097 0.351232
0.284566 0.365667 0.354086
0.363485 0.377981 0.372869
0.481682 0.384298 0.362463
0.605631 0.385214 0.354223
0.721447 0.397208 0.375723
0.896422 0.480735 0.440955
0.0769055 0.433845 0.320745
0.137758 0.446952 0.326528
0.237446 0.458549 0.329168
0.289448 0.483284 0.327718
0.389075 0.481819 0.397986
0.503273 0.49102 0.409522
0.618463 0.506722 0.403937
0.761456 0.517342 0.389761
0.964401 0.549065 0.470649
0 0.563149 0.297841
0.0757763 0.572473 0.330694
0.208865 0.582513 0.360586
0.433219 0.562142 0.423865
0.467155 0.594995 0.42501
0.52221 0.625925 0.436057
0.640955 0.647059 0.438056
0.778637 0.661799 0.456733
1 0.686748 0.478248
0.0463264 0.675959 0.470314
0.125795 0.686046 0.506554
0.258167 0.7131 0.466117
0.425254 0.729747 0.438392
0.514321 0.745083 0.468772
0.570031 0.77052 0.507164
0.671183 0.798398 0.520378
0.806836 0.820005 0.537987
0.99646 0.843671 0.607813
0.131548 0.926619 0.576654
0.249195 0.944366 0.557061
0.370855 0.963302 0.529122
0.567086 0.96643 0.527993
0.646113 0.974136 0.587594
0.723964 0.982406 0.655314
0.809689 0.998459 0.701335
0.913527 0.999512 0.802228
0.940581 1 0.934371
0.142306 0.133669 0.360098
0.169696 0.141466 0.357656
0.206012 0.157656 0.348074
0.265217 0.161379 0.345617
0.355764 0.0913558 0.379202
0.412833 0.099443 0.393194
0.476783 0.138262 0.410422
0.580056 0.176043 0.449638
0.846387 0.23508 0.457557
0.129 0.170947 0.367269
0.196323 0.182925 0.346334
0.233585 0.186923 0.348882
0.290181 0.190829 0.349355
0.366995 0.164309 0.372488
0.421805 0.173175 0.395682
0.487541 0.192844 0.427283
0.589654 0.231464 0.450889
0.862425 0.268147 0.449027
0.0480659 0.215366 0.392905
0.158328 0.223606 0.375006
0.236454 0.227405 0.36878
0.32079 0.232395 0.356008
0.375494 0.230488 0.383383
0.433936 0.237705 0.41532
0.50425 0.257191 0.447456
0.607431 0.303731 0.45211
0.884138 0.322942 0.449775
0.0565957 0.271077 0.414679
0.143709 0.280308 0.407446
0.190219 0.288075 0.416983
0.336919 0.296696 0.37937
0.38027 0.309346 0.407691
0.465309 0.292119 0.462226
0.541588 0.329427 0.465034
0.647334 0.372488 0.464637
0.889799 0.422904 0.478141
0.126619 0.371008 0.369497
0.151019 0.379309 0.383856
0.235935 0.376043 0.413336
0.316487 0.375174 0.443778
0.387457 0.387717 0.461387
0.478508 0.407004 0.464118
0.595956 0.407935 0.487709
0.692699 0.440085 0.516625
0.952697 0.472267 0.48397
0.10454 0.454368 0.415564
0.193622 0.460243 0.427405
0.221775 0.477378 0.440497
0.331212 0.478187 0.474159
0.394003 0.500938 0.483513
0.496025 0.513039 0.506722
0.640192 0.523522 0.494728
0.802258 0.521996 0.483787
1 0.557412 0.529061
0.114977 0.568307 0.436316
0.175158 0.583322 0.442222
0.232029 0.601541 0.452003
0.378119 0.611521 0.457191
0.408026 0.643992 0.464439
0.5299 0.642008 0.540627
0.669459 0.651347 0.562295
0.806622 0.672389 0.560006
1 0.707256 0.550774
0 0.729747 0.414923
0.0751812 0.744015 0.43299
0.203494 0.758312 0.459846
0.39379 0.762509 0.499092
0.5823 0.747738 0.565423
0.608316 0.78555 0.581628
0.704005 0.807279 0.62092
0.83212 0.82768 0.649226
1 0.857694 0.696468
0.156817 0.927596 0.701503
0.298787 0.947234 0.670085
0.416709 0.971054 0.624582
0.629831 0.964401 0.642313
0.739132 0.96408 0.688762
0.785168 0.985855 0.721065
0.830381 1 0.787167
0.95819 0.99379 0.871656
0.93254 1 0.999146
0.196307 0.18117 0.476204
0.215564 0.186862 0.473915
0.241505 0.19678 0.471672
0.286076 0.221927 0.455055
0.359625 0.212528 0.460136
0.466728 0.119188 0.499382
0.54023 0.130159 0.517708
0.628519 0.189883 0.543572
0.86424 0.294545 0.613809
0.192416 0.21149 0.483696
0.236301 0.220371 0.471992
0.265888 0.224506 0.474556
0.314504 0.243854 0.461204
0.38262 0.239948 0.466682
0.484031 0.170748 0.50721
0.554635 0.188708 0.526253
0.635782 0.239918 0.555581
0.866178 0.332296 0.597986
0.148959 0.252018 0.500847
0.215549 0.26302 0.485557
0.287297 0.271748 0.470558
0.343938 0.276753 0.470771
0.415686 0.28069 0.469276
0.491081 0.281682 0.479637
0.557519 0.292165 0.52047
0.646693 0.306264 0.57641
0.877272 0.388128 0.586999
0 0.307347 0.537575
0.115068 0.317968 0.524437
0.258915 0.327382 0.50013
0.348119 0.330922 0.498466
0.449821 0.341039 0.475319
0.507164 0.322438 0.542672
0.583825 0.341039 0.571725
0.6748 0.379034 0.599451
0.895415 0.467903 0.586114
0.0642405 0.371466 0.552285
0.147951 0.380529 0.551812
0.227466 0.391577 0.551125
0.31725 0.401282 0.554055
0.459434 0.414801 0.518044
0.512581 0.430655 0.551446
0.618158 0.4215 0.607156
0.721401 0.459663 0.618067
0.947951 0.522148 0.60763
0.14902 0.493248 0.492226
0.206043 0.50248 0.498695
0.211887 0.514275 0.525368
0.370962 0.500648 0.562448
0.4448 0.507317 0.592523
0.522759 0.523369 0.616739
0.634028 0.55024 0.616098
0.780453 0.553735 0.643488
0.960327 0.614313 0.69218
0.128664 0.595865 0.544778
0.229999 0.602152 0.559579
0.277638 0.619165 0.569848
0.367346 0.625986 0.604761
0.477089 0.638544 0.615412
0.528908 0.665492 0.641108
0.654841 0.679103 0.672419
0.825391 0.694286 0.658015
1 0.707118 0.655375
0.168841 0.734478 0.57554
0.228183 0.750988 0.580133
0.305837 0.767071 0.592615
0.395758 0.788663 0.594415
0.519203 0.801297 0.611429
0.570291 0.826734 0.648325
0.715709 0.826093 0.71809
0.850263 0.84004 0.756298
1 0.877256 0.776043
0.0592813 0.99472 0.582223
0.17731 1 0.610925
0.405615 1 0.643305
0.613535 0.994278 0.690761
0.738476 0.990478 0.739269
0.749554 1 0.781628
0.862394 1 0.868406
0.943923 1 0.925551
0.93254 1 0.999146
0.280888 0.255665 0.640452
0.293492 0.256443 0.635828
0.31342 0.260563 0.631922
0.345693 0.275044 0.622858
0.389487 0.305425 0.601511
0.477241 0.288136 0.610529
0.614893 0.162356 0.660227
0.712474 0.180072 0.685527
0.905425 0.302113 0.756115
0.281453 0.278187 0.644129
0.300282 0.280751 0.6374
0.322972 0.285451 0.633265
0.358633 0.295827 0.627375
0.410437 0.321782 0.606729
0.494194 0.311269 0.613855
0.62681 0.208789 0.663813
0.720424 0.2327 0.688426
0.900053 0.343633 0.755413
0.247654 0.31017 0.658457
0.295232 0.317266 0.642451
0.350088 0.326467 0.624491
0.389242 0.332021 0.623941
0.445151 0.349722 0.610437
0.524132 0.344884 0.61912
0.64097 0.293782 0.657267
0.725521 0.325017 0.685344
0.89752 0.402777 0.76434
0.166125 0.357961 0.679942
0.235157 0.365774 0.665232
0.320241 0.378882 0.642084
0.403067 0.384924 0.630701
0.477378 0.389944 0.627985
0.569375 0.393454 0.62208
0.648447 0.411841 0.630579
0.73283 0.421271 0.693385
0.905394 0.475273 0.781872
0 0.418814 0.713207
0 0.427482 0.712108
0.240955 0.440635 0.684474
0.381491 0.450858 0.661219
0.480186 0.454719 0.66067
0.597116 0.470771 0.629191
0.66424 0.457588 0.707683
0.764218 0.474372 0.750408
0.939147 0.550423 0.793225
0.0580911 0.493156 0.72697
0.152178 0.501244 0.727047
0.256748 0.513695 0.722835
0.333883 0.526665 0.728054
0.45771 0.537011 0.723308
0.608072 0.555001 0.684611
0.672343 0.575677 0.724315
0.797284 0.576486 0.778759
0.995789 0.621408 0.816602
0.194888 0.642802 0.645762
0.266072 0.651942 0.648493
0.283864 0.665431 0.667445
0.36408 0.67039 0.699443
0.519875 0.656474 0.739544
0.598383 0.668421 0.768292
0.687251 0.685496 0.803723
0.81149 0.725856 0.791241
1 0.750378 0.819837
0.178515 0.766552 0.702525
0.286702 0.772961 0.718044
0.362982 0.785962 0.728908
0.406332 0.805066 0.747967
0.553079 0.793744 0.805661
0.695018 0.815152 0.774075
0.708827 0.85391 0.814359
0.834272 0.86743 0.859205
1 0.909712 0.860655
0.271778 1 0.712779
0.348852 1 0.728847
0.44715 1 0.735058
0.630152 1 0.743328
0.671153 1 0.772427
0.762798 1 0.868147
0.904662 1 0.917082
0.93254 1 0.999146
0.93254 1 0.999146
0.495018 0.459144 1
0.499947 0.450278 1
0.510384 0.443153 0.997177
0.52726 0.439536 0.98674
0.556298 0.449363 0.96968
0.59823 0.475074 0.941741
0.672526 0.488289 0.922087
0.830594 0.390967 0.962386
1 0.311604 1
0.488853 0.467506 1
0.491234 0.458885 1
0.501747 0.453101 0.995254
0.520119 0.451209 0.983032
0.546456 0.455177 0.971023
0.592233 0.48275 0.939742
0.669306 0.502541 0.912703
0.829007 0.411292 0.953826
1 0.342855 1
0.466117 0.482628 1
0.496284 0.47834 0.996735
0.506111 0.471946 0.986465
0.525658 0.469856 0.975204
0.555215 0.471687 0.964813
0.606958 0.495735 0.934615
0.682353 0.520546 0.903914
0.836942 0.440757 0.945296
1 0.397101 0.999619
0.408499 0.506645 1
0.449149 0.504295 1
0.501183 0.506493 0.978469
0.545815 0.508156 0.956847
0.578851 0.505989 0.951125
0.63592 0.525216 0.923583
0.715251 0.544076 0.899092
0.854643 0.49514 0.930922
1 0.534188 0.963928
0.315145 0.544671 1
0.369772 0.543877 1
0.436133 0.548135 0.993729
0.520256 0.55877 0.95668
0.599359 0.563516 0.930312
0.661494 0.566781 0.92343
0.762036 0.575753 0.903471
0.874769 0.589792 0.890425
1 0.607111 0.979217
0.0197299 0.600366 1
0.166171 0.601877 1
0.285588 0.608225 1
0.422461 0.619379 0.990082
0.554925 0.628031 0.957305
0.658457 0.632654 0.943862
0.789837 0.648493 0.902724
0.897917 0.64036 0.93344
1 0.667002 1
0 0.67808 1
0 0.681895 1
0.163439 0.690562 1
0.376699 0.70518 1
0.502037 0.719661 0.996628
0.603143 0.7243 1
0.82446 0.739132 0.919158
0.853452 0.773907 0.954101
1 0.807111 0.990021
0.280095 0.818891 0.981979
0.343984 0.822644 0.980438
0.414405 0.82916 0.980896
0.457771 0.837324 0.994339
0.514687 0.84268 1
0.619074 0.837873 1
0.790753 0.844785 1
0.871626 0.875975 1
0.970642 0.949905 0.975311
0.474449 0.997467 0.936217
0.480613 1 0.935805
0.512581 1 0.945006
0.665141 0.99704 0.994995
0.77348 1 0.982452
0.855344 1 0.985122
0.930251 1 0.99762
0.93254 1 0.999146
0.93254 1 0.999146
