subtle niceties LUT V2 beta 7 (SSH-TS reimagined).cube
TITLE "Generated by Resolve"
LUT_3D_SIZE 9
0.0131228 0.0118563 0.0171969
0.0665293 0.0155032 0.0180819
0.1178 0.0187991 0.0194247
0.174853 0.0248722 0.0235447
0.236698 0.035462 0.0292058
0.310475 0.0491646 0.0390021
0.406241 0.0718853 0.0552987
0.532219 0.105852 0.0856794
0.781826 0.185153 0.163165
0.0192569 0.068986 0.0221866
0.0739605 0.0702068 0.0242618
0.137636 0.0683909 0.0200656
0.1991 0.0638437 0.0288701
0.262638 0.0639658 0.0440986
0.331579 0.0835889 0.0516518
0.422553 0.107866 0.0664836
0.545174 0.137667 0.09337
0.796948 0.202274 0.165362
0.0261845 0.128801 0.0334936
0.0756085 0.13666 0.0271763
0.145983 0.139956 0.0246738
0.223087 0.135485 0.0183261
0.293065 0.132006 0.0252079
0.362814 0.139193 0.0496529
0.45185 0.155642 0.0778821
0.568856 0.186374 0.110704
0.815091 0.256336 0.178241
0.0253758 0.200824 0.0399481
0.0868544 0.206653 0.0440223
0.157412 0.216739 0.0218509
0.241825 0.219532 0.0102083
0.324468 0.215595 0.012192
0.405402 0.217563 0.00843824
0.491066 0.23093 0.0459602
0.606027 0.249516 0.109834
0.841428 0.311727 0.19115
0.00560006 0.283803 0.0451514
0.0919509 0.286549 0.0742351
0.164828 0.299184 0.042649
0.257755 0.307881 0.00535592
0.348226 0.311498 0.00416571
0.439094 0.311498 0.0084535
0.537942 0.318349 0
0.651331 0.334813 0.0491646
0.875807 0.378653 0.193912
0 0.383032 0.0572976
0.0684825 0.385138 0.0928206
0.180682 0.392309 0.0870222
0.260075 0.409766 0.0339971
0.370138 0.416724 0
0.471748 0.421424 0.00158694
0.581018 0.425315 0.0145876
0.704662 0.436286 0.0102998
0.919661 0.471778 0.155749
0 0.505257 0.0757458
0.0103914 0.507866 0.118654
0.188281 0.510094 0.161105
0.289586 0.525872 0.109636
0.380621 0.544259 0.0348058
0.503304 0.552865 0
0.619974 0.562264 0.0241398
0.752651 0.569848 0.0797894
0.979721 0.586496 0.151217
0 0.657938 0.108568
0 0.66041 0.156695
0.184375 0.662272 0.205554
0.327123 0.671214 0.201602
0.423682 0.690181 0.137789
0.531304 0.707652 0.0931716
0.661372 0.722362 0.0913252
0.781949 0.741772 0.165637
0.983108 0.762142 0.273411
0 0.9131 0.227436
0.118563 0.910948 0.273838
0.334844 0.907637 0.320302
0.455009 0.914092 0.333989
0.543328 0.927504 0.343954
0.625208 0.944762 0.354757
0.728054 0.959411 0.388296
0.844724 0.963958 0.489586
0.978302 0.971527 0.653544
0.025742 0.0252842 0.0648508
0.0704967 0.0305333 0.0713359
0.119127 0.0343633 0.0792096
0.191867 0.028336 0.0706645
0.258244 0.028687 0.0647135
0.332845 0.0335088 0.0660105
0.425696 0.0534371 0.0768444
0.545785 0.0903487 0.105241
0.792248 0.176501 0.179034
0.0350805 0.076997 0.0736095
0.0806134 0.0803082 0.0834363
0.142947 0.0832532 0.0756847
0.209796 0.0785534 0.0755016
0.278462 0.0734264 0.0702831
0.348653 0.0798505 0.0785382
0.437308 0.10367 0.0916304
0.557168 0.135607 0.117144
0.806256 0.206989 0.185672
0.0197147 0.1449 0.069688
0.0642252 0.152209 0.0816052
0.154864 0.151232 0.0870069
0.233005 0.147646 0.0850538
0.301259 0.149889 0.076997
0.380041 0.142367 0.0969558
0.470954 0.147356 0.12076
0.584756 0.181003 0.143816
0.828016 0.253025 0.198825
0.00265507 0.219242 0.0661631
0.084535 0.222309 0.0863355
0.164553 0.230442 0.079118
0.240482 0.234577 0.0981765
0.326085 0.235966 0.0837873
0.414466 0.232654 0.0800031
0.511711 0.227451 0.121035
0.627344 0.237217 0.170596
0.85597 0.307668 0.224231
0 0.297841 0.0710918
0.0895399 0.300801 0.108965
0.17377 0.31165 0.101564
0.259998 0.323766 0.0767071
0.343847 0.331273 0.0889143
0.441382 0.333883 0.075227
0.553918 0.329274 0.0822003
0.672526 0.333547 0.143954
0.894606 0.370031 0.248356
0 0.391867 0.0798962
0.0915847 0.39501 0.122698
0.191989 0.403922 0.135164
0.271443 0.422156 0.103517
0.372671 0.433585 0.0783246
0.468864 0.443931 0.0814984
0.584466 0.447791 0.0982071
0.720974 0.448371 0.119707
0.94197 0.467308 0.246281
0 0.511864 0.0940108
0.069688 0.5149 0.140017
0.211749 0.520012 0.182147
0.303258 0.537926 0.158434
0.389456 0.558495 0.120073
0.506111 0.570657 0.103655
0.617655 0.585657 0.126467
0.751369 0.596628 0.159396
0.982071 0.609094 0.24506
0 0.665568 0.124956
0 0.66807 0.173709
0.229374 0.669734 0.219562
0.344503 0.682857 0.229831
0.436545 0.703029 0.204456
0.538384 0.723445 0.193118
0.664652 0.741054 0.196719
0.779217 0.758862 0.297398
0.986496 0.775402 0.38616
0 0.921141 0.239536
0.17937 0.918059 0.286793
0.351232 0.917418 0.348943
0.461219 0.925826 0.381659
0.548928 0.940902 0.394354
0.636713 0.957717 0.408652
0.743038 0.972107 0.440726
0.861448 0.969467 0.573312
0.978836 0.993118 0.672557
0.0396735 0.0417945 0.125261
0.0877241 0.0441749 0.128359
0.132296 0.0519265 0.133883
0.193027 0.048188 0.146777
0.26363 0.0471809 0.144594
0.345129 0.0394751 0.142916
0.440085 0.0462501 0.148928
0.565042 0.0750591 0.160723
0.812573 0.152743 0.209735
0.0494392 0.0924392 0.123659
0.0911879 0.0935225 0.135225
0.151217 0.0945449 0.146227
0.21796 0.0916304 0.154971
0.285786 0.0977646 0.143404
0.371466 0.0816968 0.135622
0.465476 0.0883803 0.129473
0.583139 0.113466 0.146227
0.826001 0.191257 0.206241
0.0576181 0.150286 0.139315
0.100786 0.155123 0.151354
0.160708 0.160372 0.162844
0.229694 0.169039 0.160876
0.312825 0.166079 0.155077
0.395163 0.160281 0.156542
0.490822 0.159045 0.159426
0.606104 0.176547 0.176333
0.843351 0.250584 0.22475
0.0266728 0.231357 0.130236
0.0640574 0.239948 0.150698
0.139498 0.249073 0.16701
0.25066 0.249256 0.173938
0.336065 0.248096 0.185077
0.420233 0.253193 0.178805
0.524361 0.252583 0.16939
0.645548 0.25069 0.207446
0.874403 0.302281 0.260914
0 0.31339 0.139055
0.0613565 0.321294 0.158526
0.170321 0.329641 0.169772
0.267552 0.338964 0.17351
0.357931 0.341482 0.201968
0.451743 0.346273 0.203937
0.561761 0.351125 0.185855
0.685588 0.354849 0.210559
0.920378 0.360601 0.30692
0 0.410895 0.128038
0.0422675 0.418051 0.157824
0.182483 0.423819 0.192309
0.279988 0.439673 0.180926
0.378363 0.450752 0.187457
0.469215 0.46041 0.224887
0.588418 0.467124 0.227192
0.727764 0.472892 0.215412
0.954635 0.486595 0.305364
0 0.527764 0.128069
0.0441138 0.533562 0.176638
0.199619 0.540032 0.226993
0.30605 0.555291 0.232303
0.396658 0.576303 0.213718
0.508446 0.592187 0.202655
0.613809 0.604837 0.272633
0.755169 0.614969 0.295262
0.986191 0.634638 0.322881
0 0.675929 0.148455
0.0326848 0.681025 0.206668
0.229221 0.686534 0.263508
0.346761 0.699947 0.293812
0.443412 0.720302 0.289357
0.545235 0.742214 0.28069
0.669596 0.760723 0.29276
0.786496 0.773678 0.406455
0.993805 0.787762 0.48925
0 0.930632 0.263416
0.187427 0.931182 0.318669
0.337209 0.935317 0.384253
0.456672 0.942916 0.430549
0.553948 0.957092 0.447059
0.650538 0.973907 0.453971
0.76318 0.985443 0.499641
0.869093 0.989731 0.610315
0.967956 1 0.749859
0.0600748 0.06804 0.193286
0.0998703 0.0678874 0.200244
0.157946 0.067216 0.202884
0.204562 0.0834974 0.20737
0.280217 0.0589303 0.224338
0.345174 0.075761 0.232731
0.45185 0.0580148 0.233005
0.578912 0.0579538 0.242496
0.829892 0.139727 0.279011
0.0742809 0.110033 0.194476
0.118776 0.11165 0.200336
0.166705 0.115846 0.209155
0.220935 0.123568 0.221439
0.286381 0.123201 0.237034
0.364981 0.13286 0.231876
0.478309 0.107286 0.228702
0.602914 0.112428 0.233997
0.851499 0.162646 0.268391
0.0795605 0.171328 0.195117
0.126741 0.172763 0.205615
0.170504 0.17641 0.225803
0.244022 0.17998 0.238041
0.337911 0.177157 0.223255
0.401221 0.187243 0.24271
0.512428 0.170352 0.237934
0.636576 0.175387 0.22887
0.870558 0.239475 0.253803
0.0758221 0.239551 0.219348
0.136065 0.2421 0.23389
0.173556 0.256825 0.240894
0.259236 0.258885 0.263416
0.330678 0.27274 0.266499
0.434424 0.273548 0.255177
0.5402 0.26978 0.264759
0.669429 0.2663 0.264759
0.900282 0.302312 0.304921
0.0467994 0.32517 0.219257
0.0800031 0.33959 0.223026
0.128237 0.353246 0.247364
0.24567 0.358953 0.274449
0.36022 0.363119 0.282628
0.454078 0.366384 0.304295
0.568872 0.372564 0.295521
0.691203 0.384222 0.30634
0.935866 0.39202 0.338384
0 0.423346 0.219379
0.0360113 0.43563 0.242832
0.179538 0.439323 0.28423
0.260929 0.46128 0.278782
0.378851 0.47303 0.277745
0.48925 0.475578 0.315312
0.606958 0.480613 0.333455
0.742931 0.490242 0.328847
0.968811 0.515755 0.350896
0 0.545068 0.223713
0 0.559487 0.237293
0.135332 0.571084 0.265202
0.296773 0.580438 0.294728
0.408133 0.599863 0.276905
0.524727 0.603647 0.341054
0.639796 0.615351 0.380499
0.770642 0.62884 0.409277
0.996399 0.653407 0.426429
0 0.699351 0.20444
0 0.708125 0.250141
0.165911 0.715877 0.305364
0.330144 0.724544 0.355352
0.447211 0.742962 0.355962
0.556848 0.764767 0.348486
0.687495 0.770901 0.431937
0.812543 0.783856 0.50132
1 0.804318 0.570016
0 0.94931 0.305089
0.121096 0.953079 0.363043
0.309209 0.957473 0.424765
0.450935 0.962844 0.480369
0.562127 0.976394 0.495262
0.667597 0.993439 0.497963
0.770581 1 0.576516
0.875944 1 0.640391
0.944717 1 0.863752
0.0916762 0.103532 0.267201
0.124147 0.0966354 0.278935
0.16733 0.106874 0.277394
0.238895 0.0915084 0.287251
0.284825 0.119081 0.289235
0.376135 0.0712596 0.314
0.450935 0.108202 0.328939
0.591196 0.0946212 0.335317
0.849424 0.116075 0.361044
0.102831 0.135698 0.274189
0.139834 0.137713 0.278782
0.173968 0.143755 0.288334
0.254063 0.13695 0.294377
0.299687 0.159869 0.302815
0.389487 0.137057 0.324575
0.472374 0.160983 0.331258
0.61738 0.135241 0.330129
0.871962 0.161364 0.354788
0.113405 0.186694 0.280934
0.153658 0.191592 0.281941
0.20029 0.19443 0.294362
0.263935 0.19826 0.30811
0.33106 0.201724 0.327733
0.405768 0.21442 0.333837
0.490211 0.239963 0.337697
0.648554 0.201923 0.335821
0.901305 0.223468 0.3364
0.114641 0.265293 0.271626
0.148806 0.26772 0.291218
0.209216 0.26981 0.308812
0.265888 0.276661 0.333257
0.351293 0.284993 0.342992
0.46096 0.283513 0.335607
0.553185 0.288182 0.35903
0.688701 0.28574 0.35198
0.928878 0.308034 0.36376
0.100893 0.338155 0.310216
0.165988 0.343145 0.322744
0.231342 0.347204 0.345052
0.31249 0.366506 0.328634
0.372686 0.372427 0.377981
0.452522 0.39086 0.386145
0.583383 0.39588 0.373175
0.719341 0.396063 0.384924
0.960098 0.405936 0.404166
0.0769055 0.433845 0.320745
0.137758 0.446952 0.326528
0.186709 0.464469 0.335088
0.224109 0.483879 0.36878
0.362646 0.489815 0.395529
0.490288 0.497536 0.405356
0.603052 0.504707 0.437797
0.75227 0.51368 0.426871
0.967849 0.546517 0.467124
0 0.563149 0.297841
0.047715 0.573892 0.330922
0.15314 0.586114 0.368307
0.313313 0.585824 0.43183
0.362921 0.623972 0.402609
0.512673 0.637217 0.398688
0.650111 0.640162 0.45127
0.783749 0.648341 0.49839
0.998947 0.677638 0.52781
0 0.710719 0.328954
0 0.726986 0.349813
0.0905928 0.74284 0.370062
0.284642 0.75378 0.416114
0.435935 0.766247 0.44097
0.544869 0.790982 0.434318
0.691005 0.798886 0.488655
0.821805 0.808728 0.560784
0.999313 0.828214 0.659983
0 0.973373 0.359762
0 0.979294 0.407019
0.256397 0.983032 0.46598
0.429206 0.986816 0.527337
0.564935 0.995529 0.554879
0.660456 1 0.589303
0.755062 1 0.655024
0.890105 1 0.749798
0.895674 0.99968 1
0.130358 0.145769 0.353674
0.157015 0.139681 0.363577
0.192767 0.138399 0.370962
0.250858 0.144427 0.370657
0.327779 0.121569 0.384863
0.378439 0.159762 0.38558
0.492775 0.0909133 0.418601
0.59649 0.148989 0.442649
0.876219 0.12343 0.462577
0.139071 0.171695 0.363653
0.170092 0.171847 0.368917
0.202228 0.170733 0.381445
0.256397 0.183474 0.380529
0.342901 0.167041 0.392721
0.392874 0.201816 0.398016
0.509026 0.157382 0.429328
0.611414 0.199588 0.446128
0.891875 0.174975 0.455146
0.151247 0.211154 0.375006
0.182895 0.216495 0.375158
0.227558 0.220035 0.383001
0.265385 0.231937 0.396338
0.369192 0.217807 0.405493
0.414954 0.251164 0.418341
0.523156 0.237491 0.446143
0.631251 0.273838 0.452811
0.915267 0.248692 0.45185
0.149752 0.277882 0.383688
0.192889 0.283864 0.385138
0.244572 0.291463 0.387549
0.298634 0.296086 0.409003
0.374624 0.300725 0.427207
0.457877 0.304372 0.452171
0.568338 0.321752 0.438407
0.666072 0.347463 0.475837
0.946792 0.329015 0.473503
0.142931 0.369436 0.368292
0.18471 0.374563 0.383124
0.236255 0.380865 0.402197
0.307256 0.380102 0.439368
0.376715 0.392416 0.460136
0.481621 0.401419 0.472465
0.611597 0.407736 0.464225
0.73434 0.414694 0.491417
0.984405 0.421363 0.495476
0.130907 0.452461 0.414282
0.196292 0.459724 0.427832
0.273442 0.466117 0.447364
0.347189 0.477852 0.464988
0.429206 0.502724 0.449348
0.506508 0.505943 0.514412
0.602884 0.53109 0.526055
0.762676 0.541665 0.513024
0.99913 0.55726 0.544015
0.114977 0.568307 0.436316
0.176196 0.583368 0.441688
0.232029 0.601541 0.452003
0.283665 0.626657 0.459205
0.35079 0.64213 0.510842
0.497292 0.652934 0.534707
0.649134 0.662104 0.554101
0.777707 0.673976 0.602625
1 0.703731 0.605325
0 0.729747 0.414923
0.0581826 0.744671 0.433097
0.122042 0.76321 0.460853
0.30103 0.769192 0.523629
0.434073 0.776364 0.578759
0.495125 0.816022 0.561685
0.686229 0.822507 0.583261
0.824628 0.831815 0.645136
0.985641 0.855543 0.749386
0 0.984207 0.480125
0 0.993362 0.506539
0.253483 0.999985 0.550637
0.440665 0.998489 0.625208
0.553491 1 0.660487
0.625589 1 0.687022
0.775464 1 0.76495
0.908415 1 0.853834
0.913954 0.996384 1
0.18323 0.197177 0.467536
0.202716 0.192142 0.473869
0.229877 0.185718 0.484443
0.277836 0.192691 0.484733
0.345892 0.190112 0.488426
0.433219 0.158679 0.506554
0.497444 0.21236 0.507729
0.647898 0.126604 0.55462
0.893599 0.231266 0.609415
0.188586 0.222309 0.475257
0.211887 0.222004 0.478889
0.241016 0.21799 0.490257
0.286519 0.220523 0.498116
0.354467 0.227573 0.498177
0.445869 0.208392 0.513695
0.509804 0.255528 0.517189
0.659602 0.18941 0.562173
0.900679 0.262791 0.597116
0.19498 0.252674 0.488914
0.22266 0.256046 0.490684
0.261372 0.258885 0.496498
0.30042 0.261219 0.511803
0.362737 0.277668 0.511177
0.46981 0.259861 0.525551
0.530007 0.304662 0.53608
0.676341 0.26894 0.574762
0.919463 0.311955 0.591867
0.205509 0.304173 0.503059
0.237583 0.311437 0.50219
0.279194 0.318959 0.503334
0.338262 0.323522 0.514321
0.375341 0.340276 0.532662
0.506325 0.322057 0.543954
0.561654 0.364385 0.564065
0.691112 0.365087 0.596567
0.927062 0.41944 0.600351
0.193332 0.38265 0.511147
0.238819 0.389624 0.513252
0.292882 0.398047 0.516426
0.356924 0.409125 0.520638
0.415305 0.415503 0.549859
0.505653 0.421622 0.573144
0.608438 0.432349 0.600427
0.767193 0.447944 0.568078
0.957931 0.50248 0.624949
0.17966 0.49073 0.490288
0.234714 0.499199 0.496941
0.277226 0.504738 0.524468
0.348135 0.515465 0.541588
0.42771 0.511009 0.595804
0.510201 0.529381 0.614237
0.638758 0.541375 0.629801
0.794034 0.556069 0.618051
1 0.57998 0.64622
0.170977 0.593179 0.542885
0.241169 0.601068 0.558938
0.322515 0.609934 0.576928
0.402731 0.618906 0.604929
0.482597 0.640436 0.60647
0.578592 0.66688 0.595529
0.670039 0.669886 0.680949
0.779751 0.701701 0.699031
1 0.73547 0.69723
0.168841 0.734478 0.57554
0.229007 0.751019 0.579751
0.305837 0.767071 0.592615
0.373404 0.785382 0.618219
0.412177 0.813993 0.634089
0.524086 0.825772 0.685405
0.687343 0.838453 0.706188
0.830014 0.847486 0.757992
0.974777 0.882261 0.839277
0.0512551 0.99501 0.581888
0.132326 1 0.6112
0.305547 1 0.657237
0.464424 1 0.721477
0.567803 1 0.77258
0.663005 1 0.807843
0.818448 1 0.855161
0.900618 1 0.987472
0.913954 0.996384 1
0.264195 0.274205 0.631281
0.277028 0.266377 0.633402
0.297642 0.256931 0.639719
0.331914 0.248814 0.647745
0.385687 0.263203 0.639963
0.464027 0.256046 0.645594
0.573663 0.212512 0.669947
0.657801 0.290044 0.672282
0.935088 0.242359 0.751034
0.264546 0.300114 0.630716
0.279332 0.294911 0.632059
0.301869 0.287724 0.638529
0.33611 0.27718 0.651591
0.390631 0.286976 0.648951
0.469673 0.287953 0.651545
0.581903 0.256352 0.672984
0.66389 0.326894 0.675685
0.930297 0.294514 0.749233
0.264973 0.322469 0.642985
0.284932 0.322026 0.641154
0.313802 0.320119 0.644251
0.349691 0.315969 0.656474
0.400473 0.322118 0.66276
0.47892 0.33489 0.661128
0.598154 0.313939 0.679484
0.677577 0.375479 0.686732
0.928801 0.364263 0.756451
0.268254 0.358953 0.657572
0.292546 0.361563 0.654459
0.32752 0.36466 0.655558
0.376761 0.369757 0.660639
0.420478 0.375494 0.677165
0.488487 0.397345 0.677073
0.629816 0.376303 0.693416
0.702052 0.435477 0.709026
0.929107 0.454627 0.773709
0.272358 0.417487 0.669337
0.305623 0.422324 0.666819
0.345983 0.431479 0.664973
0.398825 0.441215 0.667063
0.468055 0.44622 0.679927
0.507042 0.467887 0.702037
0.662608 0.453941 0.714168
0.746715 0.492561 0.744121
0.954177 0.532403 0.798413
0.249958 0.507683 0.675242
0.296345 0.514229 0.675639
0.35201 0.52369 0.677745
0.417823 0.534997 0.681239
0.489204 0.548913 0.685695
0.554772 0.556481 0.721935
0.664012 0.56585 0.748852
0.785809 0.585733 0.77554
1 0.613947 0.759396
0.23093 0.64007 0.643671
0.292393 0.649363 0.64651
0.34432 0.657679 0.665248
0.401694 0.66627 0.693309
0.481086 0.677348 0.715221
0.569421 0.670069 0.783566
0.673716 0.693187 0.798642
0.815534 0.712581 0.815763
1 0.76524 0.784085
0.23505 0.763043 0.700023
0.310964 0.770748 0.716686
0.39617 0.779293 0.734264
0.489082 0.786908 0.758923
0.573343 0.794446 0.792065
0.620035 0.819852 0.817166
0.751675 0.853056 0.77969
0.853208 0.85597 0.869825
0.962493 0.911223 0.91812
0.271778 1 0.712779
0.348852 1 0.728847
0.395972 1 0.741817
0.483192 1 0.768215
0.548516 1 0.834012
0.737499 1 0.883772
0.891371 1 0.929702
0.913954 0.996384 1
0.913954 0.996384 1
0.469352 0.482948 1
0.474952 0.4654 1
0.486229 0.445884 1
0.504463 0.425101 1
0.535729 0.410452 1
0.588281 0.419013 0.991608
0.666178 0.423423 0.981704
0.793835 0.382132 0.996338
0.958358 0.463554 0.991302
0.459525 0.496361 1
0.465232 0.482582 0.995651
0.477058 0.465599 0.993149
0.496681 0.447044 0.994141
0.525277 0.427863 0.99968
0.578515 0.43299 0.987549
0.657435 0.441642 0.975174
0.788159 0.406348 0.988678
0.954452 0.49012 0.984115
0.449744 0.509026 0.999924
0.459663 0.499611 0.989639
0.471656 0.486427 0.985199
0.492668 0.471977 0.984756
0.523095 0.45623 0.989715
0.573434 0.452216 0.988098
0.651469 0.469749 0.971801
0.786542 0.44567 0.980484
0.948531 0.537392 0.974029
0.438117 0.526192 1
0.450614 0.519127 0.992584
0.470024 0.512123 0.983276
0.496284 0.50309 0.979751
0.528878 0.492851 0.98349
0.575311 0.484184 0.99205
0.651438 0.510735 0.973587
0.792096 0.502571 0.974441
0.955688 0.583246 0.975875
0.428412 0.553292 1
0.443915 0.548699 0.997238
0.467247 0.545357 0.987549
0.501945 0.542153 0.980926
0.547784 0.540536 0.978271
0.593957 0.542031 0.985275
0.66305 0.564721 0.980163
0.810544 0.568078 0.974258
0.975875 0.637079 0.985809
0.421836 0.597711 1
0.442466 0.597162 1
0.471641 0.599054 0.990677
0.5131 0.603433 0.981033
0.566323 0.61059 0.974807
0.637995 0.616815 0.975601
0.692439 0.636271 0.986496
0.832822 0.649516 0.977478
1 0.686915 1
0.389654 0.687602 1
0.425498 0.689204 0.99205
0.471183 0.694133 0.983307
0.528527 0.702861 0.974838
0.593317 0.714839 0.96759
0.668589 0.727214 0.963256
0.743648 0.737575 0.981628
0.826261 0.760891 0.998627
0.994797 0.808164 0.996323
0.367117 0.826337 0.948379
0.421454 0.830533 0.944228
0.484596 0.83772 0.940887
0.542916 0.844923 0.947784
0.609491 0.852476 0.956191
0.695537 0.862409 0.956817
0.781186 0.856138 1
0.854124 0.886091 1
0.94139 0.946639 1
0.488594 0.995026 0.937621
0.556619 0.993912 0.948608
0.630457 0.992844 0.963256
0.698756 0.992691 0.987335
0.782254 1 0.9691
0.905318 1 0.953841
0.913359 0.998322 1
0.913954 0.996384 1
0.913954 0.996384 1
