subtle niceties LUT V2 beta 10 (SSH-TS reimagined).cube
TITLE "Generated by Resolve"
LUT_3D_SIZE 9
0.0129091 0.0120699 0.018555
0.0782635 0.0117647 0.0146029
0.130434 0.0162356 0.0115663
0.198322 0.0150454 0.00381476
0.267872 0.0255131 0.0101625
0.356207 0.0406806 0.0217136
0.4822 0.0625925 0.0318456
0.661494 0.107729 0.0568399
0.998276 0.282063 0.231418
0.0308843 0.0695659 0.018677
0.0798199 0.0778058 0.0129549
0.152895 0.0697642 0.0129397
0.225986 0.0651713 0
0.304387 0.0578164 0
0.392508 0.0678264 0
0.514504 0.0991684 0.0028687
0.688212 0.170153 0.0780194
1 0.338064 0.266468
0.0558175 0.130388 0.0312047
0.0865492 0.143496 0.0272679
0.160113 0.149096 0.0137636
0.242969 0.14583 0
0.328573 0.148135 0
0.42385 0.151751 0
0.551278 0.167895 0
0.722087 0.228351 0.0547189
1 0.402075 0.298726
0.0897383 0.202213 0.0378576
0.125368 0.21416 0.0311131
0.17792 0.226719 0.0186007
0.258579 0.232563 0.00779736
0.346761 0.233127 0
0.445243 0.242985 0
0.565744 0.264057 0
0.746197 0.314351 0
1 0.45832 0.269352
0.119738 0.284733 0.0490425
0.167514 0.294102 0.0401007
0.206821 0.310475 0.0225986
0.281529 0.322774 0.00740063
0.367773 0.32932 0.00434882
0.465339 0.332265 0
0.584863 0.348821 0
0.74548 0.386145 0
1 0.53901 0.209506
0.147692 0.380423 0.0732738
0.210422 0.388388 0.0609751
0.254597 0.40441 0.0442664
0.308904 0.423392 0.01355
0.397833 0.435828 0
0.49453 0.443931 0.0056611
0.610254 0.450507 0
0.761868 0.473823 0
1 0.587701 0
0.1832 0.499001 0.119173
0.255009 0.507088 0.106966
0.315953 0.520073 0.0825666
0.368185 0.539956 0.0419013
0.436988 0.559167 0.0296178
0.533379 0.575021 0.00701915
0.64625 0.588205 0.0330358
0.78294 0.599496 0
1 0.657176 0
0.237568 0.645624 0.174823
0.319326 0.653162 0.162661
0.397589 0.662867 0.137514
0.448814 0.682689 0.107897
0.503883 0.705058 0.0953231
0.584558 0.725017 0.124987
0.688121 0.746288 0.140063
0.810468 0.765713 0.164248
1 0.780285 0.213107
0.432593 0.889479 0.249851
0.505562 0.893294 0.23209
0.569146 0.900542 0.239582
0.613931 0.914992 0.269963
0.645914 0.934188 0.314076
0.67863 0.955978 0.363912
0.762448 0.972091 0.40264
0.857023 0.996674 0.400443
0.990829 1 0.556298
0.0150759 0.0229953 0.0796521
0.0807202 0.0273899 0.0745098
0.139666 0.0291295 0.0718242
0.197223 0.0410163 0.0650492
0.28455 0.0255436 0.0505531
0.376287 0.0235752 0.0483253
0.49955 0.0252995 0.0505226
0.658167 0.107515 0.117601
0.993667 0.276707 0.258991
0.0303349 0.0861219 0.0673075
0.0814221 0.0874952 0.0813306
0.149035 0.0886854 0.0840925
0.246464 0.0654002 0.0585641
0.311986 0.0735637 0.0550088
0.398459 0.0852827 0.0500954
0.520424 0.113787 0.0636301
0.690883 0.180941 0.133898
1 0.341497 0.29424
0.0438697 0.146487 0.0778821
0.0902724 0.159991 0.0674907
0.16582 0.165728 0.0627451
0.264225 0.154528 0.051545
0.343786 0.152407 0.0508125
0.439582 0.152148 0.0379034
0.561257 0.173175 0.0413672
0.725612 0.240589 0.13872
1 0.411078 0.332555
0.0714885 0.216266 0.0980087
0.129229 0.229236 0.0800641
0.179904 0.245136 0.0639658
0.259617 0.254398 0.0547646
0.357214 0.24947 0.0469062
0.454948 0.252842 0.0391852
0.584985 0.272648 0.00395209
0.762097 0.321248 0.0964218
1 0.475471 0.318563
0.116777 0.295811 0.107057
0.172778 0.306813 0.100267
0.207004 0.325505 0.0971847
0.279637 0.340642 0.0859693
0.369985 0.351247 0.0571908
0.476616 0.350042 0.0373388
0.599573 0.362951 0
0.766674 0.404776 0
1 0.560815 0.301625
0.166598 0.389654 0.108537
0.225116 0.399069 0.11397
0.264271 0.416693 0.111849
0.305562 0.439902 0.108568
0.397955 0.454047 0.0919966
0.498848 0.465904 0.0662089
0.622492 0.469581 0.0349737
0.773159 0.491295 0
1 0.615488 0.267918
0.212406 0.507332 0.130724
0.280522 0.515953 0.125978
0.334813 0.530739 0.133623
0.376883 0.553857 0.13193
0.434897 0.576928 0.140398
0.534173 0.593896 0.125841
0.649622 0.610697 0.113649
0.795239 0.618387 0.0906844
1 0.677989 0.25124
0.269978 0.654017 0.17525
0.346548 0.661967 0.168368
0.417365 0.673671 0.173587
0.463722 0.695094 0.179431
0.50753 0.720531 0.198932
0.584817 0.742748 0.222248
0.690181 0.765026 0.229786
0.811185 0.787747 0.235645
1 0.801953 0.279088
0.452506 0.897978 0.259556
0.524117 0.901686 0.267643
0.583597 0.910185 0.299565
0.615518 0.927871 0.334462
0.647379 0.94786 0.374105
0.684382 0.970413 0.412009
0.781537 0.988861 0.413092
0.866194 1 0.444068
0.99527 1 0.634882
0.0145113 0.0380407 0.145037
0.0842451 0.0486915 0.130755
0.154376 0.0446174 0.134661
0.219303 0.0390021 0.142351
0.267964 0.076463 0.141176
0.357336 0.0822461 0.148348
0.482643 0.078645 0.157107
0.651514 0.115419 0.185245
0.984024 0.27361 0.30631
0.0312352 0.0932937 0.143175
0.0943313 0.0980545 0.141085
0.173053 0.0918746 0.150195
0.242496 0.089128 0.155337
0.320241 0.094667 0.137606
0.406348 0.109148 0.138094
0.535164 0.118364 0.142855
0.696117 0.188312 0.19765
1 0.342077 0.326787
0.0463417 0.162905 0.137606
0.0969863 0.172763 0.137514
0.1664 0.173983 0.162829
0.24625 0.178058 0.17261
0.343465 0.177951 0.157229
0.459403 0.157824 0.144869
0.569726 0.189303 0.165515
0.734051 0.254063 0.218662
1 0.417624 0.370764
0.0455482 0.239689 0.140841
0.112276 0.248569 0.148104
0.174777 0.261967 0.154131
0.270817 0.269718 0.14757
0.372549 0.265736 0.154971
0.489677 0.262684 0.134768
0.613138 0.278843 0.156863
0.784894 0.323781 0.206683
1 0.489967 0.386542
0.104234 0.307073 0.197024
0.15201 0.325628 0.176318
0.218891 0.343542 0.157717
0.286732 0.364492 0.130434
0.374655 0.374563 0.136812
0.496696 0.369726 0.127214
0.630747 0.376181 0.144594
0.799741 0.423545 0.203601
1 0.577981 0.378973
0.133013 0.405783 0.198138
0.207248 0.416815 0.19765
0.265766 0.434989 0.186877
0.316075 0.459876 0.171267
0.400214 0.477424 0.162219
0.50103 0.491279 0.153109
0.636606 0.491951 0.144015
0.79939 0.509819 0.186786
1 0.647868 0.34667
0.20441 0.521172 0.208011
0.271977 0.532082 0.217273
0.333639 0.547997 0.219074
0.374807 0.572671 0.224353
0.43061 0.597681 0.229664
0.535302 0.616678 0.21442
0.650767 0.636759 0.197131
0.8056 0.642832 0.195514
1 0.702205 0.29897
0.287541 0.665858 0.221134
0.3561 0.675425 0.239384
0.421942 0.689448 0.256397
0.46453 0.71284 0.270527
0.506859 0.739635 0.287236
0.582788 0.763607 0.304891
0.694697 0.788159 0.287907
0.819333 0.809766 0.300389
1 0.823392 0.362112
0.46923 0.908003 0.307759
0.524407 0.914488 0.344289
0.583352 0.924331 0.371374
0.616022 0.943008 0.402152
0.654597 0.963592 0.428138
0.712032 0.987472 0.425254
0.804059 1 0.426139
0.88452 1 0.53315
0.991348 1 0.748486
0.0145113 0.0579843 0.220523
0.0709239 0.0675517 0.218585
0.158953 0.0741131 0.207538
0.237873 0.0655222 0.212345
0.300038 0.0676432 0.22417
0.377539 0.0820783 0.229923
0.458656 0.154498 0.249683
0.621988 0.180865 0.279988
0.964645 0.281575 0.363363
0.0176242 0.108904 0.225803
0.0851148 0.110323 0.231205
0.165423 0.127977 0.213794
0.244083 0.118868 0.233738
0.326863 0.105562 0.244953
0.399832 0.149096 0.219501
0.503319 0.18143 0.244511
0.674022 0.21471 0.278126
1 0.336248 0.382177
0.0545663 0.175463 0.219516
0.100282 0.178698 0.234562
0.167575 0.185794 0.243793
0.278706 0.178332 0.245502
0.35697 0.17908 0.256641
0.450568 0.192233 0.25156
0.582483 0.198688 0.261479
0.753033 0.253849 0.305715
1 0.39942 0.421057
0.0841688 0.254383 0.215473
0.122698 0.264164 0.226902
0.180072 0.278874 0.228656
0.268544 0.278645 0.264851
0.35819 0.284367 0.284138
0.464302 0.297917 0.281895
0.62359 0.299947 0.279179
0.800626 0.333791 0.316762
1 0.489952 0.466499
0.0463417 0.343359 0.217838
0.126101 0.353048 0.228519
0.202976 0.365377 0.238758
0.27863 0.379767 0.259297
0.388998 0.388159 0.255665
0.498024 0.392844 0.273991
0.651072 0.406226 0.28307
0.825772 0.446815 0.319753
1 0.60296 0.486915
0.101122 0.426825 0.271656
0.176761 0.436683 0.288212
0.245808 0.4551 0.282445
0.32134 0.480125 0.258213
0.405722 0.501915 0.242191
0.512901 0.512993 0.25301
0.660273 0.511864 0.268818
0.843565 0.53753 0.291493
1 0.690349 0.475822
0.201694 0.527932 0.344305
0.224857 0.553704 0.316381
0.316213 0.570184 0.305516
0.389151 0.594766 0.283268
0.457298 0.623865 0.245823
0.541207 0.647135 0.248188
0.660487 0.66212 0.277195
0.827131 0.664744 0.307027
1 0.74374 0.42681
0.246357 0.683833 0.333288
0.325719 0.695171 0.346441
0.403693 0.710826 0.349874
0.467796 0.733928 0.344884
0.525277 0.761654 0.33666
0.604501 0.789319 0.322545
0.699611 0.817456 0.322713
0.826108 0.834073 0.377188
1 0.847868 0.489906
0.449683 0.922225 0.412329
0.511727 0.929915 0.433097
0.575769 0.941604 0.446723
0.622965 0.960021 0.461234
0.676005 0.98146 0.464515
0.743038 1 0.442084
0.816297 1 0.524804
0.907195 1 0.634852
0.959854 1 0.894667
0.0199893 0.0766155 0.307515
0.0818189 0.0926528 0.301671
0.140169 0.0994125 0.306325
0.24773 0.101472 0.292256
0.327932 0.0943923 0.302007
0.397879 0.106844 0.317968
0.510674 0.0982071 0.331624
0.616739 0.223636 0.365576
0.936172 0.324804 0.444175
0 0.133608 0.311894
0.0862898 0.127169 0.318959
0.161028 0.152773 0.302388
0.252308 0.157321 0.299413
0.341588 0.148608 0.312734
0.421225 0.150851 0.329961
0.524727 0.178302 0.327947
0.642939 0.267369 0.361166
0.987823 0.369589 0.456031
0.0340734 0.194827 0.3093
0.0710155 0.19704 0.323644
0.160769 0.204211 0.327703
0.26627 0.223301 0.30367
0.357305 0.204562 0.344274
0.454917 0.202319 0.352438
0.560647 0.237705 0.343664
0.719219 0.284047 0.36878
1 0.403555 0.497078
0.0903639 0.272465 0.300069
0.134234 0.271473 0.328389
0.201511 0.280156 0.336645
0.256626 0.28986 0.364446
0.398718 0.283589 0.355962
0.487617 0.288441 0.381308
0.601755 0.327047 0.38912
0.791165 0.362982 0.428946
1 0.501945 0.554177
0.121691 0.356771 0.304509
0.150027 0.367269 0.322118
0.213931 0.382406 0.324331
0.287816 0.398077 0.335073
0.383032 0.398428 0.381064
0.483284 0.40795 0.412818
0.615412 0.435004 0.421546
0.80618 0.481575 0.445609
1 0.632914 0.594934
0.0576486 0.45951 0.312474
0.141588 0.469917 0.327825
0.234531 0.48571 0.326024
0.300114 0.503639 0.350057
0.398398 0.517006 0.374243
0.526268 0.525979 0.37673
0.655161 0.539544 0.403632
0.836027 0.582971 0.453986
1 0.728832 0.605509
0.0447547 0.578241 0.329397
0.211002 0.574136 0.395819
0.28043 0.592355 0.402792
0.362692 0.615106 0.400031
0.441855 0.644678 0.374655
0.548867 0.666606 0.365408
0.67863 0.678996 0.389319
0.832685 0.689555 0.440589
1 0.798398 0.58912
0.287007 0.679911 0.494514
0.312184 0.706752 0.470115
0.359792 0.735378 0.44065
0.459159 0.755138 0.434485
0.534127 0.782742 0.416495
0.611688 0.812253 0.401938
0.711986 0.836225 0.425086
0.843214 0.849287 0.479606
1 0.876478 0.602686
0.41593 0.938155 0.508019
0.488548 0.946685 0.521126
0.562829 0.959487 0.523262
0.628717 0.978241 0.519173
0.68838 0.997955 0.527245
0.74078 1 0.54612
0.831891 1 0.620401
0.929519 1 0.747524
0.919463 1 1
0.027863 0.101884 0.407263
0.0962844 0.119905 0.399695
0.158373 0.138064 0.393927
0.240009 0.150256 0.387625
0.341054 0.140719 0.390097
0.43505 0.133776 0.407355
0.525643 0.157504 0.430213
0.683665 0.153323 0.460487
0.912276 0.40148 0.541207
0.0272221 0.161898 0.404028
0.0777295 0.161364 0.412222
0.152743 0.17348 0.410986
0.239155 0.1879 0.405844
0.352575 0.19295 0.394553
0.454871 0.18613 0.408942
0.543923 0.204349 0.439445
0.691386 0.229084 0.45478
0.960159 0.411749 0.53518
0 0.214084 0.426184
0.0695354 0.213809 0.425452
0.173388 0.212116 0.435462
0.271534 0.242237 0.409812
0.357794 0.250645 0.416693
0.459556 0.246281 0.440894
0.575799 0.245014 0.462669
0.715206 0.296666 0.461662
1 0.431724 0.548577
0.0610666 0.294133 0.405859
0.11249 0.295781 0.422126
0.162799 0.302953 0.438163
0.282994 0.311437 0.436912
0.372137 0.331334 0.431266
0.500023 0.310857 0.463828
0.614496 0.320684 0.477195
0.764767 0.357763 0.508644
1 0.505226 0.620859
0.132189 0.380255 0.394232
0.165454 0.381857 0.424445
0.234379 0.385519 0.447044
0.312322 0.399115 0.456168
0.376394 0.404456 0.500633
0.53666 0.398611 0.496376
0.647745 0.418463 0.521889
0.801129 0.471397 0.568566
1 0.652934 0.688884
0.160967 0.474128 0.408911
0.207462 0.484382 0.424521
0.240726 0.501335 0.439658
0.339101 0.519356 0.434867
0.40296 0.538094 0.460334
0.516808 0.537484 0.515312
0.632654 0.554452 0.56466
0.799954 0.599619 0.586175
1 0.736706 0.711803
0.101762 0.597848 0.424353
0.172519 0.611719 0.436042
0.249836 0.626184 0.456031
0.368078 0.646998 0.44239
0.418967 0.667033 0.486488
0.53753 0.681956 0.510338
0.691341 0.691554 0.520211
0.832013 0.7149 0.566323
1 0.823896 0.706294
0 0.753994 0.417563
0.240894 0.7476 0.49723
0.349477 0.75787 0.523964
0.420615 0.78117 0.530373
0.508476 0.804242 0.533837
0.586542 0.833982 0.532174
0.717174 0.852262 0.546654
0.85742 0.862165 0.593698
1 0.903365 0.704356
0.430808 0.939879 0.640177
0.446525 0.966415 0.606104
0.530648 0.979751 0.606409
0.618631 0.992706 0.618418
0.680247 1 0.625956
0.73698 1 0.649882
0.853086 1 0.742321
0.940703 1 0.881117
0.919463 1 1
0.0468605 0.135775 0.533303
0.115526 0.152819 0.525383
0.181659 0.173495 0.516274
0.250355 0.19588 0.506523
0.340581 0.208576 0.497688
0.451621 0.194354 0.512764
0.576013 0.195941 0.541634
0.699474 0.242252 0.580514
0.999313 0.36556 0.655207
0.0491646 0.188266 0.533852
0.0800336 0.193698 0.537606
0.156649 0.206363 0.535439
0.228733 0.218616 0.537453
0.336339 0.22501 0.533806
0.466316 0.235904 0.52134
0.59472 0.23917 0.543267
0.710582 0.281697 0.585184
1 0.409903 0.637308
0.039765 0.252415 0.530449
0.0239109 0.250584 0.547906
0.166491 0.244724 0.55552
0.256947 0.270863 0.543267
0.351888 0.294804 0.52842
0.477043 0.301045 0.525872
0.60444 0.297841 0.559075
0.7337 0.322957 0.598337
1 0.456855 0.625025
0 0.3149 0.561883
0 0.315053 0.566415
0.167895 0.317784 0.566644
0.275517 0.320516 0.57847
0.390097 0.356542 0.542596
0.486107 0.373526 0.54847
0.614343 0.363104 0.596811
0.769268 0.370047 0.627207
1 0.499443 0.683391
0.0939345 0.404395 0.530755
0.149676 0.411322 0.539803
0.195743 0.409506 0.572091
0.269947 0.426154 0.578882
0.411551 0.433783 0.575998
0.497795 0.45832 0.580423
0.669871 0.435798 0.609415
0.809949 0.454566 0.637598
1 0.601999 0.748959
0.16994 0.503319 0.518441
0.215686 0.508095 0.540612
0.269902 0.512261 0.571054
0.353399 0.521294 0.59144
0.42855 0.537102 0.609079
0.50309 0.543832 0.661173
0.703746 0.532387 0.665599
0.834684 0.577447 0.689403
1 0.715007 0.832273
0.213336 0.61677 0.535882
0.275334 0.628031 0.545617
0.299138 0.643015 0.573144
0.383825 0.660502 0.582071
0.468116 0.683757 0.581018
0.542107 0.704936 0.610452
0.676936 0.704433 0.67599
0.788052 0.732082 0.754711
1 0.820249 0.80885
0.159411 0.766415 0.555108
0.227741 0.780636 0.568429
0.315541 0.793973 0.590677
0.419806 0.815641 0.58439
0.509941 0.836408 0.59411
0.572137 0.849485 0.668452
0.715328 0.866957 0.677211
0.866453 0.875334 0.712154
1 0.922637 0.850477
0.370672 0.972045 0.687282
0.452155 0.982132 0.692241
0.519951 0.997757 0.692607
0.601419 1 0.696437
0.67303 1 0.712978
0.732113 1 0.772869
0.892485 1 0.839109
0.932784 1 1
0.919463 1 1
0.0945602 0.194202 0.710842
0.155398 0.205966 0.700008
0.219638 0.223667 0.68748
0.29015 0.247303 0.671885
0.363821 0.28188 0.648295
0.45951 0.286717 0.647898
0.598749 0.272358 0.678386
0.772763 0.298146 0.722545
1 0.378225 0.80972
0.0569772 0.228367 0.717311
0.112886 0.234028 0.711986
0.189899 0.248768 0.702052
0.268269 0.268101 0.691295
0.341878 0.287541 0.684596
0.455558 0.298146 0.676936
0.610285 0.299901 0.685344
0.7832 0.330587 0.719188
1 0.400168 0.811215
0.102541 0.295384 0.703487
0.092607 0.291752 0.711543
0.154711 0.300969 0.709468
0.241032 0.310353 0.709484
0.331899 0.326467 0.707103
0.458122 0.342382 0.694942
0.619348 0.363439 0.682521
0.791196 0.383658 0.71783
1 0.430045 0.821347
0.0787823 0.367971 0.695796
0 0.360281 0.718914
0.118029 0.35787 0.726482
0.273259 0.349401 0.737087
0.376013 0.386236 0.713741
0.485298 0.41677 0.692073
0.625895 0.43032 0.699657
0.782254 0.441886 0.751263
1 0.476204 0.840208
0 0.436347 0.721614
0 0.433173 0.739345
0.125032 0.433051 0.742428
0.267399 0.441764 0.743603
0.385092 0.450019 0.751507
0.521477 0.488243 0.710719
0.640162 0.517327 0.707851
0.801999 0.500328 0.781781
1 0.553567 0.833967
0.115038 0.532296 0.694881
0.177432 0.540566 0.699962
0.238514 0.54377 0.720607
0.294926 0.545586 0.754437
0.384787 0.569131 0.751965
0.555184 0.576318 0.744839
0.648981 0.608621 0.7523
0.861906 0.583947 0.782391
1 0.653361 0.858412
0.21474 0.652232 0.673869
0.275776 0.659663 0.686198
0.317525 0.663691 0.721157
0.401801 0.670253 0.74699
0.490669 0.684215 0.760204
0.564263 0.70071 0.788266
0.649973 0.71165 0.844831
0.858228 0.72398 0.834669
1 0.800381 0.906828
0.29308 0.786007 0.686748
0.358679 0.797009 0.694697
0.386358 0.809766 0.723705
0.451987 0.827893 0.735546
0.544228 0.849882 0.728054
0.615518 0.870924 0.747967
0.724376 0.882536 0.789471
0.850034 0.887526 0.853376
0.979721 0.945418 0.935332
0.307134 1 0.699901
0.406897 1 0.726116
0.516655 1 0.712459
0.631586 1 0.727581
0.6851 1 0.793545
0.770916 1 0.858351
0.914443 1 0.944564
0.919463 1 1
0.919463 1 1
0.23505 0.371664 1
0.284932 0.369833 1
0.341405 0.373816 1
0.403189 0.384741 1
0.470024 0.402625 1
0.545907 0.432303 1
0.647059 0.464988 0.965805
0.803555 0.447074 1
1 0.513558 1
0.167651 0.379675 1
0.23212 0.377096 1
0.298604 0.380667 1
0.368811 0.391577 1
0.441428 0.409033 1
0.519265 0.43154 1
0.625528 0.464027 0.981247
0.797498 0.4551 1
1 0.534401 1
0.154772 0.416464 1
0.156664 0.402152 1
0.238331 0.403922 1
0.321569 0.41297 1
0.402655 0.427832 1
0.485466 0.446647 1
0.588266 0.46067 1
0.793164 0.473884 1
1 0.578286 1
0.203052 0.479515 1
0.180346 0.465141 1
0.188769 0.457481 1
0.265583 0.463554 1
0.353872 0.472816 1
0.449836 0.484398 1
0.572931 0.512169 1
0.792935 0.542412 0.983291
1 0.620066 1
0.230411 0.551369 1
0.17258 0.537881 1
0.109117 0.526986 1
0.205997 0.522225 1
0.376913 0.510979 1
0.493629 0.541558 1
0.620813 0.591897 0.993378
0.799161 0.609659 0.976318
1 0.660685 1
0.112947 0.62649 1
0 0.611536 1
0 0.597711 1
0.163592 0.595895 1
0.384421 0.593866 1
0.520775 0.595712 1
0.674968 0.646281 1
0.816312 0.695384 0.9617
1 0.708415 1
0 0.711101 1
0 0.710323 1
0.147326 0.712886 1
0.318563 0.715801 1
0.375189 0.723812 1
0.501106 0.744991 1
0.699779 0.756619 1
0.808087 0.783749 1
1 0.801694 0.98056
0.25304 0.842191 0.965682
0.328588 0.848585 0.961227
0.389807 0.850553 0.975891
0.441138 0.842313 1
0.539239 0.847074 1
0.648768 0.86183 1
0.736217 0.877897 1
0.81825 0.906447 1
0.928374 0.995026 1
0.495888 1 0.910689
0.50898 1 0.922789
0.58471 1 0.922164
0.669612 1 0.906691
0.755474 1 0.927291
0.870954 1 0.959121
0.91931 1 1
0.919463 1 1
0.919463 1 1
