subtle niceties LUT V2 beta (SSH-TS reimagined).cube
TITLE "Generated by Resolve"
LUT_3D_SIZE 9
0.00801099 0.00801099 0.00801099
0.0736095 0.0106813 0.00868238
0.158297 0.0108492 0.0105592
0.250629 0.0116274 0.0153658
0.348348 0.0149996 0.0247196
0.456657 0.0223697 0.0411383
0.580362 0.049424 0.0756542
0.731487 0.1084 0.132631
1 0.249058 0.252384
0.0165408 0.0761425 0.0178073
0.0837415 0.0818952 0.0220951
0.166522 0.0875105 0.0248875
0.261753 0.091783 0.0297093
0.364141 0.0960098 0.0381323
0.47602 0.105013 0.0530709
0.606897 0.126223 0.0834516
0.756863 0.180575 0.143069
1 0.31812 0.269108
0.0254826 0.165637 0.0305333
0.0990463 0.172061 0.0388647
0.184115 0.179904 0.0458381
0.2795 0.188403 0.0505074
0.381979 0.197696 0.0594186
0.49546 0.210025 0.0762493
0.628367 0.230426 0.107179
0.784146 0.268711 0.156985
1 0.399115 0.290242
0.036759 0.26862 0.050248
0.117845 0.276249 0.0614023
0.206332 0.285222 0.0732128
0.302953 0.295521 0.0858778
0.405615 0.307225 0.0940414
0.518135 0.322103 0.113375
0.649317 0.343923 0.14406
0.803174 0.379065 0.190967
1 0.493797 0.322759
0.0470893 0.38143 0.0764782
0.141985 0.389838 0.0920729
0.234699 0.399405 0.109651
0.332021 0.410483 0.130709
0.433417 0.423148 0.149859
0.544411 0.438422 0.162631
0.67219 0.4598 0.191714
0.819791 0.492775 0.238087
1 0.594202 0.372107
0.0727703 0.507881 0.120363
0.177401 0.516609 0.138598
0.27274 0.525963 0.159319
0.370123 0.536507 0.183658
0.46894 0.548424 0.212512
0.575219 0.56289 0.238911
0.697353 0.582162 0.261601
0.835599 0.611109 0.305959
1 0.695338 0.450294
0.131701 0.656275 0.187381
0.23505 0.663859 0.208408
0.329091 0.671778 0.232074
0.423148 0.68043 0.259236
0.517769 0.689647 0.290105
0.616861 0.700267 0.330053
0.726802 0.715648 0.369604
0.850065 0.737896 0.416678
1 0.799191 0.550378
0.261402 0.820569 0.304982
0.344869 0.825788 0.326848
0.426246 0.83061 0.35198
0.508415 0.835492 0.381216
0.591272 0.839933 0.414771
0.67657 0.844892 0.455329
0.768536 0.851942 0.508186
0.867475 0.86424 0.563226
1 0.896345 0.66157
0.606012 1 0.604135
0.649042 1 0.625513
0.689647 1 0.647791
0.730877 1 0.670695
0.769879 1 0.6925
0.810239 1 0.71284
0.853651 1 0.729488
0.905058 1 0.739391
1 1 0.769223
0.0222782 0.0188754 0.0919203
0.0874495 0.0231327 0.0887922
0.166354 0.0256046 0.0864424
0.261128 0.0217136 0.0825513
0.361578 0.0162661 0.0801862
0.47097 0.0129549 0.086305
0.593088 0.0434882 0.120165
0.742855 0.111025 0.172519
1 0.260487 0.287205
0.0297704 0.0906691 0.0911879
0.0965286 0.0965438 0.0965438
0.166278 0.109194 0.102861
0.261875 0.115618 0.100053
0.367163 0.119295 0.100069
0.481361 0.127092 0.113664
0.613886 0.146304 0.139864
0.767803 0.191836 0.187106
1 0.329854 0.304921
0.0463111 0.173907 0.107057
0.120897 0.178729 0.121492
0.19205 0.191379 0.13077
0.282216 0.204089 0.129793
0.385061 0.215106 0.131792
0.499962 0.227832 0.143938
0.634409 0.247562 0.167422
0.791897 0.283558 0.208057
1 0.410574 0.326482
0.0590219 0.27599 0.128466
0.140002 0.282673 0.144121
0.219089 0.293935 0.156771
0.310277 0.306966 0.167926
0.411215 0.320623 0.169986
0.523629 0.336492 0.181476
0.655344 0.358389 0.204944
0.809644 0.392813 0.243824
1 0.502892 0.356008
0.0689555 0.389563 0.155947
0.161028 0.397742 0.172213
0.248173 0.408179 0.18819
0.34139 0.420691 0.205356
0.440848 0.434424 0.222354
0.550988 0.450507 0.231388
0.678538 0.472099 0.250477
0.82565 0.504768 0.288869
1 0.600961 0.410925
0.0919661 0.517021 0.195178
0.192416 0.525536 0.212451
0.284367 0.535286 0.231098
0.379507 0.546273 0.252216
0.476753 0.558709 0.275975
0.582055 0.573266 0.300404
0.703319 0.592523 0.320989
0.840391 0.621103 0.359594
1 0.701473 0.483314
0.14345 0.665797 0.254505
0.24506 0.673198 0.273671
0.338308 0.680903 0.295094
0.431724 0.689326 0.319249
0.525216 0.698436 0.346288
0.622583 0.709438 0.378729
0.732555 0.723751 0.414862
0.855222 0.744945 0.454856
1 0.804013 0.575387
0.256931 0.831571 0.351949
0.345205 0.835889 0.372992
0.428565 0.839994 0.396506
0.512078 0.844038 0.423346
0.595071 0.847761 0.453452
0.680201 0.851942 0.489128
0.77229 0.857725 0.536233
0.870268 0.868574 0.587747
1 0.898192 0.67602
0.613046 1 0.628901
0.654765 1 0.648173
0.694728 1 0.668193
0.734798 1 0.688518
0.773037 1 0.707561
0.811597 1 0.72462
0.853941 1 0.737835
0.905119 1 0.746151
1 1 0.775708
0.0433204 0.029984 0.188357
0.108263 0.0360723 0.182773
0.17966 0.0422217 0.18262
0.267369 0.048188 0.180011
0.367651 0.0471962 0.179248
0.479866 0.0436255 0.182239
0.609476 0.0486 0.19501
0.758999 0.0983902 0.228031
1 0.250996 0.326894
0.0507668 0.107042 0.177569
0.11603 0.11516 0.17409
0.184146 0.12575 0.184695
0.274662 0.133593 0.189197
0.384436 0.129351 0.185946
0.502403 0.125704 0.186923
0.636378 0.133715 0.198215
0.785443 0.189578 0.239445
1 0.344305 0.346288
0.0604257 0.190173 0.191379
0.137652 0.195041 0.1953
0.207034 0.20705 0.20708
0.285115 0.225452 0.219013
0.385504 0.239582 0.224094
0.502632 0.252522 0.227955
0.639124 0.271534 0.238712
0.797742 0.305715 0.267552
1 0.424903 0.367819
0.0844434 0.287938 0.211307
0.16376 0.293736 0.224125
0.241611 0.303166 0.242176
0.320989 0.320531 0.256413
0.415442 0.338216 0.26186
0.526696 0.356039 0.267674
0.659678 0.377813 0.279988
0.814847 0.411078 0.307485
1 0.513558 0.405966
0.0983444 0.400198 0.239429
0.185733 0.407553 0.255146
0.271107 0.416632 0.274189
0.356054 0.431266 0.290425
0.449912 0.447333 0.305318
0.556909 0.465263 0.313588
0.683436 0.487556 0.328466
0.830289 0.519631 0.358328
1 0.608988 0.456489
0.118303 0.527489 0.276127
0.214023 0.535393 0.292927
0.303655 0.544427 0.311864
0.393729 0.556207 0.33051
0.487251 0.569604 0.350088
0.589868 0.584878 0.371115
0.70901 0.604578 0.388449
0.844739 0.632685 0.420676
1 0.708263 0.521645
0.163745 0.675776 0.329625
0.261906 0.68275 0.347082
0.352544 0.690196 0.366415
0.443168 0.69868 0.387396
0.534325 0.707866 0.410498
0.630259 0.718624 0.437659
0.738201 0.732616 0.469352
0.858808 0.753185 0.503258
1 0.808789 0.604044
0.267781 0.840665 0.413443
0.353628 0.844923 0.431205
0.436728 0.848386 0.452277
0.519829 0.851743 0.475883
0.601892 0.854932 0.501595
0.685771 0.858701 0.531197
0.776593 0.863767 0.570672
0.873442 0.873106 0.615839
1 0.900145 0.692531
0.620844 1 0.656489
0.661845 1 0.673533
0.700542 1 0.690974
0.739406 1 0.708476
0.775631 1 0.724529
0.813764 1 0.738476
0.854383 1 0.748012
0.905028 1 0.754971
1 1 0.784436
0.079057 0.0468605 0.293324
0.136919 0.0542458 0.290074
0.201434 0.0635691 0.2878
0.283146 0.0734112 0.287984
0.377127 0.0851453 0.285878
0.492271 0.0932479 0.292302
0.627131 0.0994125 0.301823
0.775418 0.125277 0.316289
1 0.250553 0.386725
0.0833295 0.125933 0.28661
0.142687 0.134295 0.283619
0.209415 0.144137 0.286473
0.292714 0.154208 0.295125
0.389517 0.165209 0.297322
0.506142 0.168902 0.300038
0.643946 0.174411 0.30634
0.80473 0.196078 0.322591
1 0.33109 0.398291
0.098085 0.207156 0.288975
0.161669 0.215396 0.287236
0.228626 0.228077 0.290684
0.306264 0.244038 0.306874
0.402014 0.258762 0.317266
0.523415 0.265171 0.320226
0.667613 0.270314 0.320363
0.82443 0.300664 0.338506
1 0.434089 0.432715
0.104845 0.306157 0.3084
0.179202 0.313466 0.314565
0.259968 0.322271 0.322484
0.338384 0.338521 0.338582
0.42211 0.360327 0.353765
0.529442 0.380285 0.364614
0.662486 0.402182 0.376089
0.81854 0.433951 0.397116
1 0.528496 0.472679
0.12491 0.415381 0.332082
0.208392 0.422599 0.343755
0.293782 0.430625 0.358953
0.378531 0.443214 0.379187
0.462593 0.462486 0.395972
0.563546 0.48307 0.405432
0.687297 0.506691 0.418006
0.833799 0.537911 0.440848
1 0.621866 0.516762
0.149157 0.54023 0.36643
0.238514 0.547875 0.380804
0.326146 0.5561 0.397925
0.415259 0.566415 0.418097
0.50219 0.581216 0.435752
0.599634 0.597971 0.453529
0.715343 0.61854 0.467262
0.848966 0.64622 0.492668
1 0.717952 0.572122
0.189212 0.687205 0.414252
0.282261 0.693858 0.429618
0.371099 0.700572 0.447013
0.460044 0.708232 0.466499
0.547295 0.717662 0.485878
0.640192 0.728557 0.507958
0.744976 0.742519 0.53434
0.863096 0.762356 0.56141
1 0.814542 0.640955
0.285344 0.850004 0.486107
0.370642 0.853254 0.502129
0.450782 0.856382 0.519966
0.532341 0.859083 0.539895
0.612024 0.86186 0.56144
0.693263 0.865309 0.586007
0.782071 0.870024 0.616648
0.877211 0.878187 0.653727
1 0.901946 0.715251
0.632807 1 0.69192
0.670253 1 0.704845
0.707668 1 0.719371
0.744839 1 0.733883
0.77908 1 0.746609
0.81532 1 0.757214
0.854505 1 0.763119
0.905516 1 0.769162
1 1 0.798215
0.127687 0.073106 0.405432
0.173022 0.0799268 0.403967
0.230259 0.0910811 0.40267
0.305867 0.103532 0.401328
0.396017 0.116503 0.403006
0.504417 0.136294 0.406332
0.645762 0.161212 0.42211
0.806226 0.185565 0.43679
1 0.276173 0.470008
0.129137 0.145144 0.405905
0.178164 0.15346 0.40531
0.239734 0.163745 0.405447
0.317922 0.175708 0.407797
0.409308 0.187655 0.414206
0.51603 0.204288 0.415503
0.654521 0.223178 0.424247
0.816159 0.240238 0.433127
1 0.343435 0.476249
0.136721 0.226963 0.405386
0.190326 0.236881 0.403128
0.255131 0.249134 0.403906
0.332998 0.263661 0.411795
0.423468 0.27866 0.425681
0.530434 0.296315 0.4336
0.668574 0.310201 0.437507
0.834363 0.327977 0.443458
1 0.42298 0.494392
0.14847 0.323491 0.414664
0.211658 0.332586 0.416373
0.283925 0.343984 0.417792
0.360723 0.360372 0.425803
0.44445 0.379431 0.445075
0.547967 0.399039 0.458686
0.685252 0.41442 0.467399
0.848554 0.43415 0.476753
1 0.536034 0.542443
0.153979 0.433417 0.436912
0.227588 0.442267 0.444633
0.309789 0.451438 0.452506
0.397238 0.462974 0.463249
0.480323 0.480827 0.480858
0.57229 0.503944 0.496788
0.691981 0.528283 0.511254
0.836789 0.558724 0.530007
1 0.638743 0.589075
0.177325 0.556451 0.46508
0.260533 0.564065 0.475578
0.346548 0.571923 0.488182
0.43563 0.58117 0.503914
0.521752 0.594171 0.52311
0.612222 0.612406 0.54052
0.722744 0.634043 0.552483
0.853086 0.661479 0.572183
1 0.730312 0.633936
0.218845 0.699916 0.506264
0.306432 0.706233 0.518837
0.391608 0.712627 0.533028
0.478492 0.719554 0.549401
0.564553 0.727718 0.567422
0.652476 0.73901 0.585687
0.753414 0.752956 0.606699
0.867811 0.772335 0.627024
1 0.821225 0.687404
0.309377 0.859373 0.566415
0.390387 0.862226 0.579614
0.468818 0.864546 0.594308
0.547478 0.866712 0.610742
0.624826 0.868864 0.62829
0.703136 0.871931 0.647837
0.788968 0.876097 0.672053
0.881544 0.883299 0.700755
1 0.904433 0.743816
0.646296 1 0.733486
0.682475 1 0.743938
0.716213 1 0.754391
0.749401 1 0.76463
0.783627 1 0.774411
0.816876 1 0.78143
0.854887 1 0.784405
0.906493 1 0.789105
1 1 0.817853
0.192325 0.122164 0.539498
0.224826 0.12314 0.536522
0.272938 0.12929 0.534676
0.340932 0.139971 0.533257
0.425498 0.153246 0.533578
0.528923 0.171923 0.538476
0.65951 0.206638 0.546715
0.829038 0.250843 0.568414
1 0.322011 0.576532
0.190311 0.176059 0.54255
0.226078 0.179171 0.540154
0.278706 0.187518 0.538872
0.350134 0.199969 0.538537
0.435721 0.214405 0.5402
0.538262 0.231815 0.545907
0.666285 0.262425 0.550546
0.83212 0.300755 0.564019
1 0.376455 0.577035
0.19028 0.252094 0.542321
0.231556 0.258564 0.539742
0.290517 0.270451 0.539803
0.365133 0.284932 0.541878
0.451499 0.300893 0.547692
0.553445 0.318242 0.558297
0.678035 0.343313 0.563821
0.838621 0.373465 0.569879
1 0.452873 0.594476
0.19411 0.346899 0.544991
0.24567 0.355291 0.543755
0.312093 0.36791 0.542016
0.387839 0.383352 0.545373
0.471962 0.400595 0.556298
0.570764 0.419333 0.573007
0.692592 0.443626 0.583841
0.848325 0.468772 0.592371
1 0.542657 0.623133
0.203021 0.453696 0.557687
0.2663 0.461677 0.559747
0.340368 0.472282 0.562142
0.421057 0.485679 0.56582
0.502846 0.502953 0.575936
0.594354 0.522988 0.595361
0.710811 0.545785 0.609049
0.859525 0.569116 0.620386
1 0.641596 0.659449
0.217304 0.575357 0.580209
0.287312 0.582925 0.586603
0.366201 0.591974 0.594247
0.452644 0.601633 0.602625
0.540276 0.613245 0.613428
0.629023 0.62977 0.630076
0.73138 0.652613 0.64419
0.857008 0.679576 0.660471
1 0.744152 0.705501
0.2542 0.715236 0.61149
0.332265 0.721248 0.619959
0.413016 0.727581 0.629801
0.497795 0.733913 0.641138
0.582254 0.741085 0.654383
0.668711 0.750683 0.670375
0.763882 0.764767 0.687404
0.873106 0.783932 0.701305
1 0.829709 0.744503
0.338796 0.869581 0.657496
0.415579 0.871855 0.667445
0.489937 0.873762 0.678248
0.565438 0.875349 0.690303
0.640116 0.876799 0.703349
0.716045 0.878874 0.718257
0.797696 0.882673 0.735851
0.886641 0.889052 0.756634
1 0.907149 0.780591
0.664057 1 0.782544
0.697017 1 0.790311
0.728237 1 0.798001
0.758114 1 0.804807
0.787442 1 0.809949
0.818372 1 0.813107
0.855787 1 0.813809
0.907683 1 0.816724
1 1 0.845716
0.279774 0.190524 0.712688
0.30399 0.185901 0.706538
0.342718 0.186145 0.702068
0.399741 0.191669 0.698741
0.474083 0.202518 0.696651
0.568322 0.219837 0.69691
0.69012 0.248005 0.702525
0.838087 0.306493 0.70782
1 0.410681 0.726497
0.272999 0.231937 0.714168
0.299474 0.228489 0.708263
0.341131 0.230701 0.703853
0.401099 0.238834 0.700526
0.477623 0.251942 0.698497
0.572656 0.270283 0.698878
0.693416 0.29749 0.704143
0.84303 0.344533 0.708751
1 0.441199 0.714946
0.266636 0.296666 0.713924
0.297642 0.29546 0.709056
0.344366 0.300618 0.704967
0.409186 0.311833 0.702312
0.488685 0.327489 0.701717
0.584268 0.346502 0.704143
0.703075 0.371252 0.711162
0.848432 0.412085 0.714931
1 0.497505 0.722118
0.26244 0.383413 0.712383
0.301106 0.385229 0.707332
0.355123 0.393851 0.702541
0.425681 0.408133 0.701976
0.507057 0.424781 0.704463
0.601572 0.443702 0.710796
0.717342 0.466682 0.722286
0.856077 0.501518 0.727489
1 0.577493 0.739086
0.263661 0.484215 0.714336
0.312032 0.488228 0.710643
0.375692 0.497948 0.708263
0.451209 0.511955 0.706523
0.531884 0.527703 0.710231
0.622553 0.545708 0.719936
0.732403 0.567361 0.735103
0.864073 0.597833 0.743282
1 0.664256 0.760113
0.271748 0.599908 0.723827
0.331411 0.604685 0.723262
0.403281 0.613291 0.724743
0.482811 0.623789 0.726406
0.564828 0.636072 0.72958
0.651225 0.65156 0.737713
0.751736 0.67068 0.753292
0.873304 0.695201 0.762203
1 0.749294 0.782391
0.305455 0.733593 0.739773
0.369421 0.73872 0.743725
0.441413 0.745541 0.74905
0.51989 0.752316 0.754391
0.601556 0.758938 0.760128
0.686 0.767468 0.76762
0.778119 0.779538 0.780026
0.880049 0.798062 0.789395
1 0.840497 0.814817
0.392432 0.878233 0.767208
0.450996 0.882429 0.773053
0.516823 0.88484 0.77908
0.587884 0.885969 0.785519
0.658747 0.886793 0.792523
0.731456 0.887984 0.800931
0.8094 0.890623 0.81181
0.893706 0.895903 0.824491
1 0.91078 0.832273
0.686946 1 0.844022
0.716258 1 0.848768
0.743358 1 0.853101
0.77052 1 0.856703
0.795758 1 0.85864
0.822339 1 0.857908
0.857649 1 0.855924
0.911696 1 0.858305
1 1 0.887098
0.405341 0.302754 0.931579
0.422522 0.288304 0.920165
0.450706 0.279164 0.911452
0.493874 0.2757 0.904906
0.553033 0.278584 0.899733
0.631434 0.289631 0.894484
0.736095 0.313237 0.888426
0.868742 0.357794 0.883528
1 0.470176 0.875578
0.38883 0.327413 0.932769
0.408331 0.31371 0.922881
0.439216 0.30631 0.914229
0.485237 0.305715 0.906538
0.54728 0.311818 0.899718
0.628214 0.325216 0.893629
0.735576 0.348104 0.88867
0.870359 0.389471 0.883818
1 0.501961 0.870268
0.374197 0.374273 0.929549
0.397101 0.363287 0.92105
0.43183 0.359182 0.912505
0.4822 0.361913 0.904555
0.548028 0.371328 0.89752
0.631693 0.387259 0.891539
0.739773 0.411246 0.887098
0.874495 0.447425 0.886015
1 0.551934 0.871641
0.361028 0.443366 0.923552
0.388739 0.436698 0.915892
0.429496 0.436393 0.907851
0.485771 0.442878 0.899962
0.555932 0.455558 0.893507
0.642054 0.47361 0.88893
0.749371 0.497719 0.886732
0.879515 0.530541 0.887724
1 0.619944 0.877302
0.350622 0.530175 0.916075
0.385946 0.528099 0.90837
0.434333 0.531487 0.900572
0.4972 0.5411 0.892576
0.572488 0.5552 0.88835
0.658854 0.572595 0.886
0.762203 0.594125 0.88632
0.885115 0.622599 0.889937
1 0.696818 0.884245
0.346197 0.634333 0.909148
0.39266 0.63537 0.902693
0.449775 0.640833 0.896757
0.519875 0.650858 0.891432
0.596765 0.662943 0.886397
0.680064 0.676875 0.884733
0.776852 0.694057 0.886687
0.889189 0.716747 0.891981
1 0.774731 0.890288
0.36051 0.758755 0.903975
0.417945 0.761303 0.900633
0.482872 0.766476 0.89807
0.555261 0.773053 0.895445
0.630396 0.779751 0.892592
0.709422 0.787762 0.890471
0.797009 0.798444 0.891066
0.894347 0.813169 0.896223
1 0.848508 0.896834
0.464302 0.888212 0.893843
0.509453 0.892515 0.896941
0.560952 0.896056 0.899504
0.619272 0.898466 0.900786
0.682353 0.899657 0.900572
0.7505 0.900038 0.900481
0.824399 0.901259 0.901656
0.902937 0.905043 0.905989
1 0.916609 0.902571
0.72253 1 0.922118
0.746014 1 0.922988
0.767468 1 0.923842
0.788281 1 0.924315
0.808164 1 0.923858
0.832242 1 0.922332
0.865965 1 0.920592
0.920623 1 0.921859
0.999115 1 0.949767
0.713893 0.656764 1
0.708919 0.608957 1
0.711025 0.565393 1
0.723445 0.529076 1
0.748302 0.503273 1
0.788891 0.487327 1
0.852384 0.48249 1
0.944884 0.493874 1
1 0.564752 1
0.663157 0.630625 1
0.661219 0.586389 1
0.668513 0.549432 1
0.686793 0.52076 1
0.717693 0.5019 1
0.764874 0.492271 1
0.835019 0.493889 1
0.933318 0.512367 1
1 0.594949 1
0.614984 0.619852 1
0.619898 0.583658 1
0.633829 0.554788 1
0.658595 0.533806 1
0.696468 0.521248 1
0.749615 0.51812 1
0.825757 0.526055 1
0.927825 0.550713 1
1 0.640742 1
0.572808 0.631662 1
0.585184 0.604028 1
0.606149 0.583383 1
0.638056 0.570016 1
0.682582 0.564294 1
0.742168 0.567041 1
0.822889 0.580423 1
0.92639 0.608911 1
1 0.69897 1
0.538674 0.668269 1
0.556573 0.649317 1
0.584222 0.636103 1
0.623133 0.630152 1
0.674052 0.630671 1
0.738705 0.638239 1
0.822492 0.654749 1
0.924758 0.683436 1
1 0.76173 1
0.512459 0.729091 1
0.536675 0.71989 1
0.570871 0.714382 1
0.61709 0.714092 1
0.674098 0.718456 1
0.742153 0.72842 1
0.825803 0.74345 1
0.921309 0.764996 1
1 0.822202 1
0.504097 0.817273 1
0.53698 0.815167 1
0.578546 0.815122 1
0.629602 0.817563 1
0.690318 0.822309 1
0.756817 0.828794 1
0.833127 0.836835 1
0.917998 0.848798 1
1 0.879988 1
0.556008 0.923659 1
0.594141 0.924178 1
0.636576 0.925231 1
0.684474 0.925689 1
0.735348 0.925383 1
0.789334 0.925155 1
0.851575 0.925475 1
0.920378 0.926787 1
1 0.935637 1
0.799115 1 1
0.812711 1 1
0.824079 1 1
0.835523 1 1
0.850248 1 1
0.870878 1 1
0.902831 1 1
0.951751 1 1
0.99736 1 1
