subtle niceties LUT V2 beta 15 (SSH-TS reimagined).cube
TITLE "Generated by Resolve"
LUT_3D_SIZE 9
0.0115663 0.011368 0.0174258
0.0764477 0.0183871 0.0172885
0.16556 0.0211795 0.0236362
0.248676 0.0277714 0.0113527
0.323049 0.031693 0
0.401816 0.0382849 0
0.493446 0.0547951 0
0.617578 0.0795605 0
0.759594 0.11075 0
0.0323033 0.082475 0.0172122
0.095201 0.0901656 0.0162814
0.18703 0.0893263 0.0180514
0.27332 0.0851148 0.014023
0.349142 0.0868238 0
0.423423 0.0976272 0
0.513985 0.115328 0
0.635996 0.141711 0
0.779309 0.173892 0
0.0638285 0.174014 0.0263523
0.121309 0.176852 0.0306859
0.192157 0.188006 0.0134432
0.278859 0.188296 0
0.367025 0.180819 0
0.449226 0.183413 0
0.544228 0.191318 0
0.66421 0.214023 0
0.80679 0.247929 0
0.0868849 0.257664 0.0232395
0.151263 0.262394 0.0293889
0.221088 0.270069 0.0327916
0.288396 0.284138 0
0.378561 0.282612 0
0.471962 0.280598 0
0.570382 0.290379 0
0.692836 0.309941 0
0.838315 0.334981 0
0.121416 0.345846 0.0241398
0.186435 0.349538 0.0313878
0.249348 0.359518 0.0364996
0.322499 0.371572 0.0339818
0.398138 0.392782 0
0.487984 0.405295 0
0.599084 0.407752 0
0.724544 0.425452 0
0.864698 0.45304 0
0.176959 0.451804 0.0262303
0.236622 0.453391 0.036408
0.297719 0.462165 0.0488441
0.367178 0.474159 0.0730755
0.445945 0.493462 0.0554055
0.524163 0.519158 0
0.611048 0.553292 0
0.743496 0.562051 0
0.887068 0.579919 0.0669413
0.253559 0.583856 0.0513313
0.310628 0.584283 0.0665751
0.372305 0.591379 0.0801099
0.437018 0.601205 0.109926
0.514717 0.61355 0.141115
0.581506 0.637003 0.140368
0.668467 0.662776 0.125643
0.779706 0.696345 0
0.90837 0.719997 0.129839
0.356435 0.736461 0.0921187
0.410117 0.735561 0.117556
0.46865 0.739239 0.146563
0.530922 0.746273 0.183307
0.601999 0.755428 0.230442
0.668391 0.775113 0.248585
0.729732 0.804578 0.268055
0.833997 0.827771 0.300282
0.95906 0.848127 0.34287
0.473121 0.891066 0.182605
0.524376 0.888624 0.211109
0.582437 0.890303 0.251209
0.640925 0.896819 0.292729
0.702296 0.907637 0.333288
0.76759 0.92311 0.365026
0.814664 0.949752 0.376532
0.879744 0.970657 0.417578
0.978515 0.970565 0.485573
0.0113222 0.0189822 0.0544747
0.0916915 0.0201419 0.0774701
0.179141 0.033463 0.0849622
0.261738 0.0387579 0.0869001
0.344793 0.0288701 0.059205
0.428901 0.0237125 0.0374456
0.522347 0.0374304 0.0365911
0.645258 0.0622873 0.0367895
0.787152 0.0959487 0.026627
0.00903334 0.0903944 0.0865949
0.0934462 0.0930495 0.0873579
0.19617 0.0884871 0.0823987
0.286061 0.098497 0.0858778
0.367285 0.0917678 0.0901045
0.443427 0.0973373 0.0769513
0.531334 0.114473 0.0578012
0.651667 0.140307 0.0544442
0.798474 0.172488 0.0482338
0.0279698 0.187488 0.0704967
0.102251 0.188113 0.0623331
0.194888 0.187488 0.076524
0.296559 0.18938 0.0793317
0.387121 0.188815 0.0825513
0.47158 0.181659 0.0912947
0.561364 0.187884 0.0832685
0.675334 0.213764 0.0703288
0.820035 0.249561 0.072755
0.0715343 0.275319 0.0726024
0.150576 0.279713 0.0787976
0.226215 0.287312 0.0804456
0.302281 0.294224 0.0757153
0.392401 0.29485 0.0506447
0.483467 0.289464 0.0750439
0.579248 0.29398 0.0897078
0.698436 0.307424 0.101564
0.845853 0.330007 0.130465
0.128038 0.361089 0.0754406
0.194965 0.364767 0.0870375
0.264225 0.373602 0.101213
0.331518 0.386969 0.103746
0.408118 0.400488 0.092958
0.495918 0.410788 0.0272679
0.596124 0.414359 0.0727855
0.717815 0.425483 0.130785
0.862501 0.453208 0.171603
0.18349 0.459754 0.0880903
0.244587 0.459785 0.10074
0.311376 0.46685 0.118044
0.377661 0.47985 0.137697
0.444526 0.501671 0.144274
0.527276 0.519158 0.141131
0.626184 0.535836 0.085771
0.741985 0.553002 0.137041
0.885222 0.573404 0.221424
0.259159 0.584665 0.122545
0.314366 0.58146 0.135805
0.377874 0.58349 0.155901
0.439719 0.594247 0.180301
0.51191 0.611246 0.200504
0.573114 0.639719 0.207019
0.667475 0.659892 0.223484
0.786343 0.677882 0.232364
0.912856 0.702388 0.291035
0.36051 0.734829 0.180957
0.412451 0.730907 0.19765
0.473945 0.731319 0.22089
0.529015 0.738903 0.247837
0.596399 0.750561 0.278035
0.657145 0.773571 0.291783
0.720897 0.80621 0.29807
0.831571 0.824918 0.350118
0.958572 0.837095 0.418402
0.482048 0.892699 0.263416
0.53135 0.88957 0.285512
0.57969 0.891188 0.311971
0.632639 0.896345 0.343694
0.694652 0.906645 0.375006
0.748119 0.92636 0.389227
0.801938 0.951553 0.406607
0.880995 0.961654 0.49453
0.975509 0.964721 0.548241
0.0115206 0.0340734 0.11223
0.0792248 0.0363775 0.147021
0.189593 0.0429847 0.162081
0.265003 0.0542153 0.180606
0.347707 0.0654765 0.176944
0.427405 0.084062 0.191928
0.533028 0.0938582 0.196979
0.673411 0.10071 0.195529
0.830381 0.085069 0.161654
0.0099031 0.0848554 0.175601
0.0880598 0.0862135 0.182666
0.199374 0.088777 0.175677
0.287053 0.11104 0.197253
0.385657 0.120363 0.176547
0.461891 0.122744 0.19646
0.561425 0.125368 0.192523
0.682292 0.144411 0.199023
0.829374 0.16936 0.210071
0.000320439 0.189029 0.180774
0.0633097 0.184527 0.182666
0.184222 0.184405 0.173541
0.303822 0.188815 0.180636
0.413687 0.205737 0.194568
0.4925 0.212863 0.191485
0.578851 0.210895 0.209705
0.688762 0.224994 0.224643
0.831388 0.259098 0.238621
0.0353857 0.290532 0.192523
0.0936599 0.299214 0.160479
0.190204 0.303227 0.143664
0.302327 0.297307 0.178012
0.420432 0.299855 0.197635
0.514351 0.302617 0.201114
0.604013 0.306203 0.211063
0.712703 0.315923 0.234058
0.850187 0.343801 0.265156
0.0474403 0.393225 0.165255
0.161227 0.396323 0.172702
0.252003 0.406775 0.173022
0.329473 0.42002 0.168734
0.428733 0.418509 0.201678
0.527398 0.412009 0.210544
0.622934 0.413977 0.226368
0.73196 0.428534 0.246876
0.864317 0.456489 0.286702
0.149569 0.483574 0.179538
0.222416 0.484764 0.186389
0.30016 0.493568 0.192721
0.375219 0.508064 0.202457
0.448493 0.528496 0.203113
0.544137 0.533684 0.229328
0.647272 0.532952 0.252689
0.756298 0.544518 0.283803
0.88574 0.569574 0.325124
0.237476 0.59527 0.210513
0.294392 0.592218 0.217777
0.361517 0.597436 0.226429
0.432105 0.608911 0.243793
0.503166 0.631037 0.250629
0.574212 0.656138 0.26244
0.676936 0.666575 0.304692
0.796231 0.672755 0.344213
0.912764 0.695735 0.393942
0.345373 0.740307 0.265415
0.39234 0.734295 0.273899
0.449653 0.733593 0.284276
0.512291 0.740917 0.304891
0.578347 0.759426 0.322301
0.643534 0.787045 0.328801
0.72372 0.809232 0.384512
0.835096 0.823316 0.4439
0.953231 0.835782 0.49926
0.465232 0.899733 0.344427
0.507759 0.894484 0.355993
0.558343 0.89337 0.369619
0.613565 0.897368 0.392142
0.671153 0.910628 0.411017
0.726406 0.935531 0.418341
0.794781 0.955627 0.466941
0.878462 0.964508 0.553155
0.971679 0.966995 0.601602
0.00535592 0.0543221 0.190646
0.0741283 0.0714275 0.207507
0.181399 0.0568856 0.238102
0.278065 0.0725719 0.248569
0.3523 0.0980545 0.271214
0.44892 0.102571 0.277882
0.54699 0.135409 0.297093
0.676753 0.177295 0.333272
0.835996 0.203983 0.364782
0 0.102068 0.2495
0.0741894 0.114015 0.239567
0.187076 0.104616 0.256764
0.308827 0.1093 0.273732
0.38703 0.138918 0.291936
0.479744 0.1523 0.276112
0.574655 0.171099 0.278508
0.697276 0.19852 0.315541
0.855665 0.227131 0.346441
0 0.186816 0.285313
0.0651865 0.187304 0.27158
0.166674 0.174197 0.291737
0.302434 0.182635 0.287922
0.415579 0.22002 0.316762
0.502449 0.237964 0.319158
0.599466 0.249714 0.293141
0.711452 0.269276 0.322164
0.844358 0.306615 0.380407
0 0.30251 0.298512
0.04448 0.296544 0.287388
0.160143 0.285939 0.287877
0.286824 0.288731 0.272694
0.432792 0.300771 0.294041
0.546899 0.321263 0.315633
0.631983 0.32958 0.315633
0.726223 0.35108 0.317342
0.852415 0.377157 0.354803
0.0333562 0.408713 0.311788
0.120119 0.417624 0.298802
0.197772 0.433814 0.248631
0.289357 0.435294 0.262654
0.428 0.428458 0.29424
0.549661 0.429557 0.32517
0.651209 0.432425 0.335485
0.75613 0.443091 0.344869
0.877623 0.467018 0.372625
0.110018 0.509102 0.306737
0.164019 0.520088 0.283528
0.269642 0.531044 0.28101
0.358175 0.548837 0.270954
0.448127 0.560784 0.297551
0.561379 0.552895 0.343496
0.665629 0.54844 0.36173
0.774197 0.553567 0.388876
0.893736 0.576776 0.416831
0.167239 0.624247 0.299031
0.251453 0.620951 0.301717
0.336965 0.626291 0.30605
0.415854 0.642191 0.308095
0.490578 0.667903 0.301625
0.585992 0.676661 0.364767
0.6925 0.678401 0.413321
0.802594 0.68333 0.440116
0.91783 0.699382 0.481956
0.299535 0.756436 0.34699
0.357961 0.749035 0.348928
0.424582 0.749554 0.354604
0.49192 0.761013 0.361624
0.562249 0.783566 0.369604
0.635081 0.810361 0.38291
0.728756 0.823606 0.466011
0.842527 0.832685 0.524544
0.951644 0.843427 0.573266
0.433799 0.911543 0.41857
0.479393 0.902647 0.422797
0.533852 0.89897 0.428962
0.590921 0.905318 0.439048
0.652674 0.924285 0.45156
0.709148 0.954131 0.451225
0.785595 0.969421 0.527077
0.862348 0.986816 0.570565
0.968902 0.977035 0.64155
0.0168307 0.0936904 0.275593
0.0724041 0.0995956 0.284276
0.171191 0.110597 0.292531
0.280186 0.0849622 0.330175
0.377401 0.117372 0.346502
0.452949 0.158724 0.377707
0.571435 0.160464 0.401602
0.70692 0.207584 0.426322
0.865583 0.262226 0.46598
0.0099794 0.1402 0.317433
0.0822003 0.146441 0.310353
0.157595 0.136645 0.336904
0.285725 0.130648 0.364508
0.411719 0.149203 0.367926
0.484535 0.18645 0.392432
0.587015 0.204334 0.398489
0.718166 0.239048 0.403128
0.876356 0.286381 0.442679
0 0.210224 0.389975
0.0626841 0.210712 0.352148
0.165209 0.201144 0.36022
0.290852 0.208606 0.366293
0.441077 0.211185 0.409232
0.515221 0.253651 0.422721
0.608423 0.269581 0.425666
0.732403 0.296925 0.410742
0.878874 0.341238 0.441566
0 0.31017 0.402274
0.0658427 0.306615 0.378912
0.175692 0.290303 0.379156
0.270298 0.275151 0.405417
0.416068 0.303807 0.40972
0.563943 0.326452 0.46421
0.6327 0.367117 0.458717
0.734936 0.383474 0.462501
0.875532 0.417853 0.461372
0 0.432975 0.431113
0.0504311 0.430426 0.423835
0.168704 0.417929 0.414328
0.27541 0.404776 0.410101
0.40972 0.412467 0.394049
0.572473 0.43238 0.424094
0.690425 0.456626 0.454719
0.787854 0.465766 0.4607
0.892821 0.491493 0.476036
0.0612497 0.538155 0.438972
0.128542 0.543389 0.435752
0.22092 0.558465 0.424887
0.295949 0.575433 0.393698
0.439658 0.569009 0.413504
0.563363 0.569345 0.440635
0.689296 0.570245 0.476158
0.802472 0.576532 0.491356
0.91339 0.596201 0.512627
0.176883 0.645075 0.453025
0.23357 0.648386 0.434974
0.277684 0.670207 0.399466
0.400732 0.685237 0.390417
0.47512 0.709361 0.405722
0.574029 0.721325 0.437217
0.704982 0.709697 0.490562
0.820478 0.701747 0.541619
0.933455 0.714611 0.571389
0.257282 0.781064 0.455711
0.295888 0.780056 0.434424
0.389075 0.78085 0.436393
0.472648 0.794553 0.436088
0.550637 0.81944 0.439399
0.615534 0.846632 0.47483
0.718181 0.86453 0.510262
0.851377 0.858228 0.588205
0.96144 0.853681 0.658488
0.384939 0.929915 0.495964
0.441627 0.918288 0.495094
0.507149 0.915923 0.496742
0.573053 0.926223 0.498436
0.638956 0.949157 0.506523
0.692912 0.977874 0.536339
0.766735 0.995254 0.589014
0.867338 1 0.618616
0.971115 0.987213 0.699001
0.0276188 0.135515 0.356847
0.0703441 0.13373 0.369787
0.17583 0.156435 0.363272
0.275975 0.151369 0.390204
0.391852 0.108354 0.448585
0.496513 0.172793 0.456077
0.581704 0.231113 0.501915
0.727611 0.250599 0.543206
0.898299 0.302037 0.581582
0.0186465 0.182895 0.396582
0.0901198 0.185092 0.392767
0.158633 0.186114 0.402609
0.264866 0.173053 0.435142
0.400458 0.15491 0.473625
0.523125 0.198062 0.468513
0.603677 0.24741 0.50631
0.73077 0.276204 0.535271
0.897704 0.329793 0.557748
0 0.234134 0.47422
0.0823224 0.231144 0.451011
0.173281 0.238163 0.436149
0.269062 0.228473 0.4607
0.422782 0.250187 0.475639
0.558877 0.24564 0.506661
0.6309 0.293431 0.526452
0.737392 0.327123 0.542321
0.891844 0.369696 0.552193
0 0.320134 0.548043
0.0563363 0.302434 0.515572
0.183536 0.313085 0.474372
0.281682 0.292683 0.490288
0.426383 0.296483 0.516213
0.573373 0.344335 0.543191
0.664088 0.376242 0.555856
0.758129 0.399771 0.569543
0.875273 0.443839 0.591424
0 0.440574 0.55697
0.0992142 0.442695 0.525475
0.11928 0.437232 0.501976
0.267842 0.409537 0.505699
0.391974 0.3944 0.528267
0.56939 0.432319 0.533074
0.7205 0.470298 0.598749
0.796658 0.496361 0.608804
0.895369 0.528832 0.608667
0 0.570367 0.568917
0.0789044 0.569238 0.563745
0.191608 0.566629 0.558648
0.309926 0.544976 0.557565
0.413367 0.536492 0.543999
0.547356 0.551659 0.530236
0.723613 0.579263 0.5691
0.849928 0.601587 0.599695
0.947585 0.617731 0.61767
0.123659 0.682765 0.576806
0.176913 0.682658 0.570489
0.252689 0.69453 0.565148
0.335302 0.71281 0.569665
0.446113 0.722805 0.573419
0.598321 0.722011 0.570672
0.713817 0.726909 0.601816
0.844541 0.726177 0.641764
0.955306 0.741054 0.666346
0.25771 0.804211 0.597314
0.307256 0.802152 0.576379
0.358694 0.81529 0.550637
0.437552 0.840681 0.513817
0.540917 0.86096 0.537057
0.629847 0.874464 0.605554
0.749737 0.887755 0.618296
0.867201 0.879637 0.681956
0.973922 0.871656 0.739086
0.386053 0.943664 0.613733
0.401877 0.943313 0.58378
0.464027 0.947784 0.567025
0.561547 0.957717 0.564263
0.638941 0.981552 0.575814
0.68426 1 0.629602
0.787701 1 0.682826
0.892317 1 0.697215
0.975814 0.994003 0.780148
0.0408179 0.186587 0.451362
0.0666667 0.181476 0.470665
0.188693 0.201373 0.462837
0.278553 0.211246 0.477455
0.396185 0.19884 0.51751
0.518578 0.141451 0.594034
0.648081 0.242908 0.589395
0.753964 0.318044 0.652934
0.92015 0.357809 0.710445
0.0293278 0.233967 0.495872
0.10251 0.233066 0.494469
0.180911 0.237827 0.491722
0.245701 0.236011 0.51725
0.389288 0.223743 0.54667
0.5243 0.195819 0.598367
0.659541 0.264042 0.594354
0.76408 0.329519 0.649012
0.913619 0.373022 0.698573
0 0.275425 0.573053
0.0916609 0.278706 0.551369
0.199466 0.28632 0.527169
0.272312 0.273823 0.544823
0.393835 0.27013 0.575784
0.538369 0.2916 0.591272
0.679316 0.297688 0.619226
0.772824 0.359442 0.651331
0.899306 0.410697 0.688762
0 0.368353 0.643473
0 0.356802 0.613382
0.203296 0.366278 0.555337
0.27866 0.337942 0.57734
0.380774 0.345403 0.597162
0.580972 0.36051 0.618433
0.702678 0.373175 0.664408
0.775921 0.432776 0.674968
0.896223 0.465263 0.696208
0 0.458717 0.691676
0.103944 0.449363 0.666514
0.216587 0.437858 0.637598
0.303807 0.428519 0.613214
0.401251 0.401709 0.641077
0.548531 0.428687 0.6692
0.713451 0.484001 0.71284
0.840192 0.503914 0.72314
0.920104 0.547539 0.728603
0.0467689 0.583383 0.720913
0.145266 0.586419 0.690166
0.195239 0.583978 0.665995
0.265202 0.563241 0.645167
0.394186 0.53669 0.63856
0.511345 0.53579 0.658503
0.708629 0.589929 0.67776
0.878737 0.638086 0.73312
0.975006 0.642725 0.755306
0.0507668 0.722759 0.719631
0.150332 0.717342 0.711192
0.243259 0.719448 0.712108
0.379599 0.704463 0.721569
0.461601 0.692103 0.708965
0.569986 0.687648 0.698665
0.706569 0.711849 0.687816
0.882963 0.744305 0.740581
1 0.764218 0.75874
0.21796 0.845762 0.727901
0.25478 0.841779 0.713252
0.314183 0.848386 0.709529
0.374105 0.865278 0.727031
0.486732 0.882292 0.752956
0.659602 0.882765 0.757229
0.76701 0.893843 0.762234
0.879545 0.896712 0.78703
0.986389 0.895216 0.818708
0.363622 0.970871 0.740337
0.403388 0.966079 0.720851
0.452476 0.973816 0.704646
0.507836 0.996796 0.692058
0.573892 1 0.715908
0.683558 1 0.757
0.827741 1 0.78854
0.910109 1 0.813245
0.978912 0.999802 0.871473
0.0554971 0.252918 0.572351
0.0850538 0.24947 0.589761
0.205859 0.264286 0.587076
0.294942 0.283284 0.5906
0.403082 0.27718 0.627329
0.530465 0.263249 0.678218
0.673396 0.218021 0.758099
0.83801 0.33843 0.75227
0.96434 0.424979 0.836789
0.0498665 0.298909 0.616724
0.13164 0.298695 0.616236
0.219974 0.308003 0.608225
0.276036 0.309056 0.625071
0.382147 0.288029 0.667445
0.522744 0.291981 0.693965
0.674723 0.267033 0.754086
0.835676 0.354391 0.759197
0.964126 0.433051 0.825147
0.0140536 0.344869 0.68574
0.1308 0.345617 0.672877
0.238178 0.353414 0.64831
0.30193 0.341054 0.655207
0.385107 0.316487 0.694591
0.518791 0.331548 0.710903
0.672511 0.354803 0.729473
0.836957 0.377111 0.765835
0.952712 0.455802 0.81326
0 0.41825 0.75906
0.136172 0.406027 0.732631
0.243946 0.411444 0.694713
0.30573 0.399847 0.687404
0.394293 0.40029 0.685344
0.533806 0.393194 0.724697
0.699062 0.420584 0.738293
0.84744 0.427085 0.785809
0.932769 0.504204 0.81471
0 0.510719 0.840757
0 0.496147 0.804242
0.273228 0.495277 0.743008
0.320867 0.487831 0.720241
0.41059 0.455772 0.735729
0.522301 0.473289 0.754818
0.720287 0.488548 0.825696
0.858869 0.539345 0.826215
0.957809 0.582193 0.820447
0.0464485 0.630549 0.844465
0.117998 0.620661 0.828946
0.220111 0.607965 0.806424
0.348943 0.578866 0.781292
0.423087 0.560632 0.765255
0.51339 0.536248 0.802731
0.69279 0.58761 0.811994
0.865858 0.662898 0.879377
1 0.679484 0.888548
0.173602 0.750637 0.886839
0.237049 0.748409 0.857588
0.270756 0.746868 0.844221
0.295277 0.73547 0.827909
0.429801 0.694881 0.808194
0.527398 0.676493 0.800671
0.658183 0.695857 0.806516
0.872816 0.760922 0.852888
1 0.813687 0.87805
0.197848 0.893233 0.887678
0.246387 0.884535 0.876799
0.343725 0.880537 0.874434
0.473365 0.874739 0.893858
0.55523 0.868574 0.895933
0.643534 0.863218 0.880964
0.754711 0.866529 0.878096
0.886656 0.89366 0.867216
1 0.909148 0.908751
0.324987 1 0.881056
0.35317 1 0.863432
0.401465 1 0.868345
0.484977 1 0.895048
0.596429 1 0.91899
0.733791 1 0.92987
0.851225 1 0.932296
0.917052 1 0.933715
0.988067 1 0.936706
0.0628824 0.335256 0.726528
0.127123 0.334951 0.734997
0.237461 0.346838 0.732235
0.325765 0.361089 0.736416
0.405051 0.370016 0.764523
0.537728 0.357656 0.808911
0.68481 0.350622 0.864729
0.86186 0.328954 0.946746
1 0.449454 0.951278
0.0874189 0.378363 0.761074
0.170779 0.379675 0.760296
0.272038 0.393942 0.744747
0.324025 0.392645 0.760525
0.392615 0.39266 0.788769
0.530556 0.374166 0.829175
0.675441 0.378088 0.871382
0.854643 0.387274 0.924071
1 0.462959 0.952972
0.0697185 0.423514 0.822858
0.177829 0.424979 0.813352
0.285145 0.434287 0.790494
0.35082 0.428305 0.791058
0.420249 0.414008 0.814435
0.526131 0.399161 0.84947
0.672068 0.416663 0.87071
0.842618 0.457664 0.890776
1 0.479088 0.944808
0.0107881 0.477653 0.894713
0.201419 0.478889 0.871565
0.299458 0.483665 0.84303
0.359304 0.483177 0.82414
0.432059 0.469444 0.82446
0.527596 0.451072 0.852872
0.685176 0.46363 0.86421
0.847623 0.500816 0.881987
1 0.513741 0.94052
0 0.581033 0.969162
0.0120546 0.574853 0.929915
0.30782 0.582101 0.867262
0.370169 0.568643 0.847166
0.437842 0.524437 0.867277
0.517525 0.544411 0.841825
0.655543 0.553643 0.892607
0.87451 0.557733 0.929076
1 0.596384 0.962341
0.0928054 0.654292 1
0.312627 0.637644 0.998642
0.369863 0.633417 0.965164
0.402136 0.632853 0.92256
0.470924 0.613184 0.896361
0.569451 0.571252 0.913741
0.691279 0.606561 0.933257
0.868696 0.665797 1
1 0.701808 1
0.215488 0.81091 1
0.260868 0.803967 0.989181
0.324926 0.786023 0.980377
0.436271 0.755276 0.962295
0.508736 0.723507 0.929488
0.552834 0.704845 0.921645
0.675776 0.690776 0.946792
0.862074 0.761151 0.972702
1 0.822171 1
0.324971 0.930236 1
0.346517 0.923903 1
0.35877 0.919417 1
0.364935 0.914794 1
0.540032 0.879728 0.990509
0.608713 0.849668 0.965789
0.736141 0.849165 0.93521
0.848173 0.881163 0.959594
1 0.911696 1
0.317968 1 1
0.389944 1 1
0.484352 1 1
0.590372 1 1
0.652247 1 1
0.72932 1 1
0.832624 1 1
0.921004 0.998978 1
0.992248 1 0.976745
