subtle niceties LUT V2 beta 3 (SSH-TS reimagined).cube
TITLE "Generated by Resolve"
LUT_3D_SIZE 33
0.00825513 0.00720226 0.00747692
0.019913 0.0091249 0.00920119
0.0337835 0.00993362 0.010544
0.0490578 0.0108034 0.0117189
0.0645151 0.0112917 0.013077
0.0808881 0.0115511 0.0144503
0.0957656 0.0119326 0.0154421
0.112444 0.0115358 0.0169223
0.129686 0.0112459 0.0182193
0.146441 0.0106813 0.0197452
0.164065 0.00988785 0.0213779
0.183124 0.00881972 0.0232395
0.201907 0.00770581 0.0254063
0.220829 0.00640879 0.0282292
0.240162 0.00515755 0.0310521
0.260121 0.00367742 0.0346685
0.280613 0.00242618 0.0385748
0.301839 0.00122072 0.0428779
0.324041 0.000457771 0.0476234
0.346838 3.0518e-05 0.0529641
0.37052 0 0.0592966
0.396902 0 0.0664225
0.425437 0 0.0747539
0.452186 0 0.0835584
0.479896 0 0.09308
0.510765 0 0.104173
0.545068 0 0.117052
0.583368 0 0.130526
0.626657 0 0.146288
0.677836 0 0.165743
0.73872 0 0.188846
0.816495 0 0.218906
0.945037 0 0.269429
0.0142214 0.0221866 0.0123598
0.0253605 0.0237888 0.0138705
0.0376287 0.0245365 0.0145418
0.0517586 0.0256657 0.0150759
0.0659495 0.0259403 0.0158846
0.0815747 0.0260624 0.0168917
0.0958419 0.0260014 0.0176242
0.112627 0.0255436 0.0185245
0.129976 0.0245212 0.0192721
0.146838 0.0231937 0.0201724
0.164889 0.0215152 0.0212406
0.184192 0.0193637 0.0224308
0.203418 0.0168612 0.0242313
0.222873 0.0142061 0.0266117
0.242481 0.0114595 0.0294652
0.262638 0.00863661 0.0327459
0.283513 0.00573739 0.0364233
0.304967 0.00296025 0.0407568
0.327413 0.00115969 0.0454261
0.350423 0 0.0506752
0.374304 0 0.0568856
0.400748 0 0.0640116
0.429511 0 0.072343
0.457206 0 0.0810407
0.48513 0 0.0909285
0.516182 0 0.102464
0.550637 0 0.115724
0.589105 0 0.129747
0.632425 0 0.146059
0.68333 0 0.165927
0.743832 0 0.189212
0.82089 0 0.21915
0.94876 0 0.269352
0.0184634 0.0378729 0.0146944
0.0294347 0.0390631 0.0158694
0.0415808 0.0398718 0.0168917
0.0557259 0.0406653 0.0171054
0.0698405 0.0408331 0.01738
0.0849317 0.0414435 0.0180514
0.0988174 0.0412146 0.0187381
0.11548 0.0407263 0.0194095
0.132036 0.0397498 0.0202487
0.148745 0.0383001 0.021149
0.166476 0.0362707 0.0220645
0.185763 0.0334936 0.0230716
0.205051 0.0300755 0.0242924
0.224735 0.0261997 0.0262608
0.244587 0.0214694 0.0284886
0.264988 0.016434 0.031281
0.286076 0.0108339 0.0345159
0.307912 0.00448615 0.0384222
0.330724 0.00167849 0.0432593
0.353964 0 0.0485084
0.377737 0 0.0542611
0.404425 0 0.0615854
0.433371 0 0.0698253
0.461585 0 0.0787213
0.490898 0 0.0888533
0.522393 0 0.100923
0.557183 0 0.114733
0.595682 0 0.129335
0.63888 0 0.146014
0.689509 0 0.166094
0.749569 0 0.189227
0.826459 0 0.21915
0.953307 0 0.269612
0.022034 0.0547494 0.0152438
0.0326848 0.0559548 0.0163424
0.0451972 0.0567483 0.0170748
0.0596628 0.0576181 0.0178836
0.0733806 0.0579843 0.0181582
0.0882429 0.0581521 0.0183261
0.102586 0.0580148 0.0187533
0.119341 0.057557 0.0195163
0.135454 0.0566567 0.0203403
0.151858 0.055375 0.0211795
0.169345 0.0535897 0.0220951
0.188479 0.0508431 0.0233616
0.207706 0.0475013 0.0248264
0.226902 0.0438697 0.0264744
0.246815 0.0392004 0.0284276
0.267491 0.0334936 0.0308232
0.288808 0.0274205 0.0335393
0.310826 0.0210575 0.0366064
0.33373 0.0146029 0.0411231
0.357168 0.00947585 0.0461585
0.381323 0.00578317 0.0518502
0.408042 0.00254826 0.0588083
0.437217 0.00047303 0.0675212
0.466026 0 0.0767071
0.496681 0 0.087068
0.52958 0 0.0998093
0.564385 0 0.113771
0.603037 0 0.128588
0.646235 0 0.145525
0.696712 0 0.165713
0.756481 0 0.188556
0.832761 0 0.218692
0.958511 0 0.268986
0.0243992 0.071046 0.0139773
0.0347448 0.0718853 0.0149538
0.0484627 0.0725414 0.0158083
0.0628977 0.073228 0.0162966
0.0767224 0.0738537 0.0170596
0.0915694 0.0741131 0.0171817
0.106691 0.0738842 0.0174716
0.122866 0.0734264 0.0179599
0.138888 0.0726482 0.0188144
0.155108 0.0715343 0.0196231
0.172381 0.0696727 0.0207523
0.191485 0.0671244 0.0221103
0.210468 0.0640726 0.0237125
0.22974 0.060441 0.0251926
0.249424 0.0558938 0.0271305
0.269963 0.0509651 0.0291295
0.291203 0.0446784 0.0316472
0.313298 0.0380255 0.0345769
0.336522 0.0306554 0.038468
0.360037 0.0236057 0.0433356
0.384405 0.0171054 0.0489357
0.411612 0.0109712 0.0560006
0.441398 0.00564584 0.0647288
0.470817 0.00202945 0.0742046
0.501945 0 0.0850843
0.536187 0 0.0978408
0.572061 0 0.111879
0.610727 0 0.127077
0.653788 0 0.144381
0.70396 0 0.164294
0.763592 0 0.1879
0.839292 0 0.217914
0.963989 0.000732433 0.268406
0.0259098 0.0883803 0.0108034
0.0371252 0.0890974 0.0113527
0.0511788 0.089662 0.0119936
0.065568 0.0907301 0.0123598
0.0791333 0.091371 0.0127108
0.0948653 0.0915389 0.0134279
0.110307 0.0916152 0.0137484
0.126207 0.0912642 0.0141451
0.14226 0.0905928 0.0149233
0.158587 0.0898299 0.0158846
0.175662 0.0882734 0.0170443
0.194675 0.0864424 0.0184634
0.213474 0.0835279 0.0202182
0.2327 0.0801862 0.0220798
0.252323 0.0758984 0.0242924
0.272633 0.0711986 0.0265354
0.29395 0.0651408 0.0291905
0.315969 0.0584726 0.0321508
0.339132 0.0504463 0.0355993
0.36286 0.0414435 0.0400397
0.387686 0.0326085 0.045304
0.415549 0.0224765 0.052369
0.446097 0.0115358 0.0614939
0.476143 0.00357061 0.0711986
0.507851 0 0.0822766
0.54258 0 0.0951553
0.580118 0.000259403 0.109133
0.619379 0.000122072 0.124453
0.662303 0 0.141939
0.712352 0 0.162341
0.771527 0 0.18613
0.846799 0.00106813 0.216693
0.969955 0 0.267536
0.0257877 0.105562 0.00543221
0.0383764 0.105913 0.00581369
0.0525063 0.107118 0.00724804
0.0671397 0.107988 0.00860609
0.0807813 0.108705 0.00965896
0.0975814 0.109071 0.0111543
0.113191 0.109331 0.0119478
0.128969 0.109194 0.01178
0.145129 0.108415 0.0113527
0.161364 0.1075 0.0122377
0.178714 0.106355 0.0132753
0.197574 0.104326 0.0147097
0.216251 0.102174 0.0156863
0.235264 0.0990921 0.0172732
0.254994 0.0951553 0.0198672
0.275212 0.0909743 0.0223392
0.296452 0.0851759 0.0253147
0.318379 0.0784161 0.0284428
0.341741 0.0709544 0.0320745
0.365774 0.0627756 0.0366064
0.391058 0.0545052 0.0416114
0.419547 0.0448005 0.0486152
0.45069 0.0347295 0.0574655
0.481071 0.0256962 0.0672923
0.513252 0.018616 0.0783856
0.54844 0.011841 0.0910811
0.586725 0.00415045 0.105013
0.627253 0.000289921 0.121004
0.670619 0.00329595 0.139162
0.720409 0.00128176 0.159777
0.779309 0.00419623 0.184253
0.853742 0.00129702 0.21532
0.974441 0.0349432 0.266178
0.0245975 0.123705 0.00309758
0.0385138 0.124239 0.00541695
0.0529946 0.125002 0.00735485
0.0677806 0.125887 0.0091249
0.0821393 0.126436 0.0104372
0.0992142 0.126925 0.0113222
0.114824 0.127047 0.0125124
0.130953 0.126909 0.0130159
0.147478 0.12636 0.0123293
0.163867 0.125551 0.0116732
0.181277 0.124422 0.0117189
0.200198 0.122774 0.0119631
0.218936 0.120745 0.0122988
0.237888 0.118151 0.0131991
0.257527 0.114961 0.0145571
0.277714 0.110918 0.0166018
0.298909 0.106035 0.0190738
0.321218 0.100206 0.022446
0.344778 0.0943618 0.0265202
0.369436 0.0876783 0.0312963
0.395087 0.080293 0.0369879
0.424018 0.0722057 0.0440681
0.455512 0.0631723 0.0528573
0.486488 0.0544747 0.0623178
0.519005 0.0447852 0.0730755
0.554788 0.0350652 0.085893
0.593271 0.025391 0.100282
0.635142 0.0203555 0.116472
0.679652 0.0134585 0.135607
0.729305 0.0147402 0.156527
0.78764 0.0196536 0.181674
0.862043 0.03299 0.213184
0.979767 0.0769665 0.264698
0.0233463 0.141558 0.00520333
0.0377356 0.142275 0.00674449
0.0525978 0.143084 0.00810254
0.0674601 0.14374 0.00918593
0.0827649 0.14435 0.0101015
0.10071 0.144778 0.0106966
0.116182 0.145052 0.0109865
0.132753 0.144945 0.0119326
0.149584 0.144549 0.0116732
0.166201 0.143832 0.0104067
0.183902 0.142657 0.00949111
0.202899 0.141268 0.00909438
0.221607 0.13959 0.00856031
0.240681 0.137026 0.00943008
0.260136 0.134493 0.0102693
0.280491 0.131334 0.0119631
0.302083 0.127642 0.0144961
0.324697 0.123491 0.0177157
0.348745 0.119005 0.0216983
0.373602 0.114214 0.0263676
0.399542 0.108736 0.0321355
0.428946 0.102342 0.0392767
0.460899 0.0948959 0.047776
0.49221 0.087129 0.0572366
0.525048 0.0789654 0.0679942
0.560998 0.0705577 0.0806134
0.599939 0.0623331 0.0954452
0.641993 0.0539406 0.112337
0.687999 0.0461738 0.130907
0.738659 0.0451972 0.152758
0.796536 0.0545357 0.178241
0.869947 0.0720531 0.210422
0.985718 0.126894 0.26302
0.0209964 0.159686 0.00534066
0.0355077 0.160296 0.00624094
0.0507668 0.160754 0.00721752
0.0662242 0.161578 0.00798047
0.0822003 0.162219 0.0087892
0.100725 0.162707 0.00933852
0.116411 0.16286 0.00972
0.133379 0.162921 0.0100252
0.150576 0.162646 0.0110933
0.167544 0.162112 0.0108339
0.185504 0.161242 0.00985733
0.204837 0.15964 0.00947585
0.223728 0.158083 0.00927749
0.242878 0.155962 0.00981155
0.262913 0.154009 0.0105287
0.283665 0.151659 0.0117037
0.305592 0.148898 0.0131838
0.328557 0.146349 0.0149081
0.352926 0.14313 0.0170443
0.378164 0.139391 0.0201419
0.404578 0.135653 0.0254368
0.43418 0.130861 0.0326543
0.466346 0.125734 0.0413977
0.497841 0.120745 0.0510872
0.531014 0.115541 0.0620432
0.56733 0.11014 0.0755627
0.606439 0.104005 0.0907149
0.648646 0.0975967 0.107836
0.69485 0.0915999 0.125765
0.747036 0.0902419 0.148058
0.805615 0.0971847 0.174548
0.877897 0.118868 0.207431
0.991806 0.17023 0.260426
0.0172427 0.178622 0.00347906
0.0319677 0.179141 0.00393683
0.047364 0.179782 0.00447089
0.0638437 0.180484 0.00491341
0.0813153 0.18114 0.00531014
0.10016 0.181125 0.00593576
0.11632 0.181628 0.00622568
0.133806 0.181521 0.00674449
0.151186 0.18175 0.007187
0.168734 0.181186 0.00825513
0.186923 0.180285 0.00828565
0.2065 0.179065 0.00794995
0.226078 0.177829 0.00802625
0.245914 0.176715 0.00834669
0.266316 0.175296 0.00886549
0.287633 0.17377 0.00967422
0.310002 0.172229 0.0107729
0.333364 0.170611 0.0120241
0.358068 0.168429 0.0137026
0.383627 0.16614 0.0171206
0.410285 0.163607 0.021912
0.439902 0.1608 0.0279088
0.472526 0.157717 0.0350958
0.504372 0.154391 0.0441596
0.537591 0.151247 0.0552834
0.573938 0.148028 0.0687114
0.613291 0.144778 0.0847639
0.655695 0.142016 0.101778
0.701946 0.139071 0.120867
0.754574 0.137514 0.143084
0.813993 0.144518 0.169802
0.885603 0.164324 0.203647
0.998199 0.212833 0.257832
0.0133516 0.199222 0.0015259
0.0277562 0.199756 0.00181582
0.0422522 0.20029 0.002121
0.0596933 0.200885 0.0024567
0.0780041 0.201266 0.00270085
0.0972305 0.201709 0.00299077
0.114504 0.201709 0.00320439
0.133059 0.202075 0.00332647
0.150774 0.20209 0.00344854
0.168704 0.201953 0.00354009
0.1879 0.201251 0.00392157
0.208392 0.2009 0.0037232
0.228809 0.199939 0.00369268
0.249454 0.199527 0.0037232
0.270497 0.198901 0.00447089
0.292531 0.198428 0.00547799
0.315328 0.197498 0.00698863
0.339071 0.196826 0.00863661
0.364187 0.195987 0.0107729
0.390036 0.195026 0.0136416
0.416907 0.193637 0.0170291
0.447044 0.192309 0.0216831
0.479728 0.191028 0.0282597
0.511604 0.18938 0.0369116
0.544991 0.188296 0.0473487
0.581537 0.18703 0.0610666
0.620645 0.185977 0.0771344
0.663005 0.185489 0.0959335
0.708934 0.185672 0.115496
0.761822 0.186404 0.138247
0.822354 0.190723 0.164584
0.893431 0.209506 0.198978
0.99881 0.257465 0.25507
0.00944533 0.219379 0.000137331
0.022385 0.219821 9.15541e-05
0.0358282 0.220523 0
0.0541238 0.220981 0
0.0733349 0.221286 0
0.0934005 0.221881 0
0.111864 0.221927 0
0.131411 0.222156 0
0.150225 0.222385 0
0.169238 0.222766 0
0.188907 0.222995 0
0.210742 0.223087 0
0.231601 0.223011 0.000320439
0.253101 0.223041 0.000701915
0.2748 0.223194 0.00172427
0.297459 0.22295 0.00270085
0.320806 0.223087 0.00350958
0.345022 0.223239 0.0040589
0.370581 0.223041 0.00433356
0.396689 0.223331 0.00390631
0.423926 0.223148 0.00531014
0.454322 0.223011 0.0096437
0.487205 0.222965 0.0203098
0.519158 0.222827 0.0299382
0.55259 0.22298 0.0398566
0.589197 0.223178 0.0543221
0.628168 0.224186 0.0701762
0.670268 0.225605 0.0895705
0.71603 0.227481 0.109697
0.76817 0.230823 0.132982
0.828214 0.236667 0.160342
0.899962 0.252628 0.19469
0.997787 0.299443 0.252216
0.00668345 0.239689 0
0.0169223 0.240162 0
0.0276036 0.240742 0
0.0463111 0.241352 0
0.0663615 0.241672 0
0.0881666 0.242008 0
0.108415 0.242786 0
0.129168 0.24332 0
0.149599 0.244022 0
0.169726 0.244816 0
0.190677 0.245426 0
0.213321 0.246448 0
0.23534 0.246998 0
0.257374 0.247501 0
0.27985 0.248035 0
0.302907 0.248692 0
0.326833 0.249378 0
0.351614 0.250095 0.000259403
0.377493 0.250889 0.00170901
0.403891 0.251698 0.00373846
0.431464 0.252628 0.00746166
0.462058 0.253651 0.0117494
0.495216 0.254948 0.0166171
0.527245 0.255695 0.0241245
0.560555 0.257389 0.0336614
0.596902 0.258885 0.0459297
0.635798 0.261295 0.0630503
0.677684 0.263981 0.0830091
0.723339 0.267399 0.104677
0.774853 0.272496 0.128511
0.833875 0.280613 0.156588
0.90547 0.295445 0.190814
0.997101 0.341176 0.250828
0.00381476 0.260426 0
0.0107729 0.260914 0
0.0181582 0.261509 0
0.0374914 0.262135 0
0.0585184 0.26302 0
0.0825513 0.263783 0
0.104585 0.264988 0
0.127184 0.26566 0
0.148974 0.266972 0
0.170428 0.26807 0
0.192523 0.269322 0
0.216007 0.270634 0.000289921
0.239139 0.271962 0.00062562
0.262074 0.273259 0.000885023
0.285298 0.274174 0.000656138
0.308888 0.275624 0.000106813
0.333455 0.276921 0.000274662
0.358724 0.278264 0.000869764
0.384924 0.279744 0.00241093
0.411826 0.281239 0.0041352
0.439536 0.282856 0.00584421
0.470207 0.284871 0.00679026
0.503578 0.286854 0.00611887
0.535668 0.289174 0.0123598
0.569238 0.291524 0.0277256
0.605356 0.29427 0.0422522
0.643992 0.297719 0.0571298
0.685786 0.301503 0.076463
0.730709 0.306249 0.0994736
0.781308 0.313161 0.124346
0.839429 0.322316 0.153475
0.910231 0.33756 0.188708
0.996765 0.382071 0.25037
0.00125124 0.281834 0
0.00430304 0.28249 0
0.00755322 0.28336 0
0.0278325 0.284688 0
0.0505989 0.28571 0
0.0772717 0.287175 0
0.101671 0.288426 0
0.125231 0.290074 0
0.149432 0.291447 0
0.17171 0.293095 0
0.1953 0.294545 0
0.219577 0.296468 0
0.243397 0.298238 0
0.267094 0.300053 0
0.291096 0.30219 0
0.315663 0.303746 0
0.340597 0.305364 0.000183108
0.366384 0.3075 7.62951e-05
0.39324 0.30959 0
0.42031 0.311604 0
0.448188 0.314076 0.00111391
0.479271 0.316732 0.00511177
0.512627 0.3196 0.0105287
0.544778 0.322942 0.0164034
0.57818 0.325948 0.0238346
0.614145 0.329885 0.0324865
0.652628 0.333928 0.0504768
0.693889 0.339162 0.0717327
0.738247 0.344976 0.0963302
0.78793 0.353231 0.120684
0.844968 0.363256 0.152026
0.914412 0.379141 0.186877
0.996857 0.42295 0.250721
0.000244144 0.304738 0
0.00123598 0.306096 0
0.00236515 0.307378 0
0.0211185 0.30898 0
0.0421302 0.31043 0
0.0712749 0.311925 0
0.0969863 0.313741 0
0.123507 0.315557 0
0.149584 0.317479 0
0.173724 0.319478 0
0.198108 0.321645 0
0.223957 0.323644 0
0.248493 0.326009 0
0.273228 0.328176 0
0.297658 0.330632 0
0.322683 0.33312 0.000610361
0.348501 0.335607 0.000869764
0.37464 0.337881 0.000885023
0.401923 0.34049 0.000350958
0.429282 0.343587 6.10361e-05
0.457603 0.346166 0.00131228
0.488869 0.349523 0.00395209
0.522118 0.35317 0.00642405
0.55436 0.35697 0.00924697
0.587564 0.361212 0.0167544
0.623484 0.366094 0.0317998
0.661738 0.370901 0.0486763
0.702312 0.377142 0.0670939
0.746044 0.384085 0.0920577
0.794949 0.392706 0.120424
0.850477 0.404059 0.151339
0.918593 0.420493 0.187915
0.997131 0.463554 0.252659
0 0.329564 0
0 0.331197 0
0.000350958 0.332891 0
0.0149996 0.33492 0
0.0337987 0.336797 0
0.0647593 0.339132 0
0.0927596 0.340948 0
0.122728 0.343084 0
0.149752 0.345418 0
0.176272 0.347616 0
0.20174 0.35021 0
0.229068 0.352529 0
0.254643 0.355215 0
0.279911 0.358129 0
0.30547 0.360998 0
0.330831 0.363714 0
0.357137 0.366827 0
0.383841 0.369833 0
0.411414 0.372885 0
0.43917 0.376165 0
0.467689 0.379736 0.00135805
0.499001 0.383459 0.00497444
0.532464 0.388006 0.0081178
0.56466 0.392294 0.0100252
0.597925 0.396979 0.0121614
0.633677 0.402441 0.0285496
0.671397 0.408484 0.0475624
0.711345 0.415244 0.0669566
0.754299 0.422766 0.0927138
0.801999 0.432578 0.12018
0.856443 0.444541 0.154742
0.922301 0.461921 0.191379
0.997925 0.503517 0.258671
0 0.356451 0
0 0.358358 0
0.000762951 0.360479 0
0.00662242 0.362921 0
0.0272679 0.365209 0
0.0579538 0.367727 0
0.0897383 0.369924 0
0.122057 0.372503 0
0.151171 0.375158 0
0.178927 0.377752 0
0.206394 0.380392 0
0.234501 0.383597 0
0.261463 0.386648 0
0.287678 0.389746 0
0.313695 0.392752 0
0.339956 0.396399 0
0.366659 0.399924 0.000396735
0.393881 0.403433 0.00120546
0.421729 0.407248 0.00138857
0.450126 0.410758 0.000427253
0.47866 0.414847 0
0.510124 0.419043 0
0.543725 0.423865 0.00355535
0.575753 0.428824 0.0128634
0.608881 0.434043 0.0210727
0.644373 0.440314 0.0307469
0.681483 0.44651 0.0435645
0.720836 0.45391 0.0681468
0.762966 0.462379 0.0970169
0.809598 0.472435 0.12462
0.862226 0.485451 0.15964
0.925841 0.503136 0.198184
0.999313 0.543206 0.275425
0 0.384695 0
0 0.387152 0
0.000320439 0.389685 0
0.000564584 0.392554 0
0.0226749 0.395132 0
0.0530709 0.397894 0
0.0876173 0.400443 0
0.121523 0.403265 0
0.154192 0.406104 0
0.182574 0.409262 0
0.211933 0.411933 0
0.241276 0.415747 0
0.269093 0.418784 0
0.296162 0.42237 0
0.323018 0.426139 0
0.349844 0.429847 0
0.377325 0.433326 0
0.404807 0.437797 0
0.433173 0.44181 0.00138857
0.461631 0.445914 0.0011902
0.490562 0.450477 0.00227359
0.522179 0.454948 0.00593576
0.555505 0.460502 0.00877394
0.587442 0.465705 0.00982681
0.620478 0.471489 0.0192569
0.655192 0.478172 0.0371405
0.691905 0.485176 0.0543984
0.730846 0.492699 0.0767224
0.771923 0.501701 0.105898
0.817258 0.512413 0.139437
0.868421 0.52578 0.176333
0.929503 0.544442 0.219623
1 0.5832 0.29604
0 0.415274 0
0 0.417731 0
0 0.420661 0
0.00267033 0.423682 0
0.0148928 0.426551 0
0.0494392 0.429587 0
0.085893 0.432395 0
0.12256 0.435706 0
0.156878 0.438651 0
0.188281 0.442145 0
0.218204 0.445212 0
0.249134 0.448905 0
0.277913 0.452598 0
0.305653 0.456352 0
0.333425 0.460182 0
0.360983 0.464195 0
0.388693 0.468299 0
0.416892 0.472908 0
0.445609 0.477531 0
0.474098 0.482246 0.000320439
0.503029 0.487053 0.00602731
0.534874 0.492149 0.0121004
0.568292 0.497902 0.015259
0.600046 0.503716 0.0155184
0.632471 0.509544 0.0260624
0.666865 0.516747 0.0532998
0.702998 0.524193 0.0755169
0.741176 0.532158 0.10161
0.781079 0.541527 0.13022
0.824948 0.55285 0.164874
0.87422 0.566369 0.200916
0.932815 0.584848 0.245106
1 0.622049 0.320348
0 0.449531 0
0 0.452674 0
0 0.455604 0
0.00117494 0.459022 0
0.00779736 0.462318 0
0.0460212 0.465675 0
0.0844587 0.46891 0
0.126406 0.471931 0
0.161776 0.475303 0
0.194888 0.478645 0
0.226612 0.482383 0
0.258396 0.486503 0
0.288777 0.490043 0
0.317342 0.494423 0
0.346029 0.498436 0
0.374105 0.502541 0
0.402304 0.506996 0
0.430854 0.511803 0.00114443
0.459876 0.516396 0.00183108
0.48864 0.52163 0
0.517555 0.527108 0.00257877
0.549126 0.532372 0.01561
0.582422 0.538582 0.027985
0.614206 0.544839 0.0371405
0.646189 0.550896 0.0515297
0.680186 0.558511 0.0751202
0.71548 0.566094 0.102556
0.752331 0.574578 0.133898
0.791379 0.584115 0.161837
0.833494 0.59588 0.19585
0.880476 0.609323 0.232349
0.936156 0.627619 0.276432
1 0.663172 0.35021
0 0.487633 0
0 0.490898 0
0 0.494392 0
0 0.49781 0
0.0131533 0.501228 0
0.0432898 0.505119 0
0.0879377 0.508232 0
0.130602 0.511818 0
0.17026 0.515236 0
0.20473 0.519036 0
0.237049 0.522744 0
0.270817 0.526925 0
0.301869 0.530983 0
0.331533 0.53521 0
0.360296 0.539422 0
0.388983 0.54406 0
0.417823 0.548699 0
0.446921 0.553292 0
0.476173 0.558572 0.00115969
0.505135 0.563912 0.00534066
0.534264 0.569421 0.0102388
0.565499 0.575448 0.0291752
0.598962 0.581872 0.046952
0.630182 0.588205 0.064683
0.661723 0.594293 0.0837262
0.694713 0.602167 0.109758
0.729168 0.610025 0.141817
0.765026 0.618509 0.170001
0.802319 0.628458 0.200137
0.842878 0.639963 0.233417
0.887343 0.653925 0.269673
0.939544 0.671565 0.313756
1 0.704906 0.384604
0 0.52517 0
0 0.52845 0
0 0.532204 0
0 0.536034 0
0.000335698 0.539605 0
0.0472419 0.543374 0
0.0920882 0.546761 0
0.139696 0.550637 0
0.179156 0.554467 0
0.215213 0.558022 0
0.249866 0.561776 0
0.284001 0.566262 0
0.31548 0.570321 0
0.346258 0.574655 0
0.375952 0.579339 0
0.405066 0.583825 0
0.434089 0.588464 6.10361e-05
0.463462 0.593591 0
0.492592 0.598611 0.00187686
0.522042 0.604059 0.0142367
0.55079 0.609644 0.0211643
0.58233 0.615976 0.0340124
0.615305 0.6224 0.0693828
0.645579 0.628779 0.0982223
0.676707 0.635523 0.122103
0.709041 0.643351 0.149645
0.742687 0.651347 0.183169
0.777386 0.659983 0.208972
0.812818 0.669703 0.239811
0.851728 0.680873 0.271977
0.893507 0.694469 0.307408
0.942473 0.711498 0.35137
1 0.742061 0.419913
0 0.56437 0
0 0.568017 0
0 0.571771 0
0 0.575753 0
0.0145266 0.579324 0
0.0493629 0.583368 0
0.102983 0.587076 0
0.150195 0.590677 0
0.192294 0.594675 0
0.229191 0.598535 0
0.264714 0.602167 0
0.299214 0.606699 0
0.332067 0.610803 0
0.362615 0.61532 0
0.393057 0.619654 0
0.422919 0.624353 0
0.452155 0.629191 0.00015259
0.481651 0.634089 0
0.51104 0.639643 0
0.540368 0.644938 0.018967
0.569299 0.650462 0.039765
0.600397 0.656703 0.063798
0.632609 0.663554 0.106706
0.66273 0.669932 0.14136
0.693004 0.676768 0.16643
0.724422 0.68394 0.194873
0.757061 0.691737 0.224186
0.790555 0.700099 0.251804
0.824598 0.710018 0.282322
0.860975 0.721294 0.314061
0.900481 0.733898 0.349508
0.945571 0.750362 0.391913
1 0.777829 0.45716
0 0.607507 0
0 0.611032 0
0 0.615061 0
0.00103761 0.618891 0
0.0110781 0.622904 0
0.0636606 0.626825 0
0.11667 0.630228 0
0.166537 0.63415 0
0.210117 0.637919 0
0.246738 0.641901 0
0.282811 0.645563 0
0.318379 0.650187 0
0.351354 0.654337 0
0.382895 0.658732 0
0.413611 0.663157 0
0.443168 0.667964 0
0.473152 0.672129 0.00157168
0.502403 0.677424 0.00656138
0.53228 0.682536 0.0115816
0.561059 0.687922 0.0376593
0.589822 0.693431 0.0697185
0.620295 0.699428 0.105867
0.652354 0.70605 0.146929
0.681788 0.712566 0.186618
0.710796 0.719478 0.215595
0.741619 0.726284 0.245182
0.772717 0.734157 0.271626
0.80441 0.742504 0.300603
0.837064 0.751461 0.329915
0.871031 0.76228 0.362371
0.907576 0.774029 0.396704
0.949416 0.788693 0.437705
1 0.812177 0.497368
0 0.652949 0
0 0.656764 0
0 0.66067 0
0.0010071 0.664652 0
0.0209201 0.668498 0
0.0838331 0.67245 0
0.140414 0.675868 0
0.189654 0.679545 0
0.231754 0.68333 0
0.268818 0.687083 0
0.305119 0.691218 0
0.341314 0.69546 0
0.374411 0.699535 0
0.406119 0.704021 0
0.437354 0.707958 0
0.46688 0.712795 0
0.496727 0.716945 0.00740063
0.526543 0.722057 0.0167544
0.555703 0.727123 0.0181125
0.584634 0.732082 0.0635996
0.613153 0.737453 0.113588
0.643122 0.743053 0.15465
0.673655 0.749874 0.197223
0.702663 0.755642 0.233448
0.731228 0.762264 0.266911
0.760632 0.76907 0.297383
0.790188 0.776165 0.324834
0.819959 0.784314 0.353109
0.849836 0.792798 0.382315
0.882475 0.80238 0.414435
0.915892 0.812955 0.447852
0.953643 0.826154 0.486183
0.999878 0.844556 0.537285
0 0.701717 0
0 0.705364 0
0 0.709133 0
0 0.712856 0
0.0487678 0.716579 0
0.114809 0.720546 0
0.170657 0.723735 0
0.219089 0.727565 0
0.260456 0.730816 0
