subtle niceties LUT V2 beta 6 (SSH-TS reimagined).cube
TITLE "Generated by Resolve"
LUT_3D_SIZE 33
0.00817884 0.00727855 0.0100862
0.0215152 0.00831617 0.0108186
0.0354467 0.0091249 0.0103609
0.0473335 0.0108186 0.0100557
0.0587778 0.0127718 0.0104524
0.0712139 0.0145876 0.0114748
0.0839399 0.0166323 0.0125277
0.0970932 0.0188754 0.0136568
0.111315 0.02121 0.0148775
0.126558 0.0228428 0.0164187
0.142763 0.0239261 0.018265
0.160464 0.0249485 0.0204013
0.178027 0.0255436 0.0227207
0.195636 0.0263218 0.0251316
0.214267 0.0260014 0.0281682
0.233326 0.0256809 0.0315404
0.251972 0.0265049 0.0371862
0.27097 0.0279088 0.0443275
0.291142 0.0291447 0.0509346
0.312367 0.0306249 0.0568093
0.334417 0.0323644 0.0633402
0.359579 0.0364233 0.0706035
0.386938 0.0412299 0.0786603
0.41384 0.0464637 0.0863661
0.441688 0.0520485 0.095201
0.472267 0.05832 0.105562
0.505302 0.0658732 0.11722
0.540993 0.0747997 0.130129
0.579095 0.0857862 0.14609
0.622217 0.0978408 0.163134
0.673091 0.112444 0.184619
0.738064 0.131182 0.212528
0.847333 0.162692 0.259846
0.010071 0.0222629 0.0141756
0.0267338 0.0226444 0.0128786
0.0411078 0.0220035 0.0140536
0.058381 0.0209812 0.0123293
0.0720531 0.02121 0.0112764
0.0845655 0.0226596 0.0115358
0.0955978 0.0243534 0.0124514
0.106844 0.0262913 0.0145418
0.119692 0.028397 0.0167239
0.132708 0.0306401 0.0186618
0.146456 0.0329442 0.0205539
0.163195 0.0347906 0.0223392
0.180148 0.0362402 0.0242771
0.197833 0.0370947 0.0264744
0.216068 0.0376593 0.0291752
0.235187 0.0377508 0.0322728
0.255253 0.0371252 0.035935
0.276158 0.0361944 0.0401465
0.298054 0.0348516 0.0449073
0.318776 0.0368658 0.0532845
0.340764 0.0390173 0.0606088
0.365743 0.0426795 0.0676738
0.392966 0.0466926 0.0759136
0.419471 0.0504768 0.0837262
0.447089 0.0545968 0.0933547
0.477378 0.0591592 0.10457
0.510246 0.0665599 0.116442
0.546044 0.0756695 0.129793
0.585016 0.0865949 0.14464
0.628595 0.0988327 0.162097
0.679026 0.113359 0.183719
0.74374 0.13196 0.211337
0.85211 0.163439 0.259159
0.00959792 0.0388647 0.0142672
0.026978 0.0380713 0.0146792
0.0454719 0.0374151 0.0125124
0.0597391 0.0366827 0.0151369
0.0753185 0.0359045 0.0158846
0.0927443 0.0348821 0.0134279
0.106355 0.0353399 0.0119326
0.118669 0.0363775 0.0125734
0.13135 0.0382544 0.0154269
0.143542 0.0399329 0.0187381
0.156512 0.0423743 0.0221408
0.170886 0.0451057 0.0253147
0.186618 0.0478218 0.0267643
0.203128 0.0498054 0.0285801
0.220447 0.0518502 0.0310063
0.238468 0.0534218 0.0341497
0.257923 0.0546273 0.0374151
0.278599 0.0544137 0.0411688
0.300542 0.0538186 0.0456855
0.322972 0.052903 0.0508278
0.346288 0.0522927 0.0565805
0.372381 0.0515908 0.0634318
0.399603 0.0525368 0.0721904
0.425544 0.0547036 0.0807202
0.452735 0.0570535 0.0915236
0.482643 0.0605173 0.103349
0.515877 0.0694133 0.115282
0.55169 0.0788586 0.128649
0.591104 0.088014 0.142885
0.635187 0.099733 0.160403
0.685802 0.115221 0.182025
0.74992 0.132921 0.210483
0.857832 0.166995 0.257588
0.0124971 0.0544137 0.0137484
0.0274815 0.0552682 0.0124361
0.0495308 0.0536507 0.00991836
0.0654307 0.053315 0.0121767
0.0747539 0.0549172 0.0137179
0.0930953 0.0534371 0.0145266
0.111727 0.0508888 0.0130312
0.13019 0.0486458 0.0104829
0.142184 0.0504463 0.0125887
0.153903 0.0522011 0.0155947
0.166522 0.0542611 0.019379
0.180529 0.0564279 0.0243229
0.195056 0.0585336 0.0288548
0.210758 0.0614633 0.0307927
0.227436 0.06392 0.0325475
0.245029 0.0663767 0.0350958
0.2636 0.0689097 0.0383459
0.283162 0.0709392 0.0425879
0.303853 0.0726635 0.0475013
0.326101 0.0735027 0.0520943
0.349325 0.0733043 0.0574807
0.375143 0.0729992 0.0638132
0.403449 0.0714733 0.0718242
0.431006 0.0706035 0.0796979
0.459678 0.0702983 0.0879225
0.490654 0.0726482 0.097612
0.522927 0.0786297 0.111315
0.558083 0.0842145 0.125246
0.596765 0.0910048 0.140536
0.64239 0.104723 0.157275
0.693034 0.117357 0.179568
0.757275 0.138766 0.20679
0.864637 0.174807 0.253803
0.0148928 0.0694285 0.0121462
0.0282139 0.0699474 0.0130159
0.0452735 0.0701915 0.0133211
0.0641947 0.0703593 0.0104524
0.074876 0.0723735 0.0113222
0.0912032 0.0720226 0.0108949
0.110231 0.0696117 0.0113985
0.132647 0.0658579 0.0103304
0.151415 0.0627451 0.00967422
0.16379 0.0639658 0.0120394
0.176394 0.066041 0.0159457
0.190188 0.0680552 0.0211948
0.20441 0.0706645 0.0260624
0.219501 0.0731823 0.0303044
0.235264 0.0760662 0.034287
0.252262 0.0793011 0.0369421
0.270298 0.0829938 0.0392767
0.289387 0.0861219 0.0426032
0.309758 0.0891737 0.0468452
0.330861 0.0917525 0.0517891
0.352865 0.0939956 0.0581369
0.378225 0.0954452 0.0650492
0.406226 0.0962997 0.0724956
0.433738 0.0961776 0.0805982
0.462684 0.0959793 0.0902266
0.494179 0.0964218 0.100267
0.528023 0.0970932 0.110353
0.564645 0.0985275 0.120699
0.604425 0.103502 0.134005
0.648859 0.112245 0.153521
0.70045 0.124224 0.175479
0.764584 0.144778 0.202976
0.871427 0.18262 0.250217
0.0186923 0.0837262 0.0145571
0.031632 0.084535 0.0160678
0.045182 0.0856336 0.0157321
0.0624094 0.0871748 0.0137331
0.0774395 0.0887312 0.0108186
0.0935225 0.0892195 0.0118868
0.111147 0.0892348 0.0114443
0.133364 0.0864729 0.0116426
0.153765 0.0830854 0.0114748
0.172229 0.0801556 0.0108949
0.187762 0.0800641 0.0119173
0.201511 0.082948 0.0165866
0.215198 0.0855116 0.0221256
0.229953 0.0885023 0.0259709
0.245365 0.0914015 0.0301823
0.261662 0.0945602 0.034638
0.278706 0.0978408 0.0395056
0.297063 0.101198 0.0429084
0.316762 0.104631 0.0463111
0.33756 0.107759 0.0508736
0.359304 0.110918 0.0565042
0.383795 0.114 0.063859
0.410544 0.117571 0.0726635
0.437095 0.121324 0.0819867
0.465843 0.12282 0.0910201
0.497124 0.124102 0.100786
0.531258 0.12491 0.112032
0.568078 0.126146 0.124056
0.608484 0.128405 0.137285
0.65478 0.132601 0.151537
0.709178 0.137331 0.168795
0.773617 0.155322 0.196185
0.879637 0.193866 0.243565
0.0215457 0.0977493 0.0174563
0.0345464 0.0995956 0.0183566
0.0474098 0.102251 0.0178836
0.063035 0.104402 0.0167544
0.0784009 0.106081 0.0148013
0.0959335 0.108034 0.0116884
0.114809 0.108522 0.0123445
0.132738 0.109056 0.0116426
0.154467 0.106249 0.0121767
0.174868 0.103151 0.0123445
0.194141 0.100954 0.0119173
0.213458 0.0991073 0.011429
0.227085 0.10132 0.0162203
0.241077 0.104128 0.0204929
0.256062 0.106859 0.0244907
0.271855 0.110048 0.0281834
0.288685 0.113161 0.0334936
0.30634 0.11667 0.0386053
0.325368 0.120333 0.0453193
0.345357 0.124224 0.0503853
0.366705 0.128237 0.0552682
0.390906 0.132082 0.0621042
0.417426 0.136065 0.0703593
0.443366 0.139864 0.079057
0.470726 0.143923 0.0894789
0.500908 0.147936 0.101335
0.5346 0.150881 0.112444
0.571344 0.153658 0.12488
0.611734 0.156878 0.138659
0.658167 0.159915 0.15433
0.712245 0.165331 0.172457
0.779446 0.17705 0.196414
0.886198 0.213138 0.237842
0.0228733 0.116243 0.0209506
0.0366522 0.118151 0.0220188
0.0494545 0.120638 0.0214542
0.0620432 0.123751 0.0203403
0.0775616 0.125277 0.01944
0.0985885 0.126818 0.016434
0.117922 0.12813 0.0124971
0.136477 0.128847 0.0134585
0.154711 0.129259 0.012253
0.176089 0.126619 0.0129091
0.197803 0.123522 0.0129702
0.218555 0.121187 0.012253
0.237263 0.120089 0.0117952
0.25362 0.120775 0.0133059
0.268147 0.123659 0.0174258
0.283757 0.127047 0.0215305
0.300237 0.130159 0.026566
0.317617 0.133455 0.0321355
0.336126 0.137377 0.0376745
0.355489 0.141314 0.0446326
0.37583 0.145663 0.0521553
0.39913 0.150103 0.0598764
0.425162 0.15491 0.0673228
0.45098 0.159335 0.0756085
0.478065 0.163989 0.0861524
0.507897 0.168872 0.0983139
0.540337 0.174014 0.111299
0.575509 0.179721 0.125505
0.61503 0.185107 0.139193
0.661097 0.190173 0.154894
0.715007 0.19678 0.173297
0.78323 0.206256 0.197253
0.889494 0.242206 0.237964
0.0198978 0.135729 0.0237888
0.0361944 0.136751 0.0266117
0.0499123 0.138903 0.0267491
0.0631418 0.141451 0.0256352
0.0765698 0.144305 0.0232548
0.0996872 0.145785 0.0203403
0.120729 0.146883 0.0159152
0.140398 0.14847 0.012253
0.159762 0.148852 0.0121767
0.17847 0.14844 0.0115511
0.200153 0.146334 0.0120851
0.223026 0.143374 0.011902
0.243015 0.141802 0.0112459
0.261585 0.141466 0.0104067
0.28043 0.141527 0.009308
0.296056 0.144121 0.0128176
0.312261 0.147402 0.0179294
0.329564 0.151064 0.0235447
0.347997 0.155001 0.0297093
0.36701 0.158892 0.0367742
0.386954 0.163073 0.0442054
0.409644 0.167819 0.0536202
0.434379 0.173419 0.0642405
0.459358 0.178592 0.0733196
0.486061 0.183642 0.0830549
0.515679 0.189242 0.094667
0.547616 0.195117 0.107576
0.582605 0.201694 0.121599
0.620829 0.20853 0.137118
0.665095 0.216968 0.155276
0.718059 0.226291 0.174228
0.785611 0.237812 0.197406
0.892912 0.270253 0.237919
0.0179751 0.154482 0.0267796
0.0360266 0.15494 0.0309453
0.0504616 0.156756 0.0315251
0.0649882 0.159243 0.0298924
0.0806439 0.162051 0.0259861
0.0994888 0.164782 0.0208133
0.122347 0.165621 0.0170748
0.14461 0.167056 0.0109407
0.164431 0.168063 0.00909438
0.184039 0.167926 0.00923171
0.204593 0.167163 0.00955215
0.227054 0.165682 0.0101625
0.24921 0.163546 0.0103304
0.268299 0.163256 0.00901808
0.287022 0.163684 0.0078584
0.306691 0.163546 0.00733959
0.325383 0.165072 0.00894179
0.342153 0.168826 0.0141756
0.360021 0.172396 0.020676
0.378943 0.176608 0.0272831
0.398779 0.180758 0.0355383
0.421118 0.185718 0.0449989
0.44567 0.191257 0.0556954
0.469886 0.196826 0.0668345
0.495308 0.202762 0.0796216
0.524025 0.208942 0.090959
0.55555 0.215396 0.103212
0.590173 0.222354 0.117586
0.628168 0.230289 0.133318
0.671702 0.239338 0.150942
0.72311 0.250477 0.172061
0.788312 0.266377 0.19881
0.896132 0.297383 0.238727
0.0176242 0.173373 0.0296941
0.0362402 0.173266 0.0351873
0.0525368 0.17464 0.0366674
0.0691081 0.177081 0.0334325
0.0857557 0.180362 0.0268559
0.101595 0.183886 0.0207523
0.123049 0.185931 0.016556
0.146502 0.187106 0.0132143
0.168551 0.188449 0.0074464
0.188296 0.189563 0.00769055
0.2094 0.189395 0.00823987
0.231937 0.188525 0.00869764
0.253971 0.187106 0.00946059
0.275715 0.185306 0.0090486
0.294377 0.186557 0.00653086
0.314 0.187106 0.00552377
0.334798 0.187396 0.00543221
0.356023 0.187686 0.005066
0.374029 0.19147 0.0108644
0.392432 0.195392 0.0176699
0.411841 0.199786 0.0245365
0.433783 0.204715 0.033402
0.458076 0.210376 0.0444343
0.481971 0.2159 0.0552529
0.50724 0.222034 0.0680705
0.534874 0.228656 0.0840314
0.564935 0.236149 0.100832
0.598795 0.243412 0.114321
0.63621 0.251926 0.129274
0.679377 0.26183 0.147204
0.73019 0.273594 0.167926
0.794446 0.289677 0.194553
0.900206 0.322896 0.238254
0.0180056 0.193256 0.0327459
0.0359503 0.193469 0.0387121
0.0540475 0.194476 0.0430304
0.0705119 0.197757 0.0399176
0.0870375 0.200855 0.0357061
0.104234 0.204379 0.0295109
0.121035 0.208423 0.0212558
0.145632 0.209949 0.0174105
0.170153 0.211078 0.0122683
0.193103 0.212284 0.00469978
0.214145 0.21326 0.0056611
0.237644 0.213214 0.00656138
0.259754 0.212375 0.00773632
0.281682 0.21149 0.00868238
0.303517 0.210193 0.0083772
0.322927 0.211551 0.00561532
0.343114 0.212451 0.00350958
0.364004 0.213733 0.00202945
0.386419 0.214176 0.002121
0.407752 0.216052 0.0055848
0.426993 0.220539 0.0135348
0.448615 0.225605 0.0221866
0.472435 0.231113 0.0326848
0.495903 0.236912 0.0427863
0.520714 0.242878 0.0554513
0.548104 0.249653 0.0708934
0.577859 0.257084 0.0895552
0.610101 0.265599 0.107179
0.646097 0.275044 0.126146
0.688518 0.285389 0.143862
0.738399 0.297765 0.164431
0.801587 0.314687 0.190082
0.906645 0.346868 0.233692
0.0106966 0.215137 0.0341344
0.0297246 0.215778 0.0411994
0.0514839 0.216358 0.0488594
0.0708476 0.218479 0.0482643
0.0886549 0.221439 0.0437324
0.107164 0.225223 0.0370336
0.124865 0.22884 0.0285191
0.143587 0.232959 0.0192416
0.170977 0.233631 0.0149996
0.19527 0.23476 0.00843824
0.21976 0.23592 0
0.242557 0.236927 0.00155642
0.266087 0.236271 0.0033875
0.288579 0.235935 0.00520333
0.311055 0.234958 0.00723278
0.331868 0.235584 0.00624094
0.352316 0.236988 0.00366217
0.373205 0.238407 0.00157168
0.395361 0.239826 0.000579843
0.418189 0.24094 0.000366217
0.44213 0.241428 0.000610361
0.463874 0.246387 0.00915541
0.487251 0.252049 0.0197757
0.510445 0.25771 0.0303349
0.534813 0.263981 0.0412757
0.561852 0.270756 0.0558175
0.591211 0.278279 0.0736095
0.623148 0.28687 0.0948501
0.658137 0.296254 0.116533
0.698878 0.307546 0.139879
0.747173 0.320897 0.162325
0.809247 0.338354 0.18735
0.912673 0.370962 0.230823
0.00134279 0.237781 0.0359503
0.0227665 0.238254 0.0432441
0.0464942 0.238636 0.0507362
0.0699626 0.239582 0.0560159
0.090486 0.242451 0.0495155
0.111116 0.246159 0.0405737
0.129397 0.249683 0.0306401
0.148135 0.254063 0.018265
0.171328 0.256611 0.0116884
0.196857 0.257908 0.0101472
0.222324 0.259083 0.00468452
0.247333 0.261051 0
0.270085 0.262074 0.00228885
0.293828 0.26154 0.00384527
0.317128 0.260884 0.0055848
0.340459 0.260288 0.00708019
0.361852 0.261341 0.00502022
0.382925 0.26302 0.00236515
0.404929 0.264759 0.000244144
0.427558 0.266499 0
0.451072 0.267811 0
0.477363 0.269444 0
0.502922 0.27303 0.00514229
0.52578 0.278965 0.0163272
0.550011 0.285206 0.0282597
0.57644 0.292058 0.0424048
0.605219 0.299489 0.0603952
0.636744 0.308034 0.0805219
0.671412 0.317662 0.104082
0.71133 0.329061 0.12813
0.758114 0.342916 0.156313
0.81796 0.361364 0.187045
0.919036 0.394781 0.229511
0 0.259953 0.0364996
0.0199435 0.260288 0.0435645
0.0438239 0.26125 0.0507362
0.0696727 0.261906 0.0584268
0.0930495 0.264363 0.0546731
0.11368 0.267628 0.0467994
0.13254 0.271611 0.0413825
0.151598 0.275715 0.0330968
0.16994 0.280324 0.0229801
0.195895 0.282445 0.0171664
0.22327 0.283482 0.0116426
0.251209 0.285054 0.00204471
0.276356 0.28632 0
0.299702 0.28687 0
0.32372 0.286824 0
0.348104 0.286091 0.00169375
0.370901 0.28661 0.00383001
0.392813 0.287922 0.00292973
0.414984 0.290288 0.000747692
0.437522 0.29221 0
0.46128 0.294057 0
0.487388 0.29601 0
0.515999 0.298085 0
0.542138 0.300679 0.0011902
0.565911 0.307073 0.0133516
0.592264 0.313726 0.0294347
0.620615 0.321813 0.0440375
0.651453 0.330129 0.0640421
0.685618 0.339818 0.0894331
0.724865 0.351034 0.117113
0.770794 0.365194 0.144289
0.82887 0.383673 0.180133
0.926314 0.417807 0.231464
0 0.284077 0.0387732
0.00898756 0.284688 0.046128
0.0367895 0.285054 0.0539406
0.0648508 0.285939 0.0629587
0.091783 0.28719 0.0698253
0.114183 0.290517 0.0638285
0.135271 0.29427 0.0555581
0.155367 0.298405 0.0452277
0.174975 0.302922 0.0324407
0.194034 0.307591 0.0176852
0.224628 0.308232 0.0113527
0.254963 0.309377 0.00105287
0.281529 0.31133 0
0.306691 0.312581 0
0.329702 0.313756 0
0.353841 0.314366 0
0.378515 0.314168 0.00384527
0.403067 0.314015 0.00723278
0.426352 0.315618 0.00601205
0.448875 0.318288 0.00300603
0.472343 0.320607 3.0518e-05
0.498314 0.323125 0
0.526268 0.325551 0
0.553872 0.328023 0
0.582605 0.330083 0
0.608942 0.336568 0.0115663
0.63711 0.344182 0.0304875
0.66743 0.352789 0.050782
0.700938 0.362539 0.0735637
0.739391 0.373861 0.10309
0.78436 0.387655 0.134127
0.841367 0.406424 0.169268
0.935653 0.440497 0.224918
0 0.30869 0.0416876
0 0.30988 0.0497902
0.0257267 0.310674 0.0590524
0.056672 0.31136 0.0683146
0.0876631 0.31194 0.0771344
0.115999 0.314275 0.074052
0.139162 0.317937 0.0620127
0.161425 0.322118 0.0466468
0.181537 0.32636 0.0324712
0.200595 0.330907 0.0197452
0.223987 0.334691 0.0139162
0.255177 0.336141 0.0118257
0.283207 0.338094 0.00537118
0.309819 0.340291 0
0.336034 0.341375 0
0.360265 0.342275 0
0.386267 0.34226 0
0.411887 0.34229 0.00137331
0.436622 0.343175 0.00469978
0.460304 0.345083 0.00508125
0.483955 0.347692 0.0034638
0.510216 0.350423 0.00228885
0.538537 0.353552 0.00157168
0.565713 0.356344 0.000762951
0.594003 0.359365 3.0518e-05
0.625101 0.362051 0.000793469
0.654902 0.367941 0.0127871
0.684718 0.376532 0.0339055
0.71754 0.386084 0.0578317
0.755276 0.397757 0.0883955
0.799176 0.411612 0.12105
0.854917 0.430091 0.158984
0.947082 0.462959 0.222034
0 0.334905 0.0440681
0 0.335332 0.0531167
0.0168002 0.336263 0.0621347
0.049836 0.337148 0.0714733
0.0841993 0.337697 0.0808118
0.11754 0.33901 0.0867628
0.141573 0.342443 0.075639
0.164492 0.3467 0.0664683
0.185245 0.351156 0.0563058
0.205798 0.355749 0.0429389
0.225925 0.360845 0.0271763
0.255589 0.363577 0.0180514
0.286091 0.365118 0.0101167
0.314992 0.366827 0
0.342199 0.368887 0
0.368811 0.370382 0
0.392859 0.371984 0
0.419257 0.372503 0
0.445441 0.373098 0.00424201
0.471336 0.373983 0.00961318
0.496727 0.375494 0.0115358
0.522728 0.378714 0.00851453
0.550851 0.38201 0.00663767
0.578225 0.385489 0.00619516
0.606744 0.388418 0.00689708
0.637644 0.391791 0.00817884
0.671016 0.394888 0.0114595
0.704112 0.400748 0.0250248
0.735897 0.410712 0.0472267
0.772717 0.421988 0.0787213
0.815793 0.435599 0.117433
0.870222 0.453956 0.158633
0.959487 0.485786 0.224796
0 0.361929 0.047303
0 0.362692 0.0570687
0.00321965 0.363638 0.0666972
0.0400854 0.364324 0.0771344
0.0776226 0.365255 0.0883345
0.113924 0.36585 0.0994888
0.142458 0.368856 0.0978714
0.167056 0.372869 0.0868086
0.190295 0.377264 0.071931
0.211948 0.381659 0.0547799
0.233326 0.386877 0.0343938
0.256855 0.391821 0.0133516
0.288853 0.393622 0.0113832
0.317845 0.395636 0.00727855
0.346563 0.398032 0
0.373678 0.400427 0
0.401083 0.402152 0
0.426596 0.403449 0
0.453666 0.404837 0
0.480385 0.405524 0.00563058
0.507561 0.406439 0.0118715
0.53608 0.407736 0.0162509
0.564599 0.411521 0.016083
0.59202 0.414954 0.0171664
0.620752 0.418418 0.0201419
0.651316 0.422171 0.0205997
0.684047 0.426429 0.0226444
0.719783 0.429648 0.0289769
0.756542 0.435447 0.0459449
0.792233 0.446998 0.0764782
0.834455 0.460716 0.11783
0.887175 0.478508 0.161959
0.973129 0.509148 0.230167
0 0.390036 0.0507515
0 0.390921 0.0609598
0 0.391821 0.0719615
0.0291142 0.392691 0.0839246
0.0696574 0.393362 0.0944533
0.112016 0.394049 0.105409
0.145342 0.395544 0.110811
0.171633 0.399695 0.0992142
0.196185 0.403998 0.0842298
0.217914 0.408515 0.0716411
0.239658 0.413565 0.0567788
0.262242 0.419471 0.0379797
0.28864 0.423636 0.0220798
0.321126 0.425223 0.014023
0.352087 0.42681 0.00277714
0.380331 0.42974 0
0.407965 0.432563 0
0.43534 0.434821 0
0.461173 0.436805 0
0.488823 0.438163 0.00471504
0.516106 0.439567 0.0119783
0.545708 0.441169 0.0184634
0.577478 0.442451 0.0252384
0.606439 0.445106 0.0286259
0.634699 0.449104 0.031342
0.666102 0.452659 0.0377661
0.698558 0.457069 0.0416876
0.733623 0.461585 0.0473487
0.771908 0.466148 0.0573434
0.813397 0.472435 0.0776989
0.854124 0.485985 0.120119
0.905013 0.503487 0.167834
0.987594 0.532952 0.237308
0 0.418631 0.0554208
0 0.419837 0.0660258
0 0.420569 0.0779889
0.016907 0.421759 0.0903029
0.0603799 0.422431 0.101442
0.108263 0.423224 0.113176
0.145861 0.424002 0.123964
0.175647 0.427588 0.118029
0.200824 0.4318 0.106218
0.224445 0.43653 0.0917983
0.247318 0.44152 0.0733501
0.271153 0.447242 0.0502022
0.292943 0.452903 0.0283665
0.323171 0.45597 0.0229801
0.354788 0.458015 0.018143
0.385214 0.46038 0.00952163
0.414664 0.463432 0
0.443381 0.465919 0
0.471153 0.468727 0
0.497398 0.471305 0.00195315
0.525353 0.47332 0.00979629
0.555093 0.475395 0.0200961
0.585916 0.477882 0.0300908
0.616007 0.479988 0.0385901
0.647791 0.481621 0.046479
0.680217 0.484794 0.055314
0.713588 0.488624 0.0635538
0.748562 0.493156 0.0731365
0.786267 0.498314 0.0838483
0.828977 0.504112 0.0985885
0.875486 0.511925 0.121721
0.924559 0.528572 0.173037
1 0.557137 0.240787
0 0.450965 0.0587472
0 0.451911 0.0721447
0 0.453056 0.0847791
0.00131228 0.454017 0.0975509
0.0515908 0.454917 0.110018
0.101289 0.45568 0.121553
0.145251 0.456367 0.133242
0.179751 0.45864 0.136049
0.207675 0.462821 0.12311
0.231861 0.467491 0.108721
0.255665 0.47245 0.0956436
0.279835 0.478355 0.0763561
0.302907 0.484306 0.0524605
0.325383 0.490089 0.0268406
0.360143 0.4916 0.0167086
0.392218 0.493935 0.0114443
0.422034 0.497337 0.0089723
0.451255 0.500694 0.000320439
0.480079 0.504051 0
0.508324 0.506981 0
0.53492 0.510048 0.0120851
0.565377 0.512566 0.0227359
0.596201 0.51577 0.0334783
0.625742 0.519097 0.0453803
0.655344 0.522835 0.0574655
0.690059 0.525032 0.0692912
0.725612 0.527413 0.0820478
0.76173 0.531746 0.0946822
0.800275 0.536309 0.107073
0.843214 0.541711 0.120668
0.891981 0.547021 0.134463
0.947494 0.556909 0.163424
1 0.583902 0.231357
0 0.485344 0.0670024
0 0.486473 0.0792096
0 0.487984 0.092958
0 0.488777 0.106844
0.0392004 0.489738 0.118791
0.0976883 0.490379 0.131456
0.143511 0.491814 0.14316
0.184726 0.49247 0.154986
0.213657 0.496834 0.144305
0.240421 0.501289 0.130053
0.265583 0.506294 0.112963
0.291249 0.511864 0.0901656
0.314351 0.517891 0.0725261
0.336385 0.523903 0.0557259
0.36199 0.529 0.0399786
0.396338 0.531411 0.034638
0.429129 0.534051 0.0247349
0.460395 0.536934 0.0159152
0.490974 0.540963 0.00376898
0.519219 0.544686 0.000732433
0.546563 0.548974 0.0147707
0.574609 0.553109 0.0319066
0.606714 0.556756 0.0420691
0.636316 0.560204 0.0547799
0.665949 0.564523 0.0700999
0.697002 0.569436 0.0849775
0.733974 0.572015 0.101137
0.772366 0.574823 0.116335
0.811521 0.57908 0.13077
0.855314 0.58323 0.145052
0.904341 0.588006 0.159884
0.964584 0.592615 0.17641
1 0.612116 0.227619
0 0.519509 0.0735943
0 0.520592 0.0869001
0 0.521538 0.101884
0 0.522667 0.115434
0.0298161 0.523583 0.128283
0.0923171 0.524529 0.141192
0.143389 0.525444 0.153323
0.18703 0.526513 0.165484
0.220859 0.529549 0.163073
0.248219 0.534142 0.150973
0.274678 0.538979 0.138476
0.300511 0.545022 0.122637
0.32549 0.550622 0.100649
0.349142 0.556664 0.0711528
0.371939 0.562829 0.0450752
0.40264 0.566796 0.0417945
0.435737 0.569543 0.0439612
0.468254 0.572747 0.0402228
0.499596 0.576181 0.0297093
0.529595 0.580758 0.0181277
0.557931 0.585351 0.0185245
0.586328 0.590478 0.0400702
0.616663 0.595254 0.05832
0.646357 0.599557 0.0710307
0.675837 0.604349 0.0863508
0.705806 0.610391 0.102678
0.737591 0.616556 0.115877
0.777844 0.618463 0.135195
0.819043 0.621363 0.153231
0.863325 0.624979 0.169329
0.913039 0.628504 0.185733
0.972763 0.632898 0.203311
1 0.638911 0.23241
0 0.55433 0.0819867
0 0.555428 0.0966659
0 0.556848 0.110582
0 0.5579 0.125353
0.0201419 0.558785 0.13846
0.0890669 0.559686 0.151934
0.144549 0.560678 0.164431
0.190997 0.561791 0.177066
0.228916 0.563638 0.181872
0.258457 0.568246 0.16907
0.286198 0.572931 0.153338
0.313115 0.578851 0.136965
0.337972 0.584451 0.123644
0.361517 0.590585 0.106004
0.385031 0.59675 0.0806744
0.409842 0.602991 0.0515908
0.443198 0.606119 0.0592355
0.475959 0.609613 0.0619974
0.508507 0.613214 0.0595254
0.538811 0.617594 0.055848
0.568994 0.622446 0.0464485
0.599313 0.627955 0.0515297
0.627573 0.634318 0.0783856
0.656596 0.639429 0.095201
0.685573 0.644678 0.108339
0.715892 0.650752 0.123461
0.746395 0.657786 0.136645
0.778759 0.664729 0.149889
0.821469 0.66659 0.173083
0.867597 0.668925 0.193179
0.91754 0.672023 0.212131
0.978454 0.674601 0.232074
1 0.676616 0.259098
0 0.591897 0.0932021
0 0.593469 0.106096
0 0.594247 0.122057
0 0.595529 0.137026
0.0147097 0.596567 0.150591
0.0882734 0.597498 0.164157
0.149126 0.598444 0.177249
0.198215 0.599329 0.190082
0.239368 0.600656 0.201328
0.269261 0.604974 0.190295
0.298772 0.609842 0.176562
0.326436 0.615564 0.160723
0.352682 0.621317 0.140703
0.376577 0.627237 0.129335
0.400031 0.6336 0.115084
0.422965 0.640482 0.0977798
0.45185 0.645548 0.0841993
0.486473 0.648707 0.0867781
0.519341 0.652232 0.0901503
0.550271 0.65687 0.0949569
0.580041 0.661936 0.0963607
0.611582 0.667979 0.0918898
0.64271 0.674189 0.098497
0.66836 0.680842 0.122881
0.696773 0.68629 0.140948
0.726925 0.692409 0.155352
0.757504 0.698878 0.168444
0.788952 0.706111 0.181369
0.822828 0.713436 0.198108
0.867247 0.716243 0.224125
0.917449 0.718471 0.250294
0.975891 0.721538 0.27921
1 0.727321 0.327657
0 0.632151 0.104234
0 0.633494 0.119295
0 0.634623 0.134691
0 0.635538 0.150713
0.0124361 0.636561 0.164202
0.0964828 0.637064 0.178683
0.157595 0.638346 0.191714
0.210727 0.63859 0.205173
0.252033 0.64007 0.217319
0.284596 0.643839 0.207752
0.313283 0.649119 0.19791
0.342535 0.654521 0.183627
0.370062 0.660288 0.164172
0.395392 0.66598 0.13933
0.418524 0.67245 0.132708
0.441215 0.678935 0.127489
0.46421 0.68629 0.116762
0.49662 0.69012 0.120302
0.531044 0.69398 0.127153
0.562295 0.698238 0.135531
0.592706 0.703288 0.143145
0.624689 0.708705 0.142779
0.655344 0.715801 0.143694
0.68336 0.722347 0.147478
0.708583 0.729076 0.17084
