subtle niceties LUT V2 beta 12 (SSH-TS reimagined).cube
TITLE "Generated by Resolve"
LUT_3D_SIZE 5
0.00874342 0.00762951 0.011429
0.111406 0.01944 0.0159762
0.271351 0.024567 0.00848402
0.482048 0.0611582 0.0311284
0.955459 0.297871 0.255985
0.0618906 0.132647 0.0302281
0.158007 0.154437 0.0101625
0.317891 0.152102 0
0.547082 0.172946 0
1 0.419806 0.332174
0.123934 0.285466 0.0501869
0.223056 0.307347 0.03122
0.362325 0.335332 0
0.565225 0.350881 0
1 0.530098 0.254551
0.187839 0.497536 0.117815
0.322225 0.51754 0.0864424
0.449729 0.553384 0.0474098
0.628702 0.597421 0
0.997452 0.651728 0.129198
0.411536 0.872053 0.245792
0.557473 0.882734 0.230533
0.686687 0.903807 0.306935
0.823453 0.946792 0.376623
1 1 0.522805
0.0163729 0.0345464 0.116075
0.156558 0.0382849 0.144717
0.276005 0.0678874 0.144274
0.485115 0.071107 0.158206
0.932708 0.305837 0.335698
0.0315862 0.158618 0.165347
0.164889 0.174624 0.172137
0.347372 0.173312 0.169772
0.549798 0.21799 0.187869
1 0.451011 0.395819
0.107942 0.314885 0.167422
0.223972 0.344884 0.151369
0.380545 0.372549 0.143587
0.605997 0.387091 0.207401
1 0.603128 0.403037
0.220249 0.519768 0.198718
0.344549 0.546105 0.210101
0.487373 0.581598 0.219226
0.649592 0.635325 0.185046
1 0.707393 0.401266
0.455711 0.890059 0.296498
0.57557 0.907973 0.347692
0.707881 0.935149 0.411093
0.832547 0.999634 0.435813
1 1 0.685176
0.0219883 0.0907149 0.300084
0.162951 0.108034 0.292943
0.337423 0.0733043 0.309636
0.511025 0.096376 0.332525
0.909651 0.309957 0.444602
0.0645914 0.198093 0.301427
0.175494 0.201175 0.329641
0.370367 0.188006 0.354452
0.556802 0.230961 0.363241
1 0.437018 0.50956
0.0318914 0.347524 0.356893
0.158877 0.373602 0.376928
0.377401 0.395819 0.394797
0.646708 0.419181 0.395789
1 0.609277 0.600031
0.313512 0.533822 0.39791
0.27071 0.600748 0.363394
0.461982 0.639658 0.365118
0.690684 0.667842 0.400519
1 0.798764 0.606241
0.44979 0.91873 0.473823
0.573037 0.943786 0.48484
0.692622 0.991638 0.501869
0.89163 1 0.595483
1 1 0.943862
0.0486915 0.142077 0.529152
0.18732 0.177646 0.511498
0.343481 0.20734 0.496345
0.593057 0.153735 0.544793
0.980606 0.325841 0.656733
0.098085 0.262318 0.512963
0.169131 0.250965 0.549035
0.366445 0.25684 0.558145
0.611063 0.263279 0.582528
0.990799 0.418189 0.665736
0.135912 0.391882 0.54258
0.211917 0.409674 0.56643
0.383261 0.426169 0.601999
0.672114 0.410636 0.639307
1 0.554574 0.746853
0.0504768 0.596551 0.615579
0.224231 0.623407 0.64239
0.391516 0.660655 0.679179
0.664546 0.696986 0.694865
1 0.799588 0.772335
0.475776 0.943435 0.670863
0.491905 0.994537 0.650553
0.659968 1 0.705318
0.943542 1 0.812436
1 1 1
0.220905 0.355703 1
0.328054 0.357427 1
0.458244 0.389059 0.995102
0.641352 0.448157 0.931655
1 0.44509 1
0.162158 0.416373 1
0.234974 0.411704 1
0.413825 0.429007 1
0.625101 0.460197 0.960678
1 0.512886 1
0.284443 0.549691 0.992844
0.232212 0.541161 1
0.379065 0.507042 1
0.676081 0.519814 1
1 0.579614 1
0.200748 0.690425 1
0.318914 0.704768 0.988815
0.422553 0.726925 1
0.661707 0.739025 1
1 0.775799 1
0.291341 0.983078 1
0.460533 0.998474 1
0.687053 1 1
1 1 1
1 1 1
