subtle niceties LUT V2 beta 5 (SSH-TS reimagined).cube
TITLE "Generated by Resolve"
LUT_3D_SIZE 33
0.00840772 0.00694286 0.00840772
0.0195926 0.00885023 0.0108797
0.0333715 0.0102998 0.0107729
0.0467536 0.0125429 0.01149
0.0613413 0.0139315 0.0121767
0.0767987 0.015198 0.0126192
0.0912947 0.0163729 0.0130922
0.107744 0.0171969 0.0134737
0.124636 0.0182498 0.0135805
0.141192 0.019028 0.0137484
0.158602 0.0197604 0.0136721
0.17734 0.0205234 0.0141756
0.195499 0.0216983 0.0148165
0.214084 0.0226749 0.0158083
0.233234 0.0234989 0.0169223
0.252659 0.0248264 0.018204
0.272786 0.0264439 0.0196689
0.293751 0.0284581 0.0214084
0.315465 0.0313726 0.023621
0.337743 0.0349584 0.0261845
0.360662 0.0393835 0.0291295
0.386419 0.0446479 0.0327611
0.414252 0.0508278 0.0368963
0.440497 0.0569772 0.0410925
0.468467 0.0633249 0.0462501
0.500099 0.0705119 0.0527504
0.534997 0.0788434 0.0606241
0.573556 0.089189 0.0696117
0.616739 0.10013 0.0808118
0.667704 0.112108 0.0952926
0.727718 0.126818 0.111666
0.804028 0.144472 0.133135
0.931258 0.173419 0.169131
0.0125887 0.0219272 0.0157321
0.0248417 0.0236057 0.0161135
0.0369268 0.0246281 0.0162966
0.0485389 0.0271458 0.0164645
0.061677 0.0281682 0.0170138
0.0759594 0.0292668 0.0174258
0.0898451 0.0302586 0.0174258
0.105913 0.03122 0.0173037
0.122545 0.0319524 0.017319
0.13872 0.0325017 0.0173495
0.156039 0.0330663 0.0172885
0.175067 0.0333104 0.0168917
0.194049 0.0331884 0.0169985
0.213458 0.0327611 0.0175174
0.233097 0.0323796 0.0180667
0.253162 0.0323339 0.0188144
0.274098 0.0321813 0.019852
0.295476 0.0326848 0.0209964
0.317678 0.0344701 0.0228733
0.340276 0.0374304 0.0251164
0.363455 0.0419928 0.0281376
0.389258 0.0474861 0.0316777
0.417624 0.0538643 0.0359045
0.445319 0.0606394 0.040238
0.474006 0.0671244 0.045655
0.50573 0.0743572 0.0523537
0.540703 0.0830396 0.0602731
0.579248 0.0928817 0.0694591
0.622354 0.103304 0.0809949
0.672984 0.115038 0.095613
0.732311 0.129442 0.112016
0.808362 0.147005 0.13341
0.934783 0.175494 0.169345
0.012604 0.039353 0.0174563
0.0254215 0.0402838 0.0182193
0.0396735 0.0423438 0.013489
0.0522621 0.0424964 0.017731
0.0651713 0.0426947 0.0198367
0.0788739 0.0440375 0.0203708
0.0926375 0.0448463 0.019913
0.108797 0.0456397 0.0192416
0.124819 0.0462654 0.018677
0.140688 0.0465095 0.0184482
0.157534 0.0470283 0.0181888
0.175586 0.0471656 0.0184787
0.193668 0.0473182 0.0191806
0.212512 0.0465553 0.0203708
0.232578 0.044831 0.0205997
0.253483 0.0423896 0.0204776
0.275029 0.0396277 0.0205386
0.297307 0.0362707 0.0205539
0.319829 0.0372473 0.0220798
0.342626 0.0399023 0.024033
0.366003 0.0446632 0.0270237
0.392233 0.0502785 0.0306401
0.421225 0.0568704 0.0350195
0.449744 0.0635843 0.0397192
0.479652 0.0709544 0.0450599
0.511955 0.0783093 0.0520485
0.547021 0.0869917 0.0601205
0.585397 0.0964675 0.0695201
0.628565 0.106752 0.0814984
0.678676 0.118639 0.0956436
0.737942 0.13286 0.1122
0.813367 0.150317 0.133455
0.938811 0.178393 0.169284
0.0142214 0.0565347 0.0191806
0.0270085 0.057145 0.0206149
0.0406653 0.0590066 0.0173648
0.0554665 0.0615854 0.0129397
0.0673228 0.061265 0.0180362
0.0819104 0.0607156 0.0212863
0.0961013 0.060853 0.0224308
0.112627 0.0619059 0.020798
0.128283 0.0625772 0.019791
0.14403 0.0630808 0.0190433
0.160266 0.0637064 0.0189517
0.177951 0.0640116 0.019379
0.195727 0.0641184 0.0200656
0.213855 0.064271 0.0208896
0.233158 0.0628519 0.0222782
0.253117 0.0615549 0.0238193
0.27422 0.059556 0.0247654
0.29659 0.056611 0.0246586
0.32015 0.053666 0.0249638
0.343771 0.0528725 0.0260471
0.368124 0.0541695 0.0279698
0.395422 0.0567788 0.0308537
0.425269 0.0612345 0.0348363
0.454551 0.0669871 0.0394293
0.485191 0.0743877 0.0447089
0.518776 0.0827649 0.0518196
0.553903 0.0916304 0.0596475
0.592462 0.101076 0.0691844
0.635203 0.111223 0.0808576
0.685191 0.12311 0.0952316
0.744076 0.137072 0.111955
0.819104 0.154376 0.133288
0.943526 0.181796 0.169131
0.0158999 0.0724651 0.0198978
0.0280613 0.0728008 0.0212406
0.0427558 0.0740215 0.019852
0.0561532 0.0769207 0.0150759
0.0691844 0.0788434 0.0132296
0.0839399 0.0778058 0.0183871
0.0996109 0.0768902 0.0215
0.116091 0.0770581 0.0212406
0.131884 0.0777447 0.0193484
0.147265 0.0785534 0.0184787
0.163165 0.0793011 0.0183719
0.180697 0.0798352 0.0186618
0.198077 0.0802167 0.0192721
0.216022 0.0803845 0.0201267
0.23508 0.0793317 0.0214389
0.254734 0.0784619 0.0229648
0.275273 0.0770733 0.0245365
0.296559 0.0756542 0.0265812
0.319646 0.0735943 0.0284581
0.344198 0.0715953 0.029221
0.369558 0.0702068 0.0305943
0.39791 0.0698558 0.032639
0.428733 0.0704204 0.0355688
0.458869 0.0726482 0.0391852
0.490211 0.0780499 0.043946
0.524498 0.0874037 0.050721
0.560769 0.0967727 0.0586862
0.599374 0.106203 0.0682841
0.642115 0.116091 0.0801099
0.691707 0.128084 0.0943923
0.750301 0.141649 0.11133
0.824781 0.158465 0.132982
0.947753 0.186221 0.168856
0.0171817 0.089128 0.0191501
0.0310826 0.0889601 0.0205234
0.0460059 0.0898299 0.0195926
0.0580301 0.0930343 0.0157015
0.0689097 0.0957504 0.0124666
0.0854963 0.0961624 0.0125582
0.103059 0.0943465 0.0172732
0.120104 0.0941024 0.0178531
0.135348 0.0947433 0.0172732
0.150576 0.0959029 0.0160525
0.166369 0.0965438 0.0157168
0.183612 0.097734 0.0157015
0.200839 0.0981613 0.0164034
0.218616 0.0988632 0.01738
0.237507 0.0978408 0.0191806
0.25716 0.0969863 0.0209201
0.277546 0.0960555 0.0229191
0.298924 0.095201 0.0252842
0.321706 0.0945449 0.0280003
0.345251 0.0940261 0.0315404
0.370535 0.0930495 0.0344244
0.399847 0.0901656 0.0358129
0.431861 0.0869612 0.0377356
0.462745 0.0860914 0.0404364
0.494697 0.0901045 0.0446174
0.529442 0.0972 0.050721
0.567147 0.10454 0.0575723
0.606867 0.112398 0.0667277
0.649622 0.121965 0.0788434
0.698909 0.134279 0.093431
0.757198 0.146868 0.110506
0.831006 0.164645 0.132372
0.951949 0.195789 0.17023
0.0211337 0.104051 0.0183871
0.0363012 0.103578 0.019501
0.0501259 0.105318 0.0194553
0.0615854 0.108232 0.0167239
0.0720684 0.110918 0.0141604
0.0854963 0.113832 0.0113069
0.103319 0.113634 0.0131075
0.122866 0.111177 0.016434
0.139712 0.110948 0.0150912
0.153994 0.111955 0.0145266
0.169512 0.113085 0.0131991
0.186725 0.113832 0.0124361
0.203769 0.114427 0.0124666
0.221332 0.114641 0.0131075
0.24033 0.113771 0.0152438
0.259983 0.112947 0.0175174
0.280461 0.112703 0.0198825
0.30193 0.112764 0.0225376
0.324895 0.11284 0.0257267
0.348531 0.113069 0.0294194
0.373373 0.113878 0.0335393
0.401419 0.114611 0.0390631
0.433112 0.114488 0.0431983
0.464546 0.113527 0.0458076
0.497215 0.113542 0.0488136
0.533104 0.112978 0.05243
0.571862 0.113451 0.0573739
0.612604 0.123781 0.066865
0.65594 0.134752 0.0796826
0.705638 0.140612 0.0924392
0.763088 0.160708 0.112383
0.836133 0.176745 0.134066
0.953796 0.221775 0.176776
0.0206302 0.121462 0.0196384
0.0357519 0.121691 0.0222019
0.0513161 0.122225 0.0240635
0.0640421 0.124422 0.0227207
0.0750134 0.126802 0.0200504
0.0889906 0.129656 0.0161288
0.10164 0.132204 0.0128328
0.121004 0.130938 0.0150912
0.141344 0.128542 0.0180819
0.158328 0.128176 0.0159457
0.173495 0.128847 0.0143282
0.190112 0.130175 0.0118105
0.20705 0.131014 0.00972
0.224445 0.131563 0.00923171
0.243793 0.130739 0.0110018
0.263706 0.130358 0.0130465
0.284642 0.130419 0.0155947
0.306157 0.1308 0.0185092
0.329091 0.131487 0.0218814
0.352819 0.132753 0.0256962
0.377569 0.13434 0.0302739
0.405829 0.136202 0.035996
0.4365 0.138766 0.0427253
0.466697 0.141558 0.0496834
0.499046 0.143252 0.0555581
0.535317 0.144228 0.0596628
0.574319 0.145602 0.0651408
0.616709 0.147845 0.0725719
0.661967 0.152407 0.0825208
0.711147 0.166308 0.0978408
0.768872 0.17847 0.115419
0.840589 0.203082 0.140261
0.955978 0.248539 0.183825
0.0153811 0.140063 0.0234379
0.0322271 0.140139 0.0259556
0.0492561 0.140398 0.027924
0.0657969 0.140688 0.0290379
0.0779126 0.142901 0.025803
0.0926223 0.145571 0.0211185
0.105074 0.147997 0.0167697
0.118288 0.150469 0.0126497
0.140795 0.147829 0.0162509
0.160861 0.145495 0.0175174
0.17821 0.145144 0.0146487
0.194385 0.146502 0.0115206
0.210971 0.148058 0.00827039
0.228611 0.149096 0.00730907
0.247501 0.149935 0.00767529
0.267948 0.149599 0.0101472
0.289265 0.149844 0.0126497
0.311238 0.150469 0.0155184
0.334264 0.15169 0.0185397
0.358236 0.153201 0.0220798
0.383108 0.155138 0.026627
0.411048 0.15761 0.0320745
0.441764 0.160464 0.0389868
0.471901 0.163607 0.0463264
0.503502 0.167376 0.0545052
0.538216 0.172152 0.0641031
0.576486 0.176928 0.0742657
0.618921 0.180667 0.0826429
0.665171 0.185214 0.0916152
0.716289 0.194034 0.104753
0.773434 0.20943 0.123369
0.844511 0.231907 0.147662
0.95758 0.280522 0.192828
0.0104219 0.158343 0.0263218
0.028336 0.158145 0.0286717
0.0465095 0.15787 0.0306554
0.064332 0.158129 0.0320134
0.0803388 0.158984 0.0314488
0.0954299 0.161501 0.0265507
0.108034 0.163622 0.0220035
0.121508 0.166064 0.0169223
0.135195 0.168185 0.0133211
0.159289 0.164935 0.0175326
0.180713 0.162707 0.0184482
0.199405 0.162921 0.0157473
0.216114 0.164874 0.0130617
0.233402 0.166781 0.0108949
0.252094 0.168582 0.00920119
0.271794 0.170138 0.0089723
0.293858 0.170367 0.0108339
0.316548 0.170977 0.012604
0.340093 0.172 0.0142367
0.364263 0.173724 0.0171817
0.389197 0.176318 0.021912
0.417151 0.179309 0.027863
0.447761 0.18323 0.0349126
0.477775 0.187182 0.0424201
0.509285 0.191546 0.0509804
0.543923 0.196735 0.0611582
0.581369 0.202533 0.0727703
0.621912 0.209674 0.0869459
0.667124 0.217121 0.101305
0.719722 0.225162 0.11371
0.777554 0.238422 0.130785
0.847929 0.262486 0.155917
0.959457 0.311116 0.201358
0.0056611 0.176944 0.0284276
0.0243076 0.176593 0.0306401
0.0431678 0.176425 0.032639
0.0628061 0.176364 0.0341192
0.0827192 0.176471 0.0349432
0.0986801 0.177859 0.0310369
0.112047 0.17995 0.0265507
0.126497 0.182116 0.0214389
0.140215 0.184649 0.016144
0.155291 0.186511 0.0140536
0.181018 0.183627 0.018204
0.203967 0.182269 0.0183261
0.222553 0.183413 0.0157626
0.239872 0.185824 0.0126497
0.257725 0.188678 0.00996414
0.277516 0.190906 0.00791943
0.298482 0.193027 0.00733959
0.322103 0.193545 0.00965896
0.346303 0.194858 0.0121614
0.370733 0.196735 0.0153964
0.396017 0.199115 0.0193332
0.424048 0.20264 0.0237583
0.454643 0.206912 0.0295567
0.484611 0.211429 0.0373083
0.515908 0.216785 0.0462348
0.550317 0.222507 0.0565652
0.587503 0.229328 0.0681468
0.627848 0.23714 0.0830396
0.671901 0.246174 0.100008
0.722499 0.257343 0.119188
0.780346 0.272206 0.140322
0.850263 0.295186 0.165576
0.960571 0.343633 0.210834
0.000549325 0.197208 0.0311284
0.0189364 0.196948 0.0332952
0.0370336 0.196704 0.0352178
0.0582132 0.19646 0.0370489
0.0798047 0.196124 0.0381933
0.100618 0.196536 0.038117
0.114748 0.198352 0.0331273
0.130709 0.200687 0.0274968
0.146059 0.203021 0.021622
0.161242 0.205936 0.015259
0.17911 0.207355 0.0135958
0.20676 0.205173 0.0169375
0.228992 0.204974 0.0153353
0.248234 0.206897 0.0110781
0.266224 0.209766 0.00762951
0.284337 0.213993 0.00488289
0.305516 0.216724 0.00344854
0.328008 0.219181 0.00392157
0.353033 0.220462 0.00683604
0.378363 0.222339 0.00926223
0.404044 0.224887 0.0120089
0.432425 0.228138 0.0160372
0.46302 0.232715 0.0232548
0.492882 0.238056 0.03122
0.523995 0.243854 0.0403754
0.558221 0.250507 0.0516518
0.594888 0.25771 0.0640879
0.634714 0.266316 0.0785077
0.678248 0.27599 0.096025
0.728054 0.288075 0.115785
0.786023 0.30248 0.137591
0.854627 0.327108 0.167987
0.956436 0.37528 0.217685
0 0.217227 0.0343786
0.01149 0.216922 0.0362097
0.0287938 0.216876 0.037995
0.0518807 0.21651 0.0400397
0.0756085 0.216342 0.0416114
0.0993668 0.216495 0.0425574
0.117937 0.217563 0.0403296
0.134447 0.220035 0.0345006
0.151034 0.222599 0.0284276
0.167422 0.225544 0.021973
0.183795 0.228641 0.0145724
0.20528 0.230472 0.0140993
0.232334 0.228534 0.0178225
0.254841 0.229191 0.0162814
0.275044 0.231693 0.0125124
0.29427 0.235218 0.00779736
0.31342 0.240085 0.00271611
0.335256 0.2439 0
0.360235 0.246113 0
0.386343 0.247974 0.000198367
0.411933 0.25095 0.00614939
0.440589 0.254856 0.0128634
0.471305 0.259709 0.0195468
0.501228 0.264851 0.0262608
0.532387 0.270832 0.0347143
0.566201 0.277989 0.0457618
0.602731 0.286 0.0588235
0.642039 0.294987 0.0732128
0.684962 0.30518 0.0913558
0.733928 0.317769 0.112078
0.790646 0.333181 0.134676
0.859373 0.356252 0.164889
0.954284 0.403326 0.216281
0 0.237583 0.0387884
0.00195315 0.237797 0.0404059
0.016083 0.237934 0.0420386
0.0415656 0.237934 0.0446784
0.0671397 0.238132 0.0469368
0.0943465 0.238392 0.0486915
0.118074 0.238758 0.0496071
0.137163 0.240894 0.0456855
0.15465 0.243915 0.0391852
0.172137 0.246723 0.0321813
0.189929 0.25005 0.0244602
0.207858 0.254582 0.0163119
0.230518 0.256199 0.0178225
0.258259 0.254795 0.0222934
0.282322 0.255497 0.0202182
0.303593 0.258396 0.0158389
0.324239 0.262638 0.010544
0.344656 0.267979 0.00561532
0.36733 0.272602 0.00184634
0.391562 0.277256 0.000244144
0.418891 0.279805 0.00373846
0.448295 0.283314 0.00863661
0.479912 0.287495 0.0136721
0.510185 0.292683 0.0186618
0.541085 0.298787 0.0281529
0.574868 0.306127 0.0403296
0.610758 0.314351 0.0539406
0.649668 0.323857 0.0684672
0.691966 0.334417 0.0867781
0.740063 0.347646 0.108003
0.795682 0.363439 0.132265
0.863737 0.386175 0.162219
0.952743 0.432609 0.215747
0 0.259007 0.0439765
0 0.259602 0.0452125
0.00175479 0.260487 0.0466468
0.029633 0.260761 0.0498207
0.0573281 0.261189 0.0526741
0.088426 0.26157 0.0552377
0.115053 0.262242 0.057023
0.139803 0.262745 0.0578317
0.158663 0.266102 0.0515602
0.176608 0.269123 0.0443732
0.195651 0.273045 0.0364843
0.215183 0.277211 0.0273442
0.233585 0.282078 0.0177462
0.258976 0.283177 0.0193942
0.287587 0.282383 0.0246281
0.312215 0.283742 0.0221561
0.33463 0.287282 0.0173037
0.35639 0.291951 0.0116732
0.378195 0.29781 0.00650034
0.400916 0.303395 0.00137331
0.426062 0.308782 0
0.456596 0.312062 0
0.488594 0.316609 0.0049897
0.518502 0.32224 0.0157931
0.549615 0.328527 0.0252689
0.58352 0.3355 0.0351873
0.619364 0.343969 0.0473335
0.657633 0.353552 0.0630045
0.699321 0.364569 0.0818341
0.746639 0.377646 0.104982
0.801175 0.39411 0.129656
0.867704 0.416693 0.15996
0.951782 0.462745 0.215427
0 0.281651 0.0499123
0 0.283146 0.050782
0 0.284016 0.0518959
0.0170748 0.284825 0.0556802
0.0471962 0.285512 0.0590982
0.0814374 0.286305 0.0624399
0.110735 0.286885 0.0648966
0.138903 0.287922 0.066804
0.163287 0.289754 0.0660105
0.182025 0.293248 0.0579995
0.201648 0.297078 0.0495155
0.222873 0.301625 0.0397498
0.242649 0.306081 0.0294652
0.261128 0.311772 0.0194095
0.288762 0.312367 0.0225986
0.318135 0.312093 0.029099
0.343923 0.314183 0.0265049
0.367605 0.317952 0.0212253
0.390661 0.323354 0.0155947
0.413275 0.329671 0.0099031
0.436439 0.336553 0.00480659
0.464347 0.342748 0.000991836
0.495598 0.348501 0.00209049
0.526802 0.353475 0.0087892
0.558724 0.359319 0.0162661
0.592325 0.366491 0.0274968
0.628031 0.374792 0.0421759
0.666026 0.384695 0.0597696
0.707088 0.395666 0.0775616
0.753445 0.409033 0.100618
0.806485 0.425757 0.128252
0.871946 0.448066 0.158236
0.951247 0.49366 0.215763
0 0.305867 0.057023
0 0.307836 0.0578012
0 0.30927 0.0591745
0.00514229 0.31046 0.062623
0.0357214 0.311467 0.0663767
0.0726635 0.312398 0.0703899
0.105928 0.313283 0.0736095
0.137758 0.314549 0.076524
0.16556 0.315877 0.0783093
0.18851 0.318929 0.0740978
0.208469 0.322866 0.0649577
0.230381 0.327489 0.0546883
0.251331 0.332097 0.0439307
0.271153 0.337514 0.0333562
0.290379 0.343435 0.0229496
0.319951 0.344335 0.0273442
0.350591 0.344518 0.0348211
0.37789 0.346731 0.031632
0.40296 0.351263 0.0250095
0.42681 0.357046 0.0173953
0.450355 0.363699 0.0101167
0.475593 0.371923 0.00376898
0.505638 0.379492 0.00326543
0.53489 0.386496 0.00421149
0.56643 0.39263 0.0126192
0.600641 0.399558 0.0234073
0.636362 0.407675 0.0358282
0.674144 0.417548 0.0538186
0.714504 0.428428 0.0732433
0.75993 0.441871 0.0987411
0.81207 0.458579 0.126238
0.875792 0.480583 0.158343
0.951385 0.525414 0.216541
0 0.331807 0.0653697
0 0.333822 0.0660563
0 0.335698 0.0675669
0 0.337621 0.0703136
0.0227817 0.338918 0.0746166
0.0628214 0.340108 0.0793164
0.0992447 0.341405 0.0834974
0.135454 0.342702 0.0872663
0.166506 0.34406 0.0899367
0.194842 0.345968 0.0915084
0.216144 0.349905 0.0828565
0.238529 0.35491 0.0718547
0.26038 0.360113 0.0609293
0.281712 0.365103 0.0489052
0.302159 0.370748 0.0364691
0.323064 0.376761 0.0274968
0.353948 0.378134 0.0320439
0.385275 0.378607 0.0413214
0.413458 0.38172 0.0398108
0.439521 0.386481 0.0347143
0.464378 0.392645 0.0281987
0.4907 0.400504 0.0200961
0.518151 0.40943 0.00926223
0.546304 0.417624 0
0.576272 0.425299 0.00781262
0.608896 0.43415 0.0201572
0.644175 0.442313 0.0330053
0.68191 0.451835 0.0500343
0.722026 0.462959 0.069688
0.766796 0.47602 0.0964065
0.817258 0.492439 0.127047
0.879011 0.514504 0.159335
0.953323 0.556069 0.22153
0 0.359487 0.0750744
0 0.361654 0.0758679
0 0.36405 0.0772564
0 0.366369 0.0792554
0.0111086 0.367758 0.0844739
0.0524147 0.36939 0.0894942
0.0940261 0.370947 0.0939956
0.133333 0.372152 0.098146
0.167727 0.374151 0.101732
0.197742 0.375708 0.10396
0.224933 0.378805 0.102083
0.2477 0.383993 0.0915236
0.270039 0.389273 0.0800336
0.292317 0.394568 0.0675364
0.314031 0.400305 0.0544289
0.334997 0.406439 0.040589
0.357443 0.412695 0.0338293
0.389838 0.414038 0.0392615
0.422461 0.415137 0.047837
0.451453 0.418524 0.0450141
0.478111 0.423865 0.0391089
0.50576 0.430777 0.0340124
0.53402 0.439475 0.0293126
0.560601 0.448356 0.0250706
0.588586 0.457801 0.0236515
0.620813 0.466178 0.0216373
0.654597 0.476173 0.0326848
0.690715 0.48661 0.0506752
0.729473 0.49839 0.0710918
0.772686 0.512062 0.0955215
0.8224 0.527947 0.128771
0.882216 0.549172 0.162188
0.957107 0.586221 0.239048
0 0.388556 0.086244
0 0.391135 0.0872206
0 0.393622 0.0881666
0 0.396262 0.0906691
0 0.398398 0.094728
0.04271 0.400092 0.100175
0.0875715 0.401785 0.104921
0.131044 0.403433 0.10959
0.168124 0.405234 0.113603
0.201678 0.407218 0.116732
0.232105 0.409415 0.118669
0.257969 0.414282 0.111131
0.280659 0.41973 0.100557
0.303655 0.425101 0.0883192
0.325902 0.430869 0.0747539
0.348302 0.437293 0.0601358
0.369818 0.444282 0.0449378
0.393393 0.450156 0.041062
0.427756 0.451728 0.0466773
0.460594 0.453437 0.0570535
0.49015 0.457282 0.056672
0.519814 0.463615 0.051957
0.549187 0.471336 0.0458534
0.576593 0.479744 0.0436713
0.603754 0.489342 0.0446479
0.632959 0.499458 0.0494392
0.666499 0.509178 0.0526284
0.702068 0.519936 0.0675975
0.73994 0.531487 0.0892348
0.7823 0.5449 0.117128
0.830427 0.560616 0.148699
0.888731 0.581613 0.186481
0.961105 0.6168 0.261601
0 0.418967 0.0977951
0 0.42208 0.09897
0 0.424857 0.100023
0 0.427695 0.102312
0 0.430167 0.105653
0.0330663 0.432029 0.111452
0.079469 0.433875 0.116274
0.130434 0.435737 0.121523
0.170077 0.437598 0.125933
0.205539 0.439628 0.12958
0.238666 0.442054 0.132296
0.269093 0.445624 0.130907
0.292332 0.451301 0.120592
0.315312 0.457053 0.109621
0.338552 0.462867 0.0969711
0.361547 0.469169 0.0825818
0.384268 0.475929 0.0660258
0.406332 0.483528 0.0491493
0.431678 0.489311 0.0491035
0.46569 0.492042 0.0586862
0.498726 0.493858 0.0745403
0.531991 0.498146 0.0757305
0.56376 0.504753 0.0677195
0.592233 0.512551 0.0594492
0.619837 0.521385 0.071931
0.648829 0.531655 0.0836042
0.679347 0.542702 0.0935836
0.713726 0.553704 0.106783
0.750805 0.565118 0.124804
0.79237 0.578225 0.152087
0.83888 0.593866 0.18024
0.895186 0.613794 0.216953
0.96434 0.648188 0.288975
0 0.453605 0.110948
0 0.456443 0.112032
0 0.459602 0.113252
0 0.46331 0.114641
0 0.465553 0.118791
0.0201572 0.467994 0.124147
0.0747539 0.469642 0.129366
0.127901 0.471946 0.134768
0.173617 0.473884 0.139788
0.210803 0.476051 0.143893
0.245914 0.47837 0.147173
0.28072 0.481392 0.149493
0.305959 0.486564 0.142245
0.329595 0.492409 0.131487
0.353063 0.498375 0.119905
0.376577 0.504784 0.106966
0.400183 0.511574 0.0921187
0.423301 0.518837 0.0743725
0.445777 0.526741 0.0548867
0.472114 0.532555 0.0573739
0.505684 0.536217 0.0703441
0.541268 0.539254 0.0935531
0.576288 0.543877 0.10135
0.606638 0.550515 0.101778
0.635264 0.558694 0.110307
0.665263 0.567819 0.11957
0.695781 0.578058 0.132769
0.727733 0.589502 0.152697
0.762905 0.601663 0.169619
0.803143 0.614481 0.194537
0.847745 0.629572 0.219883
0.9019 0.648814 0.255207
0.967224 0.681392 0.326848
0 0.491478 0.125338
0 0.494591 0.126528
0 0.498054 0.12784
0 0.501198 0.12958
0 0.504356 0.132494
0.0115053 0.506691 0.138399
0.0679484 0.508965 0.143755
0.131243 0.510887 0.149615
0.177478 0.51313 0.154757
0.218097 0.515236 0.159289
0.255131 0.51809 0.163226
0.291249 0.52076 0.166064
0.321721 0.524804 0.164904
0.345296 0.530816 0.154681
0.369299 0.537087 0.14374
0.393606 0.543038 0.130983
0.417594 0.549981 0.11751
0.441382 0.55697 0.10164
0.46482 0.565118 0.0844587
0.486397 0.573617 0.0669108
0.511238 0.580835 0.0751354
0.547585 0.585061 0.092607
0.584848 0.588449 0.12163
0.617487 0.593286 0.136263
0.648966 0.599847 0.146288
0.680247 0.607691 0.158587
0.711177 0.617426 0.177646
0.743221 0.627787 0.195865
0.776867 0.639155 0.217243
0.813611 0.652338 0.244388
0.856825 0.66717 0.268559
0.907881 0.685359 0.302266
0.966705 0.717006 0.378561
0 0.52871 0.139483
0 0.531823 0.140658
0 0.535256 0.14197
0 0.538781 0.143374
0 0.541802 0.146929
0.00291447 0.544549 0.152483
0.0669718 0.546487 0.157977
0.13315 0.548852 0.163989
0.184955 0.550912 0.169528
0.22649 0.55346 0.174334
0.265553 0.55581 0.178485
0.303181 0.55903 0.181979
0.336782 0.562036 0.184024
0.361975 0.567681 0.175708
0.386099 0.573861 0.164996
0.410391 0.580453 0.153582
0.435004 0.58703 0.14049
0.459159 0.594003 0.126024
0.482139 0.601846 0.113634
0.504219 0.610636 0.100832
0.526055 0.619684 0.0829023
0.553033 0.62739 0.0988022
0.590219 0.632685 0.122225
0.624063 0.636927 0.152712
0.656031 0.642283 0.175036
0.689021 0.648875 0.196231
0.720653 0.657115 0.219516
0.753323 0.666514 0.239918
0.786572 0.677028 0.262943
0.822705 0.68893 0.291691
0.862547 0.702312 0.324498
0.909773 0.720104 0.359945
0.965545 0.749706 0.43003
0 0.567117 0.15407
0 0.570626 0.155413
0 0.574365 0.156832
0 0.577722 0.158389
0 0.580865 0.161456
0.000549325 0.583474 0.167498
0.0702983 0.585702 0.173205
0.141207 0.588083 0.179385
0.192889 0.590295 0.184909
0.237415 0.592538 0.189944
0.277943 0.595178 0.19443
0.316762 0.597787 0.198077
0.351202 0.601053 0.200626
0.380362 0.605615 0.196429
0.404028 0.612055 0.186465
0.428519 0.618296 0.175189
0.453681 0.624796 0.162417
0.478019 0.631815 0.149081
0.502174 0.639231 0.134936
0.523079 0.648295 0.129549
0.543709 0.657801 0.12134
0.564233 0.668986 0.114397
0.589487 0.678782 0.135409
0.624842 0.683436 0.163684
0.659663 0.68809 0.188556
0.693156 0.693507 0.221881
0.725628 0.700496 0.252323
0.758709 0.708324 0.278019
0.792248 0.717281 0.306157
0.827237 0.728191 0.3364
0.865766 0.740154 0.371878
0.910277 0.755001 0.414816
0.964767 0.781918 0.476112
0 0.60911 0.170031
0 0.612741 0.171405
0 0.61619 0.172717
0 0.619806 0.17438
0 0.622919 0.178241
0 0.625666 0.183871
0.0809491 0.627527 0.189853
0.152224 0.629908 0.196033
0.20647 0.632136 0.20174
0.251743 0.634516 0.206897
0.293309 0.636591 0.211383
0.334127 0.639597 0.215427
0.369757 0.642573 0.218219
0.40061 0.646342 0.218311
0.424964 0.652552 0.207843
0.449454 0.658854 0.196902
0.473899 0.6654 0.186145
0.498024 0.672435 0.175494
0.522133 0.679545 0.163012
0.542763 0.688624 0.160616
0.562325 0.698207 0.158618
0.582483 0.709148 0.15671
0.605371 0.720409 0.161685
0.631205 0.730617 0.171344
0.664576 0.735851 0.203891
0.698482 0.741833 0.229648
0.730434 0.747784 0.267933
0.762615 0.754818 0.302586
0.795727 0.76231 0.336736
0.831113 0.771237 0.370779
0.868498 0.781765 0.405402
0.911818 0.795056 0.446403
0.964294 0.817609 0.506142
0 0.653773 0.186999
0 0.657008 0.18822
0 0.660868 0.1897
0 0.664256 0.191699
0 0.667231 0.195087
0.0127871 0.669566 0.201831
0.0965896 0.671855 0.207767
0.169848 0.673655 0.213962
0.225574 0.675883 0.219806
0.270985 0.677852 0.224826
0.313008 0.680537 0.229587
0.353124 0.683223 0.233631
0.390036 0.686015 0.236576
0.423316 0.68893 0.238361
0.448325 0.694972 0.229252
0.472755 0.700801 0.218097
0.496147 0.707683 0.210361
0.519966 0.714412 0.201389
0.544503 0.721584 0.188479
0.56408 0.730205 0.190051
0.58204 0.74023 0.195758
0.602167 0.750805 0.20148
