subtle niceties LUT V2 beta 10 (SSH-TS reimagined).cube
TITLE "Generated by Resolve"
LUT_3D_SIZE 5
0.0129091 0.0120699 0.018555
0.130434 0.0162356 0.0115663
0.267872 0.0255131 0.0101625
0.4822 0.0625925 0.0318456
0.998276 0.282063 0.231418
0.0558175 0.130388 0.0312047
0.160113 0.149096 0.0137636
0.328573 0.148135 0
0.551278 0.167895 0
1 0.402075 0.298726
0.119738 0.284733 0.0490425
0.206821 0.310475 0.0225986
0.367773 0.32932 0.00434882
0.584863 0.348821 0
1 0.53901 0.209506
0.1832 0.499001 0.119173
0.315953 0.520073 0.0825666
0.436988 0.559167 0.0296178
0.64625 0.588205 0.0330358
1 0.657176 0
0.432593 0.889479 0.249851
0.569146 0.900542 0.239582
0.645914 0.934188 0.314076
0.762448 0.972091 0.40264
0.990829 1 0.556298
0.0145113 0.0380407 0.145037
0.154376 0.0446174 0.134661
0.267964 0.076463 0.141176
0.482643 0.078645 0.157107
0.984024 0.27361 0.30631
0.0463417 0.162905 0.137606
0.1664 0.173983 0.162829
0.343465 0.177951 0.157229
0.569726 0.189303 0.165515
1 0.417624 0.370764
0.104234 0.307073 0.197024
0.218891 0.343542 0.157717
0.374655 0.374563 0.136812
0.630747 0.376181 0.144594
1 0.577981 0.378973
0.20441 0.521172 0.208011
0.333639 0.547997 0.219074
0.43061 0.597681 0.229664
0.650767 0.636759 0.197131
1 0.702205 0.29897
0.46923 0.908003 0.307759
0.583352 0.924331 0.371374
0.654597 0.963592 0.428138
0.804059 1 0.426139
0.991348 1 0.748486
0.0199893 0.0766155 0.307515
0.140169 0.0994125 0.306325
0.327932 0.0943923 0.302007
0.510674 0.0982071 0.331624
0.936172 0.324804 0.444175
0.0340734 0.194827 0.3093
0.160769 0.204211 0.327703
0.357305 0.204562 0.344274
0.560647 0.237705 0.343664
1 0.403555 0.497078
0.121691 0.356771 0.304509
0.213931 0.382406 0.324331
0.383032 0.398428 0.381064
0.615412 0.435004 0.421546
1 0.632914 0.594934
0.0447547 0.578241 0.329397
0.28043 0.592355 0.402792
0.441855 0.644678 0.374655
0.67863 0.678996 0.389319
1 0.798398 0.58912
0.41593 0.938155 0.508019
0.562829 0.959487 0.523262
0.68838 0.997955 0.527245
0.831891 1 0.620401
0.919463 1 1
0.0468605 0.135775 0.533303
0.181659 0.173495 0.516274
0.340581 0.208576 0.497688
0.576013 0.195941 0.541634
0.999313 0.36556 0.655207
0.039765 0.252415 0.530449
0.166491 0.244724 0.55552
0.351888 0.294804 0.52842
0.60444 0.297841 0.559075
1 0.456855 0.625025
0.0939345 0.404395 0.530755
0.195743 0.409506 0.572091
0.411551 0.433783 0.575998
0.669871 0.435798 0.609415
1 0.601999 0.748959
0.213336 0.61677 0.535882
0.299138 0.643015 0.573144
0.468116 0.683757 0.581018
0.676936 0.704433 0.67599
1 0.820249 0.80885
0.370672 0.972045 0.687282
0.519951 0.997757 0.692607
0.67303 1 0.712978
0.892485 1 0.839109
0.919463 1 1
0.23505 0.371664 1
0.341405 0.373816 1
0.470024 0.402625 1
0.647059 0.464988 0.965805
1 0.513558 1
0.154772 0.416464 1
0.238331 0.403922 1
0.402655 0.427832 1
0.588266 0.46067 1
1 0.578286 1
0.230411 0.551369 1
0.109117 0.526986 1
0.376913 0.510979 1
0.620813 0.591897 0.993378
1 0.660685 1
0 0.711101 1
0.147326 0.712886 1
0.375189 0.723812 1
0.699779 0.756619 1
1 0.801694 0.98056
0.495888 1 0.910689
0.58471 1 0.922164
0.755474 1 0.927291
0.91931 1 1
0.919463 1 1
