subtle niceties LUT V2 beta 13 (SSH-TS reimagined).cube
TITLE "Generated by Resolve"
LUT_3D_SIZE 9
0.00874342 0.00794995 0.0108339
0.0548562 0.0120089 0.0133516
0.111513 0.0193484 0.0158541
0.189181 0.0204471 0.00926223
0.265812 0.0335241 0.0186007
0.352438 0.0511177 0.0330816
0.473198 0.0848707 0.0565499
0.645731 0.136675 0.097322
0.955825 0.2972 0.255116
0.0313268 0.064271 0.0170443
0.0796674 0.0784924 0.016968
0.149233 0.076463 0.0192416
0.22536 0.0697032 0.00688182
0.305333 0.0624247 0
0.386633 0.0848096 0.00637827
0.506569 0.116869 0.0280308
0.676631 0.183108 0.101137
0.990051 0.358114 0.297963
0.0608072 0.132677 0.0311589
0.10753 0.141665 0.026276
0.15552 0.153414 0.020264
0.240085 0.150729 0
0.316258 0.152667 0
0.411582 0.161913 0
0.546319 0.173953 0
0.709606 0.237934 0.0844892
1 0.417227 0.328695
0.0930037 0.204486 0.0385138
0.140902 0.213062 0.0354314
0.185397 0.225895 0.0298466
0.251423 0.240742 0
0.343038 0.238102 0
0.424399 0.247547 0
0.544167 0.271382 0
0.731151 0.317372 0.0113832
1 0.46096 0.284825
0.123629 0.285512 0.0501564
0.174517 0.294224 0.0419471
0.222904 0.307408 0.0310674
0.28191 0.322957 0.0238956
0.362448 0.335256 0
0.46041 0.339483 0
0.560967 0.353262 0
0.711086 0.391775 0
1 0.527581 0.229328
0.151598 0.380484 0.0726329
0.213764 0.388708 0.0625467
0.265339 0.401938 0.050309
0.323751 0.419242 0.0248569
0.394202 0.435508 0.0230411
0.487877 0.449424 0
0.605158 0.457221 0
0.728893 0.477791 0
1 0.575509 0.114641
0.187335 0.497581 0.117891
0.258015 0.505852 0.105028
0.321828 0.517647 0.0861524
0.380667 0.535424 0.0510567
0.449653 0.553429 0.0470588
0.524147 0.573526 0.0623026
0.629053 0.597192 0
0.773205 0.609888 0
1 0.650095 0.0860456
0.240665 0.640879 0.172335
0.320775 0.648585 0.159716
0.396887 0.65864 0.134859
0.460273 0.675105 0.116426
0.528283 0.69276 0.114839
0.601709 0.712261 0.157061
0.668879 0.741421 0.211398
0.781918 0.770855 0.158953
0.987411 0.793698 0.103502
0.410727 0.87216 0.245792
0.485344 0.876814 0.23154
0.556756 0.882918 0.230106
0.623102 0.892393 0.262898
0.686015 0.903929 0.307485
0.75404 0.919539 0.346822
0.814054 0.949523 0.376379
0.89044 0.986465 0.41352
1 1 0.49836
0.0115969 0.0188754 0.0497749
0.0771344 0.0208591 0.0698253
0.133684 0.0292363 0.0746319
0.198184 0.0433661 0.0698558
0.284871 0.0301213 0.0565347
0.371344 0.0391241 0.0634165
0.487449 0.0608072 0.0830854
0.646906 0.125383 0.135622
0.949447 0.299794 0.286213
0.0226596 0.0793469 0.0836347
0.0868849 0.0880598 0.084596
0.163333 0.0876173 0.0771038
0.242115 0.0781567 0.0664378
0.306218 0.0885939 0.0698405
0.392004 0.101701 0.0707256
0.513024 0.1299 0.0853132
0.67512 0.201862 0.161547
0.988815 0.367803 0.330159
0.0369421 0.151995 0.0758068
0.100893 0.160967 0.0692302
0.168658 0.169116 0.0597391
0.244846 0.168139 0.0779126
0.338216 0.161135 0.0638132
0.434989 0.159304 0.0609445
0.553826 0.183902 0.0695659
0.708156 0.257115 0.171633
1 0.428229 0.354681
0.0826886 0.219608 0.0885634
0.138079 0.230503 0.0801099
0.193027 0.243839 0.0683452
0.258579 0.255451 0.0731212
0.345388 0.258137 0.0634775
0.455741 0.251148 0.0675212
0.577752 0.274846 0.0661326
0.748592 0.326375 0.138445
1 0.474235 0.314778
0.123293 0.298161 0.0998093
0.180743 0.307652 0.0987259
0.238056 0.319539 0.0978408
0.293767 0.338201 0.0838941
0.359472 0.35462 0.0856184
0.468956 0.363302 0
0.58938 0.363302 0.0531014
0.752056 0.403372 0.104219
1 0.558633 0.314549
0.170748 0.390066 0.106447
0.227298 0.399954 0.113832
0.283879 0.412375 0.11899
0.347707 0.428565 0.116533
0.39971 0.451972 0.113451
0.481529 0.473381 0.0671702
0.611872 0.484581 0
0.755627 0.492393 0.0576791
1 0.600397 0.277913
0.215641 0.506279 0.132067
0.283406 0.51487 0.129534
0.344518 0.527214 0.141192
0.407355 0.543984 0.148196
0.470024 0.564157 0.156024
0.528939 0.590967 0.162356
0.627466 0.617655 0.116075
0.77612 0.638392 0
1 0.668025 0.24123
0.272526 0.649332 0.17435
0.347707 0.657481 0.166842
0.418402 0.668482 0.176959
0.486061 0.684276 0.19324
0.553506 0.702251 0.214725
0.61912 0.726085 0.230289
0.689967 0.758282 0.23508
0.789212 0.782803 0.298711
0.979812 0.810437 0.36405
0.432609 0.880583 0.248219
0.506127 0.884978 0.26006
0.57525 0.892103 0.285908
0.633448 0.904356 0.325917
0.697551 0.917266 0.362097
0.760235 0.938354 0.38912
0.821653 0.971817 0.414969
0.91603 1 0.45478
1 1 0.549538
0.0242771 0.0379187 0.114046
0.0891585 0.0405127 0.132418
0.156466 0.0384985 0.144594
0.220096 0.0417792 0.146731
0.276097 0.0677195 0.14435
0.362219 0.0745708 0.150393
0.480323 0.0838331 0.164721
0.643259 0.122957 0.194644
0.933516 0.30428 0.334737
0.0324712 0.0928817 0.144808
0.0880293 0.0988327 0.153506
0.169512 0.0952316 0.159152
0.243839 0.0922866 0.159655
0.313008 0.105577 0.152758
0.395804 0.127871 0.155932
0.519585 0.150515 0.170184
0.674083 0.220783 0.228138
0.983902 0.375692 0.364858
0.0316625 0.158633 0.16527
0.0865644 0.167987 0.167498
0.173587 0.173877 0.165347
0.266987 0.171618 0.163729
0.349233 0.174868 0.16022
0.448814 0.17586 0.153811
0.555657 0.210086 0.182086
0.711376 0.277913 0.242466
1 0.438392 0.386358
0.052491 0.234638 0.168078
0.0997482 0.252384 0.15227
0.184375 0.262013 0.154864
0.271946 0.27277 0.142733
0.360433 0.273213 0.167559
0.46714 0.280064 0.166827
0.602731 0.290745 0.165911
0.774029 0.330892 0.208209
1 0.49308 0.373083
0.0949264 0.316365 0.167742
0.163302 0.328237 0.162936
0.224033 0.344869 0.151415
0.296681 0.36173 0.13875
0.375723 0.374151 0.146471
0.469841 0.37847 0.181765
0.60145 0.394491 0.187793
0.776959 0.436057 0.230289
1 0.581857 0.37174
0.1514 0.407355 0.179965
0.215564 0.418372 0.184268
0.278141 0.433371 0.183352
0.344045 0.452613 0.173831
0.413062 0.472953 0.165042
0.495216 0.489204 0.185275
0.607156 0.499733 0.210285
0.771054 0.521767 0.227878
1 0.660243 0.37557
0.212604 0.521187 0.195254
0.277058 0.532219 0.206424
0.341619 0.546242 0.213748
0.412268 0.563012 0.220127
0.480507 0.584115 0.215778
0.546548 0.611429 0.207263
0.63946 0.633005 0.243946
0.768582 0.648981 0.275563
1 0.72314 0.368231
0.288396 0.662104 0.217655
0.356344 0.671901 0.233539
0.42153 0.685527 0.249683
0.492393 0.701534 0.270756
0.564477 0.720134 0.282918
0.630945 0.746273 0.283711
0.703716 0.778744 0.286213
0.807599 0.801877 0.338735
0.993378 0.834607 0.448432
0.454124 0.890318 0.296208
0.512856 0.89778 0.326162
0.572732 0.908003 0.352193
0.638788 0.919615 0.385321
0.699535 0.937102 0.410986
0.758251 0.96408 0.428397
0.835111 0.99649 0.456428
0.945876 1 0.513298
1 1 0.677485
0.0485847 0.0674754 0.198322
0.0875563 0.0614328 0.22034
0.167315 0.0556649 0.224765
0.239002 0.0588998 0.224048
0.295995 0.0730602 0.232197
0.381491 0.0759289 0.23241
0.469139 0.135851 0.249592
0.62269 0.168185 0.281483
0.926345 0.287068 0.374075
0.0393835 0.122316 0.208453
0.0877394 0.117494 0.228305
0.175235 0.109545 0.237629
0.25919 0.102403 0.24358
0.328038 0.110063 0.245548
0.399145 0.140307 0.243259
0.502861 0.179828 0.253361
0.660502 0.227588 0.292851
0.960647 0.374472 0.416251
0.0492714 0.171481 0.234714
0.0989395 0.178317 0.242176
0.179019 0.187228 0.239796
0.268925 0.182208 0.256916
0.354986 0.180514 0.263935
0.448631 0.191989 0.263279
0.56318 0.224964 0.274601
0.725231 0.288457 0.320974
1 0.436225 0.439536
0.0312505 0.249027 0.255482
0.0940871 0.257282 0.265812
0.194614 0.266361 0.261921
0.27715 0.277424 0.266896
0.385763 0.275776 0.269886
0.477516 0.293126 0.270161
0.620356 0.300694 0.28542
0.777935 0.354803 0.328664
1 0.511574 0.472129
0.0571145 0.328389 0.275639
0.10425 0.347723 0.265614
0.184497 0.366964 0.251743
0.282872 0.379858 0.260029
0.384131 0.3897 0.26096
0.495216 0.393774 0.278309
0.631174 0.416693 0.301091
0.804303 0.457404 0.336843
1 0.593912 0.476829
0.105806 0.426886 0.271824
0.152102 0.446784 0.257572
0.246677 0.460014 0.260227
0.332128 0.479286 0.250278
0.41503 0.498604 0.243168
0.513481 0.513451 0.243458
0.632197 0.520684 0.29987
0.789853 0.561944 0.349752
1 0.698436 0.497215
0.176471 0.542077 0.283253
0.252354 0.554253 0.28983
0.32604 0.57026 0.288319
0.398291 0.591699 0.281697
0.467185 0.616739 0.265919
0.556497 0.637232 0.269047
0.659754 0.657252 0.291981
0.789609 0.670848 0.361578
1 0.767346 0.487572
0.265599 0.681697 0.306661
0.33695 0.693187 0.321187
0.408927 0.707805 0.330327
0.483848 0.726696 0.335775
0.554131 0.749081 0.336538
0.628214 0.775128 0.334081
0.716915 0.802472 0.343816
0.824125 0.825681 0.382452
1 0.863493 0.522728
0.442649 0.906493 0.380514
0.504616 0.914931 0.403159
0.568292 0.926253 0.421515
0.634272 0.941115 0.443
0.697505 0.962509 0.460502
0.75671 0.994522 0.467613
0.855741 1 0.513954
0.980163 1 0.590906
1 1 0.815641
0.0716564 0.0951553 0.287266
0.110796 0.094667 0.295872
0.157763 0.0942702 0.306065
0.256229 0.0744488 0.309209
0.332753 0.0801251 0.310643
0.391379 0.112032 0.326757
0.51104 0.0961929 0.332662
0.625177 0.199145 0.363806
0.910094 0.309041 0.444556
0.0679637 0.146075 0.286381
0.0970932 0.144106 0.304021
0.164233 0.14696 0.311452
0.270191 0.13022 0.318776
0.347845 0.130251 0.328634
0.417731 0.150439 0.339971
0.525338 0.168627 0.340093
0.647135 0.248631 0.36936
0.944595 0.377203 0.469169
0.0634623 0.197528 0.302525
0.0963302 0.20856 0.304677
0.175143 0.200183 0.331136
0.278676 0.187396 0.350134
0.368658 0.188373 0.355947
0.450294 0.204486 0.359136
0.554299 0.234318 0.363455
0.700984 0.291447 0.392416
1 0.436515 0.509255
0.0594644 0.263279 0.330846
0.111284 0.266819 0.348852
0.187442 0.279576 0.348913
0.290227 0.29102 0.342794
0.387869 0.284962 0.369665
0.491051 0.289418 0.376791
0.615641 0.305745 0.399542
0.778271 0.364981 0.441001
1 0.514214 0.558343
0.0322881 0.347494 0.356893
0.103868 0.356909 0.368124
0.177691 0.369039 0.381033
0.307683 0.381918 0.368612
0.39321 0.394873 0.381552
0.521645 0.396094 0.387533
0.645884 0.420569 0.39382
0.815335 0.462806 0.444312
1 0.60444 0.584985
0.0166171 0.439216 0.393072
0.14612 0.452766 0.387747
0.19115 0.479255 0.373587
0.290349 0.501823 0.363226
0.398718 0.515969 0.375174
0.515084 0.526345 0.387533
0.65745 0.533791 0.408835
0.823423 0.582818 0.45771
1 0.716915 0.600671
0.156756 0.558724 0.382193
0.171099 0.581369 0.377096
0.241718 0.604303 0.364111
0.36347 0.618814 0.372717
0.461448 0.639704 0.365606
0.555184 0.662593 0.361242
0.678172 0.679347 0.367453
0.816175 0.692607 0.438911
1 0.806256 0.603464
0.259754 0.695781 0.416693
0.304128 0.715892 0.407065
0.386801 0.731807 0.410742
0.466758 0.753491 0.405463
0.539406 0.778683 0.398322
0.621424 0.804074 0.397726
0.720394 0.82678 0.423682
0.842008 0.847684 0.454658
1 0.887663 0.595743
0.424384 0.923812 0.463264
0.492393 0.933104 0.478218
0.56083 0.945174 0.489601
0.630365 0.964004 0.50071
0.694362 0.990265 0.508858
0.766293 1 0.535592
0.890867 1 0.596597
1 1 0.713542
1 1 0.933471
0.0743267 0.117006 0.393149
0.128008 0.127672 0.389593
0.1738 0.132219 0.394781
0.250172 0.133501 0.396994
0.352331 0.108858 0.404532
0.443458 0.111696 0.413245
0.516899 0.161395 0.438834
0.679362 0.150057 0.459052
0.906981 0.358648 0.533547
0.112642 0.176059 0.378363
0.138643 0.175753 0.38967
0.181643 0.170535 0.406744
0.257847 0.170977 0.414435
0.364446 0.153353 0.422858
0.4533 0.166201 0.430854
0.532876 0.205478 0.45417
0.688685 0.217685 0.462409
0.93669 0.385733 0.541939
0.0903487 0.228809 0.387518
0.123873 0.231647 0.396918
0.168856 0.228367 0.421454
0.272099 0.238911 0.415702
0.377432 0.210681 0.448295
0.479942 0.214542 0.45333
0.575631 0.238773 0.468376
0.706691 0.285786 0.48304
0.989303 0.429313 0.570275
0.0928359 0.287282 0.412985
0.134722 0.296437 0.418463
0.188907 0.310933 0.419196
0.276478 0.304677 0.452903
0.39176 0.278752 0.494469
0.508034 0.29015 0.484154
0.603372 0.320317 0.493584
0.757046 0.356527 0.514107
1 0.504158 0.629816
0.065919 0.364767 0.442206
0.133593 0.370092 0.458213
0.193927 0.381231 0.471458
0.286549 0.397513 0.474128
0.409293 0.408545 0.467979
0.520851 0.406302 0.498329
0.659617 0.415839 0.503334
0.812787 0.45275 0.563531
1 0.605875 0.698375
0.0378119 0.460014 0.473671
0.109575 0.472465 0.484474
0.203037 0.483604 0.499794
0.278035 0.501671 0.515297
0.427726 0.516915 0.497948
0.528984 0.531304 0.514229
0.683177 0.538476 0.528008
0.846387 0.573922 0.546105
1 0.711299 0.687663
0.0153811 0.57351 0.51696
0.139147 0.587625 0.522332
0.247227 0.606714 0.518822
0.329137 0.639933 0.487602
0.41387 0.6636 0.493629
0.540871 0.677134 0.51284
0.672572 0.689632 0.539086
0.843473 0.700984 0.568139
1 0.815595 0.693889
0.216236 0.718746 0.507805
0.239429 0.737743 0.518425
0.298802 0.763317 0.502281
0.371923 0.790402 0.494301
0.506264 0.803326 0.511315
0.611353 0.822828 0.524834
0.712551 0.846311 0.546563
0.847471 0.863676 0.596185
1 0.899245 0.697414
0.392065 0.94342 0.548241
0.471351 0.952941 0.557397
0.535729 0.96849 0.562829
0.613855 0.988251 0.578027
0.694072 1 0.601297
0.792737 1 0.635691
0.916075 1 0.715938
1 1 0.829175
1 1 1
0.0773785 0.145571 0.524376
0.140108 0.16141 0.515984
0.199145 0.177813 0.5084
0.262348 0.19556 0.501808
0.34873 0.195132 0.503029
0.465614 0.154177 0.526711
0.585336 0.16527 0.547448
0.68481 0.242252 0.590112
0.980606 0.325643 0.656947
0.130953 0.203952 0.511711
0.192386 0.217609 0.499626
0.219913 0.213413 0.514611
0.261402 0.203494 0.538094
0.357366 0.207858 0.536202
0.476905 0.187793 0.549798
0.591394 0.216861 0.562707
0.693172 0.280247 0.601358
0.979751 0.369604 0.652369
0.151766 0.263874 0.501915
0.177966 0.266468 0.508888
0.205768 0.265675 0.526925
0.272175 0.265568 0.542184
0.367895 0.271504 0.543511
0.495552 0.25565 0.556069
0.610147 0.265354 0.581659
0.727642 0.308171 0.612055
0.98883 0.420325 0.667063
0.118761 0.326802 0.516655
0.151263 0.334936 0.520638
0.193683 0.339452 0.534264
0.268986 0.333867 0.565072
0.388373 0.333532 0.572869
0.507851 0.323552 0.593515
0.637537 0.326207 0.611063
0.760067 0.367407 0.632776
1 0.483009 0.697322
0.120775 0.390951 0.546715
0.176699 0.400183 0.550835
0.213214 0.41181 0.562707
0.301396 0.431022 0.557214
0.391058 0.424781 0.600122
0.525154 0.399252 0.646967
0.669688 0.416098 0.634379
0.792905 0.449348 0.658259
1 0.560662 0.746441
0.0623789 0.482994 0.578164
0.155581 0.489693 0.591073
0.221515 0.498924 0.609689
0.295567 0.51809 0.618463
0.398123 0.533867 0.62797
0.544121 0.549523 0.613519
0.68101 0.547875 0.653346
0.84654 0.573434 0.663432
1 0.687892 0.798215
0.0509041 0.596551 0.615503
0.119356 0.61149 0.625437
0.223896 0.623423 0.642435
0.316503 0.640024 0.65919
0.39617 0.661555 0.674861
0.57203 0.678248 0.651606
0.689799 0.695109 0.674861
0.857221 0.711971 0.700221
1 0.79234 0.771801
0.0263828 0.734218 0.666163
0.137499 0.748257 0.679911
0.300893 0.764538 0.675593
0.332815 0.799634 0.663005
0.472084 0.825116 0.638407
0.578836 0.842878 0.661128
0.727733 0.852522 0.692485
0.862867 0.871916 0.744915
1 0.914611 0.815061
0.316182 0.964172 0.660639
0.377035 0.982361 0.646906
0.445899 1 0.647471
0.533974 1 0.663493
0.659281 1 0.705196
0.785824 1 0.761746
0.983597 1 0.819623
1 1 0.937713
1 1 1
0.106355 0.198047 0.700511
0.165194 0.21091 0.688914
0.229282 0.229297 0.675029
0.299077 0.251637 0.659266
0.37113 0.283436 0.63653
0.465003 0.274571 0.646891
0.613443 0.221469 0.69131
0.775006 0.257694 0.731517
1 0.381781 0.812879
0.150622 0.245533 0.691783
0.199237 0.252262 0.683116
0.247395 0.260075 0.677516
0.30277 0.26688 0.676707
0.358892 0.268727 0.685924
0.470634 0.264637 0.687724
0.62237 0.245228 0.707408
0.775067 0.29778 0.73962
1 0.402441 0.813031
0.190799 0.307073 0.675227
0.239124 0.314153 0.665202
0.276356 0.31696 0.666468
0.31487 0.311589 0.683726
0.369024 0.302342 0.707973
0.481727 0.307195 0.706233
0.633997 0.297398 0.722194
0.783825 0.340917 0.752361
1 0.428061 0.816587
0.209323 0.376425 0.661082
0.22707 0.377249 0.666133
0.256352 0.379385 0.675898
0.290867 0.378195 0.700282
0.377066 0.385031 0.708507
0.497169 0.393545 0.705501
0.649805 0.369253 0.739635
0.804334 0.390417 0.767575
1 0.471809 0.82649
0.158907 0.440375 0.680354
0.192782 0.448386 0.681422
0.231495 0.458686 0.686427
0.290654 0.465126 0.702205
0.387259 0.455451 0.73756
0.519448 0.440558 0.76585
0.665217 0.452628 0.767987
0.819944 0.461234 0.796765
1 0.547906 0.835843
0.146242 0.514229 0.711803
0.213214 0.522576 0.714855
0.269078 0.534081 0.721218
0.315312 0.549813 0.734707
0.422812 0.569024 0.728496
0.522515 0.564416 0.774731
0.68188 0.538338 0.828122
0.835203 0.579797 0.804746
1 0.642634 0.857435
0.0542916 0.625727 0.743526
0.182254 0.633097 0.753429
0.257527 0.64097 0.773022
0.332876 0.654902 0.79089
0.401877 0.682414 0.791501
0.537224 0.694423 0.804273
0.703502 0.716014 0.781735
0.853758 0.720409 0.828473
1 0.796002 0.883055
0.0861524 0.758297 0.782132
0.160525 0.773114 0.791028
0.273426 0.784421 0.80621
0.378958 0.798566 0.823255
0.457389 0.818051 0.8383
0.649989 0.829572 0.816999
0.75903 0.85774 0.822904
0.880644 0.886137 0.863279
1 0.935393 0.903349
0.327794 0.964401 0.823102
0.416403 0.975799 0.824094
0.41355 1 0.812436
0.563745 1 0.797742
0.679728 1 0.821897
0.851789 1 0.863035
1 1 0.91162
1 1 1
1 1 1
0.261524 0.361837 1
0.293599 0.359564 1
0.340291 0.365179 1
0.400366 0.379019 1
0.466606 0.399481 0.985962
0.544335 0.432776 0.949935
0.643244 0.448066 0.930709
0.811154 0.38703 0.994339
1 0.453223 1
0.265858 0.383749 1
0.291127 0.377539 1
0.33283 0.378973 1
0.390112 0.3879 1
0.45478 0.401862 0.993011
0.525231 0.417212 0.976181
0.630335 0.43505 0.955825
0.812772 0.377508 1
1 0.476432 1
0.279576 0.423972 1
0.324285 0.422797 1
0.358206 0.419074 1
0.40267 0.419013 1
0.455283 0.420813 0.996109
0.51136 0.414237 1
0.611704 0.413184 1
0.810819 0.40116 1
1 0.507637 1
0.30573 0.482795 1
0.336263 0.47837 1
0.395453 0.484428 0.982193
0.431662 0.480537 0.977798
0.465751 0.471397 0.987259
0.517876 0.459998 1
0.620218 0.466392 1
0.817182 0.458946 1
1 0.544442 1
0.334813 0.551034 0.982361
0.346365 0.545403 0.979507
0.376654 0.543694 0.973236
0.403525 0.540978 0.976974
0.434852 0.536309 0.992248
0.515084 0.539055 0.999176
0.626154 0.553521 0.996704
0.830121 0.53492 1
1 0.582467 1
0.299962 0.622507 0.968063
0.291646 0.617487 0.975235
0.326543 0.618784 0.973129
0.369009 0.622385 0.976303
0.413703 0.626169 0.990478
0.497932 0.619196 1
0.662486 0.614481 1
0.841978 0.608316 1
1 0.654582 1
0.205798 0.691051 0.998779
0.259388 0.695964 0.993881
0.317784 0.70399 0.990173
0.377997 0.717189 0.989075
0.428412 0.736233 0.987869
0.560372 0.755505 0.966537
0.673426 0.73669 1
0.858671 0.719051 1
1 0.801968 1
0.13019 0.805737 1
0.244068 0.811139 1
0.33756 0.816938 1
0.415702 0.817685 1
0.481331 0.827024 1
0.609674 0.850355 1
0.742092 0.884245 1
0.896422 0.925551 0.977172
1 0.980255 0.975586
0.292119 0.983001 1
0.381079 0.987198 1
0.484123 0.995315 1
0.572412 1 1
0.67538 1 1
0.982467 1 0.979461
1 1 0.988113
1 1 1
1 1 1
