subtle niceties LUT V2 beta 4 (SSH-TS reimagined).cube
TITLE "Generated by Resolve"
LUT_3D_SIZE 5
0.00802625 0.00720226 0.00813306
0.124849 0.0177462 0.0143587
0.27042 0.0294957 0.0250095
0.464851 0.0714275 0.0596933
0.924498 0.191363 0.200885
0.0451209 0.133028 0.0271763
0.148547 0.14548 0.0124514
0.288228 0.151049 0.0117952
0.500038 0.172213 0.0638437
0.951736 0.289769 0.219074
0.0934005 0.290227 0.0852827
0.188693 0.313756 0.0563058
0.35346 0.346593 0.00198367
0.569451 0.39089 0.00637827
0.955856 0.518654 0.22681
0.217105 0.541299 0.204364
0.303075 0.575723 0.188815
0.479606 0.622171 0.108415
0.688441 0.678187 0.169162
0.996902 0.773327 0.417716
0.574273 0.960891 0.356603
0.706004 0.971176 0.468009
0.817212 0.982345 0.578393
0.903807 0.992386 0.654688
0.998276 0.994171 0.655985
0.0555734 0.0378882 0.156588
0.160296 0.0399176 0.158938
0.29276 0.0372931 0.156329
0.493446 0.0629282 0.160449
0.947753 0.178531 0.265095
0.0681621 0.16643 0.148074
0.178393 0.173709 0.156847
0.328786 0.174716 0.155444
0.532265 0.19501 0.167575
0.979202 0.297581 0.283162
0.144381 0.308659 0.161486
0.249836 0.34107 0.182391
0.395819 0.384512 0.206287
0.610712 0.43151 0.234607
0.979889 0.547845 0.360555
0.232105 0.57023 0.220111
0.367514 0.609735 0.238834
0.537423 0.660258 0.296986
0.73518 0.71957 0.396094
1 0.808835 0.552636
0.627573 0.965972 0.469078
0.758389 0.977523 0.567132
0.866621 0.989258 0.662272
0.93991 0.998184 0.737072
0.995102 0.995666 0.791501
0.146731 0.0902876 0.333852
0.222278 0.0924392 0.331777
0.335744 0.0804303 0.33756
0.529793 0.0868544 0.347295
0.968032 0.192874 0.42179
0.134783 0.208453 0.325734
0.229816 0.215808 0.31783
0.358801 0.230137 0.346593
0.58056 0.240284 0.363653
0.987182 0.292088 0.426429
0.113268 0.367468 0.333013
0.293904 0.386938 0.358877
0.440238 0.431296 0.399619
0.663691 0.478279 0.44004
1 0.578836 0.523354
0.293034 0.603525 0.403494
0.463951 0.640711 0.453193
0.606302 0.699596 0.498756
0.778943 0.764126 0.584909
1 0.853941 0.697475
0.697459 0.969497 0.598337
0.818036 0.983307 0.670054
0.916899 0.99501 0.757519
0.989487 0.999466 0.880293
0.99089 0.998947 0.947219
0.296681 0.198642 0.596414
0.340322 0.190021 0.58854
0.429145 0.183474 0.589059
0.610178 0.179446 0.615412
0.985779 0.304173 0.720409
0.281209 0.277104 0.600687
0.340322 0.280018 0.590112
0.450675 0.295506 0.596704
0.63856 0.321202 0.632105
0.992477 0.408072 0.687694
0.23946 0.432227 0.60206
0.356863 0.454124 0.601984
0.510765 0.493675 0.612467
0.700587 0.550652 0.669627
1 0.637476 0.729076
0.257069 0.684306 0.627558
0.474998 0.712215 0.661677
0.669932 0.747189 0.702037
0.827054 0.813748 0.759701
1 0.914321 0.843244
0.78436 0.969512 0.747829
0.881575 0.987808 0.792325
0.974975 0.999619 0.876631
0.99089 0.998947 0.947219
0.99089 0.998947 0.947219
0.760128 0.624811 1
0.779355 0.562814 1
0.819089 0.521187 1
0.907423 0.494514 1
0.990051 0.51107 1
0.697795 0.624872 1
0.716609 0.561929 1
0.762036 0.530007 1
0.863554 0.519127 1
0.989273 0.594644 1
0.622492 0.666773 1
0.665003 0.631922 1
0.733471 0.632746 1
0.855146 0.666392 1
0.986633 0.784649 1
0.522499 0.816815 1
0.610132 0.819806 1
0.740673 0.842756 1
0.89131 0.884565 0.996445
0.98677 0.975296 0.955978
0.831205 0.992355 0.959777
0.910719 0.991897 0.964202
0.989731 0.999451 0.946563
0.99089 0.998947 0.947219
0.99089 0.998947 0.947219
