subtle niceties LUT V2 beta 9 (SSH-TS reimagined).cube
TITLE "Generated by Resolve"
LUT_3D_SIZE 9
0.0136721 0.012314 0.018677
0.0801709 0.0111238 0.0153506
0.136767 0.0117494 0.0100862
0.200565 0.0151064 0.0037232
0.271 0.025391 0.00926223
0.360052 0.0403601 0.0209812
0.487007 0.0615396 0.0311742
0.670161 0.0995651 0.0543679
1 0.225345 0.202457
0.0315404 0.0703288 0.0186313
0.0794995 0.0784314 0.0172274
0.150729 0.073518 0.0162661
0.223926 0.0712596 0
0.306355 0.0613413 0
0.396811 0.0711376 0
0.520607 0.100999 0.00715648
0.700954 0.159365 0.0799878
1 0.298772 0.264363
0.0568856 0.131945 0.0318608
0.088014 0.14551 0.0280461
0.160739 0.150729 0.0214237
0.242115 0.151949 0
0.320378 0.165438 0
0.420798 0.17026 0
0.553277 0.18349 0
0.727199 0.239002 0.10898
1 0.413077 0.351888
0.0840467 0.205219 0.0453651
0.123445 0.218265 0.03299
0.176013 0.231785 0.0246738
0.263218 0.237629 0.00952163
0.347204 0.242588 0
0.434577 0.267765 0
0.559686 0.29276 0
0.741924 0.34107 0
1 0.523491 0.388327
0.100786 0.289555 0.0703136
0.168795 0.299626 0.0395514
0.197971 0.318975 0.0328374
0.282048 0.33109 0.0198825
0.375509 0.337789 0.00889601
0.470039 0.345617 0
0.578195 0.378607 0
0.736614 0.428138 0
1 0.570306 0.318288
0.108659 0.388495 0.107469
0.219883 0.39501 0.0717937
0.251804 0.414527 0.0470893
0.297444 0.437095 0.0438239
0.403037 0.447959 0.018677
0.505379 0.458427 0.0177768
0.619593 0.470268 0
0.755199 0.51046 0
1 0.623621 0.1823
0.106203 0.511589 0.166232
0.258808 0.516457 0.131746
0.322271 0.532753 0.0864424
0.360784 0.55729 0.0777447
0.433661 0.577859 0.0831159
0.542947 0.594018 0.0664073
0.661768 0.610864 0.0655375
0.799496 0.627283 0.050721
1 0.6878 0.232471
0.155123 0.661921 0.231647
0.328847 0.66569 0.193423
0.416068 0.679133 0.145769
0.454536 0.703288 0.142596
0.497108 0.730297 0.17554
0.594064 0.74931 0.208835
0.703929 0.771817 0.218647
0.811872 0.792172 0.319066
0.999634 0.822477 0.43122
0.472084 0.900954 0.303441
0.572824 0.903853 0.278325
0.59707 0.919966 0.313664
0.624949 0.938659 0.355535
0.659022 0.958206 0.401633
0.720958 0.979339 0.413016
0.81178 0.999893 0.418357
0.885451 1 0.526375
0.977249 1 0.704662
0.0165103 0.0218814 0.0819715
0.0820783 0.0272374 0.0758526
0.140856 0.0290074 0.0744335
0.206088 0.0344396 0.0615396
0.289647 0.0222782 0.0484779
0.380865 0.0226596 0.0477455
0.504311 0.0235599 0.051667
0.674861 0.0679332 0.0968185
1 0.197864 0.218204
0.0348669 0.083299 0.073579
0.0796521 0.0851759 0.0933547
0.157275 0.0893873 0.0749676
0.236057 0.0806287 0.0754864
0.320638 0.0653086 0.059266
0.410727 0.0694285 0.0489662
0.533089 0.0985885 0.0594797
0.711849 0.152621 0.124361
1 0.287953 0.282902
0.0584573 0.145769 0.0772564
0.0934768 0.161517 0.0698711
0.168475 0.168383 0.064622
0.250965 0.166171 0.0753643
0.332845 0.168399 0.0830701
0.437186 0.163989 0.0827497
0.56286 0.184649 0.0955215
0.736492 0.24065 0.176837
1 0.428779 0.38468
0.0461738 0.223194 0.100923
0.132494 0.232868 0.0821851
0.184207 0.24947 0.0657969
0.261692 0.257404 0.0825818
0.355871 0.257038 0.0786908
0.459113 0.261158 0.0706645
0.584405 0.289479 0.070634
0.759091 0.342962 0.188815
1 0.557336 0.445182
0.0765393 0.304799 0.119844
0.176852 0.312245 0.105211
0.210391 0.33193 0.104967
0.285573 0.348074 0.093843
0.373312 0.358099 0.104738
0.483436 0.361288 0.0631571
0.601801 0.380423 0.0217288
0.766659 0.428122 0.105776
1 0.62565 0.423575
0.122713 0.399344 0.142077
0.228916 0.40676 0.128115
0.266789 0.426749 0.124086
0.305898 0.451667 0.126635
0.405707 0.466377 0.112551
0.504982 0.479042 0.127016
0.634256 0.487129 0.0752422
0.777783 0.514885 0.0861524
1 0.661616 0.361807
0.16405 0.51931 0.177508
0.283711 0.526131 0.165698
0.341344 0.544152 0.152407
0.37612 0.570352 0.162493
0.440284 0.594263 0.173678
0.547097 0.612558 0.164614
0.657511 0.630564 0.212634
0.797879 0.646708 0.227375
1 0.722332 0.337301
0.22237 0.669352 0.236332
0.357061 0.675181 0.219425
0.437156 0.689921 0.203403
0.47042 0.716045 0.225971
0.510414 0.744442 0.253346
0.602121 0.765347 0.277913
0.708125 0.791012 0.279332
0.818204 0.812406 0.35874
1 0.842313 0.483024
0.482124 0.910033 0.346899
0.565484 0.916259 0.347402
0.600748 0.931517 0.372961
0.632303 0.950179 0.410803
0.678233 0.971328 0.42829
0.748333 0.993545 0.420996
0.825071 1 0.478813
0.90367 1 0.601984
0.967636 1 0.779522
0.0219272 0.0336919 0.148135
0.0949569 0.0466316 0.128344
0.158434 0.0417029 0.137499
0.220935 0.0400549 0.144076
0.270527 0.0780652 0.142611
0.363256 0.079942 0.148913
0.488884 0.0796826 0.15906
0.6636 0.100725 0.18233
1 0.160418 0.254719
0.0317388 0.0942855 0.143618
0.0968032 0.0990005 0.142077
0.17145 0.0966964 0.150698
0.249332 0.084535 0.160281
0.33283 0.0835737 0.13666
0.433021 0.0662242 0.120943
0.564202 0.0562753 0.113664
0.735775 0.113008 0.158801
1 0.267155 0.299931
0.0559396 0.159625 0.148867
0.108354 0.167559 0.154681
0.16466 0.172763 0.179736
0.260746 0.177951 0.166506
0.346441 0.176333 0.182528
0.449256 0.181827 0.175769
0.57789 0.193347 0.187762
0.748821 0.249348 0.240986
1 0.43537 0.420691
0.0554818 0.242466 0.140551
0.153811 0.242405 0.159319
0.183856 0.264622 0.160342
0.274693 0.274617 0.155047
0.362478 0.277775 0.181506
0.458991 0.294697 0.195605
0.580255 0.32488 0.23151
0.743923 0.388067 0.307317
1 0.577569 0.501518
0.0651865 0.317372 0.198901
0.174319 0.327123 0.187442
0.232868 0.347738 0.165484
0.293645 0.371725 0.139895
0.382345 0.383688 0.145953
0.485542 0.384024 0.199451
0.616037 0.406561 0.203525
0.774365 0.468452 0.288746
1 0.675151 0.519875
0.0782025 0.414038 0.230289
0.188373 0.428626 0.209415
0.274357 0.444419 0.194278
0.327825 0.470649 0.175051
0.411399 0.490349 0.169299
0.509285 0.502129 0.207736
0.629633 0.510399 0.249531
0.793439 0.544579 0.255711
1 0.72047 0.474647
0.0785229 0.540902 0.240085
0.249119 0.546532 0.246021
0.344274 0.561364 0.23447
0.388128 0.587488 0.239567
0.452247 0.613931 0.238376
0.552102 0.636286 0.226215
0.662272 0.653819 0.28336
0.794049 0.668589 0.357671
1 0.762936 0.425559
0.200412 0.686061 0.288655
0.337469 0.693294 0.296971
0.438804 0.707057 0.287648
0.478538 0.732815 0.30544
0.527199 0.761547 0.316899
0.615579 0.78648 0.316899
0.713771 0.816068 0.310277
0.830549 0.838071 0.367681
1 0.864744 0.530755
0.458488 0.925521 0.41622
0.554223 0.930968 0.416632
0.604929 0.945052 0.431769
0.647334 0.964813 0.45034
0.703075 0.987091 0.448066
0.76875 1 0.462882
0.839277 1 0.56434
0.92282 1 0.706142
0.961746 1 0.884337
0.0272984 0.0514687 0.223667
0.0970626 0.0531624 0.223682
0.168383 0.0700847 0.207385
0.243839 0.0604257 0.215244
0.302464 0.0699474 0.226505
0.380896 0.0860304 0.232258
0.462501 0.159838 0.253498
0.634241 0.177111 0.280949
0.996841 0.228367 0.345418
0.0484016 0.0980545 0.231189
0.0874495 0.111955 0.232303
0.175418 0.129625 0.209216
0.247456 0.12018 0.236957
0.330465 0.108461 0.248417
0.405615 0.152789 0.222049
0.523415 0.166659 0.241993
0.707362 0.175219 0.263188
1 0.217212 0.338018
0.062211 0.17789 0.218235
0.0970321 0.18439 0.232914
0.176944 0.186145 0.247074
0.276783 0.185901 0.248829
0.369146 0.177935 0.258152
0.479057 0.175448 0.240772
0.61088 0.16907 0.260014
0.78938 0.21265 0.302724
1 0.395834 0.4542
0.0846876 0.254414 0.229572
0.14078 0.261036 0.242924
0.198291 0.270893 0.259174
0.267521 0.278737 0.290074
0.380789 0.286778 0.276799
0.478202 0.301076 0.289693
0.618967 0.316808 0.316655
0.783749 0.37641 0.370398
1 0.557382 0.547951
0.0499123 0.348806 0.222278
0.205921 0.344152 0.243854
0.232868 0.366491 0.24831
0.295354 0.384039 0.269886
0.39086 0.397696 0.272557
0.501503 0.402899 0.30045
0.630671 0.431113 0.350393
0.780591 0.497612 0.420462
1 0.676204 0.626139
0.0192264 0.44715 0.248478
0.179492 0.449516 0.279789
0.335393 0.441291 0.314733
0.343038 0.487526 0.272465
0.417762 0.513649 0.255604
0.526101 0.526223 0.270878
0.650889 0.534874 0.327306
0.808072 0.583001 0.392142
1 0.748226 0.610849
0.115572 0.542138 0.381292
0.193256 0.567636 0.344381
0.329427 0.583474 0.320287
0.408423 0.608621 0.297993
0.474754 0.639536 0.266789
0.558297 0.664469 0.279545
0.677241 0.682551 0.312963
0.820188 0.6925 0.407202
1 0.798199 0.571313
0.151247 0.70074 0.402319
0.258503 0.720897 0.376379
0.416388 0.729885 0.372351
0.490333 0.754055 0.364965
0.554971 0.783764 0.346609
0.636545 0.812329 0.333974
0.721767 0.839094 0.379629
0.846952 0.854856 0.451225
1 0.884627 0.606928
0.420218 0.944289 0.483543
0.535317 0.948608 0.486961
0.609873 0.961303 0.488319
0.665095 0.981613 0.490517
0.725856 1 0.504295
0.777157 1 0.559121
0.866178 1 0.666987
0.941115 1 0.812146
0.954131 1 0.982116
0.0300908 0.0676432 0.312123
0.107271 0.0673075 0.313008
0.179461 0.0877699 0.300221
0.251499 0.102129 0.293385
0.33344 0.0919814 0.305043
0.401328 0.110887 0.321111
0.515312 0.104585 0.335561
0.621439 0.231769 0.37055
0.964538 0.308461 0.442817
0.0728618 0.132403 0.298482
0.0952926 0.117922 0.327504
0.183169 0.149294 0.300496
0.266056 0.152697 0.301167
0.349447 0.144045 0.319326
0.425971 0.155566 0.334493
0.531548 0.1841 0.332708
0.659327 0.265782 0.363195
1 0.312276 0.438727
0.0719005 0.191897 0.31017
0.0994583 0.19762 0.322652
0.164172 0.207462 0.330404
0.286076 0.221225 0.303487
0.362417 0.209491 0.348424
0.461051 0.207752 0.359213
0.571176 0.234333 0.364965
0.746853 0.269505 0.371664
1 0.343908 0.498543
0.11397 0.278401 0.291386
0.139864 0.276478 0.329519
0.194888 0.285847 0.345159
0.27393 0.288899 0.37438
0.406027 0.28986 0.362692
0.516014 0.286397 0.375341
0.658808 0.300801 0.359792
0.85211 0.329671 0.384268
1 0.518456 0.56994
0.122148 0.358297 0.322377
0.173587 0.364584 0.344549
0.242237 0.381415 0.340795
0.31078 0.394385 0.364843
0.384817 0.399863 0.416007
0.520653 0.413809 0.397955
0.643046 0.447013 0.405112
0.82005 0.479545 0.495293
1 0.649241 0.659892
0.071458 0.466499 0.32166
0.132509 0.482109 0.329747
0.326848 0.473075 0.359884
0.333425 0.508568 0.364996
0.421714 0.524926 0.3906
0.526986 0.541665 0.402838
0.669718 0.550652 0.437186
0.825269 0.601343 0.517723
1 0.740429 0.723507
0.010956 0.594644 0.328359
0.219333 0.594675 0.37528
0.350668 0.598688 0.40618
0.469551 0.60322 0.437766
0.463478 0.659083 0.395438
0.567285 0.682948 0.393088
0.696544 0.697978 0.421881
0.834669 0.712886 0.49839
1 0.820462 0.68127
0.155962 0.71162 0.504356
0.271702 0.731945 0.483101
0.40354 0.748974 0.46685
0.536446 0.759289 0.475502
0.575494 0.797375 0.452522
0.634012 0.831586 0.447074
0.736706 0.855619 0.473259
0.859037 0.86952 0.548241
1 0.90045 0.694041
0.351751 0.966674 0.545739
0.505486 0.968597 0.552071
0.637446 0.969772 0.565744
0.705791 0.984695 0.580728
0.736095 1 0.595224
0.79678 1 0.657511
0.896757 1 0.766888
0.949554 1 0.945907
0.945968 1 1
0.0389105 0.0937209 0.411017
0.122667 0.100511 0.407187
0.200031 0.119814 0.394797
0.270741 0.139895 0.382925
0.344091 0.142885 0.392523
0.440284 0.13521 0.410391
0.530053 0.163592 0.434623
0.689158 0.162264 0.465461
0.925963 0.407187 0.546593
0.0849775 0.158145 0.400351
0.104173 0.145251 0.422797
0.182879 0.148974 0.425452
0.274083 0.184085 0.397559
0.371893 0.183276 0.397116
0.467994 0.178088 0.414969
0.549401 0.211505 0.444709
0.699458 0.238224 0.461326
0.992798 0.400534 0.535546
0.129229 0.217777 0.395514
0.133669 0.200458 0.432135
0.180438 0.211887 0.440757
0.309377 0.249165 0.38732
0.364782 0.253254 0.422614
0.466835 0.24921 0.449073
0.583444 0.252689 0.470893
0.725032 0.29984 0.482368
1 0.413764 0.555535
0.0864424 0.296712 0.40679
0.133928 0.296498 0.427253
0.19939 0.300435 0.443687
0.292653 0.317403 0.439902
0.399481 0.330678 0.433494
0.507393 0.323827 0.465415
0.623972 0.332586 0.485435
0.794476 0.343359 0.531167
1 0.478782 0.595071
0.160632 0.38819 0.385092
0.173877 0.395453 0.412238
0.242679 0.393011 0.452216
0.305913 0.408911 0.468345
0.393912 0.408438 0.513909
0.549126 0.408377 0.507164
0.698482 0.416159 0.502525
0.863066 0.450523 0.554635
1 0.629221 0.646113
0.164324 0.477241 0.432517
0.217594 0.486183 0.452354
0.28864 0.496376 0.471977
0.367651 0.524865 0.449989
0.436042 0.535866 0.497551
0.52137 0.541787 0.561349
0.687617 0.566247 0.536217
0.840513 0.611688 0.570611
1 0.7355 0.726345
0.118395 0.608576 0.438499
0.191409 0.62385 0.447837
0.31313 0.634638 0.46482
0.409247 0.654612 0.466117
0.458625 0.676402 0.510048
0.572641 0.693523 0.53283
0.688807 0.712505 0.566674
0.849928 0.729564 0.604105
1 0.829358 0.723705
0.0402228 0.769253 0.438849
0.322377 0.761212 0.501274
0.427237 0.772839 0.51957
0.574502 0.767773 0.572564
0.595438 0.806485 0.571191
0.631861 0.844373 0.578424
0.746746 0.866758 0.594629
0.854215 0.883345 0.668055
1 0.926619 0.790295
0.4206 0.970321 0.635401
0.565164 0.970871 0.63949
0.730831 0.9523 0.685908
0.753994 0.982223 0.682795
0.742702 1 0.691768
0.832547 1 0.764477
0.933623 1 0.86392
0.946609 1 1
0.945968 1 1
0.0611124 0.129946 0.53608
0.142138 0.138384 0.530373
0.217594 0.145739 0.52546
0.308415 0.191806 0.489021
0.372183 0.198718 0.492195
0.455833 0.197452 0.51603
0.582986 0.19794 0.545678
0.704662 0.250095 0.585824
1 0.375082 0.659113
0.0848554 0.182483 0.535882
0.115816 0.174441 0.547707
0.197635 0.171923 0.552453
0.28658 0.178439 0.551049
0.377096 0.213474 0.528832
0.479835 0.233661 0.523964
0.610086 0.229511 0.550484
0.716762 0.292271 0.591302
1 0.420401 0.643122
0.150713 0.253193 0.518242
0.161822 0.243915 0.539696
0.188342 0.228443 0.569665
0.287114 0.256306 0.554528
0.389639 0.296284 0.516808
0.502434 0.290654 0.532738
0.616876 0.294408 0.571878
0.742 0.333822 0.607416
1 0.462348 0.657465
0.18262 0.322438 0.517891
0.194217 0.305898 0.555962
0.212238 0.307652 0.578439
0.282139 0.328435 0.581094
0.431937 0.371298 0.512444
0.509041 0.375174 0.552605
0.62417 0.37142 0.607523
0.777584 0.387106 0.636393
1 0.486152 0.723415
0.107485 0.410788 0.532753
0.164263 0.415625 0.546548
0.217319 0.415167 0.576913
0.327672 0.414481 0.598245
0.427482 0.443442 0.57969
0.535958 0.46186 0.580392
0.674861 0.457969 0.614755
0.821942 0.47039 0.6551
1 0.575662 0.729381
0.222248 0.513863 0.505333
0.234974 0.524224 0.527108
0.28661 0.529473 0.560739
0.361898 0.534463 0.598138
0.437232 0.548669 0.624094
0.53756 0.548394 0.677699
0.720317 0.551736 0.673701
0.873671 0.584848 0.696529
1 0.698634 0.790753
0.224399 0.621393 0.566262
0.282963 0.632181 0.583169
0.348913 0.640726 0.612802
0.431052 0.663325 0.611353
0.506096 0.678706 0.642145
0.587976 0.704479 0.655894
0.68452 0.711009 0.736339
0.865248 0.754238 0.688334
1 0.821973 0.804974
0.197848 0.779934 0.576028
0.272694 0.794965 0.587076
0.300267 0.819852 0.592798
0.578576 0.795178 0.647761
0.560739 0.843412 0.638468
0.6392 0.85008 0.716762
0.758892 0.875807 0.714778
0.853956 0.888136 0.801907
0.980514 0.950362 0.891554
0.488777 0.989975 0.660655
0.603784 0.986877 0.688502
0.722179 0.97937 0.727626
0.732357 1 0.738964
0.748974 1 0.79736
0.877119 1 0.847105
0.948699 1 0.975677
0.945968 1 1
0.945968 1 1
0.116732 0.188144 0.712795
0.185077 0.194003 0.703227
0.258 0.201953 0.692805
0.346349 0.231357 0.667414
0.4327 0.278202 0.623072
0.497017 0.27602 0.639933
0.604227 0.276326 0.681788
0.784115 0.293111 0.727626
1 0.389914 0.816297
0.0851301 0.2206 0.720974
0.145632 0.217502 0.719371
0.231373 0.22153 0.713024
0.318669 0.221851 0.710094
0.418311 0.267109 0.675471
0.500481 0.281239 0.673854
0.620172 0.304723 0.68751
0.802335 0.317113 0.72726
1 0.414847 0.820203
0.161822 0.293294 0.701396
0.172 0.281697 0.713375
0.208118 0.272206 0.726116
0.297826 0.266621 0.733425
0.399466 0.290883 0.720058
0.508873 0.337224 0.684199
0.653071 0.350256 0.685664
0.809613 0.370214 0.734737
1 0.446876 0.833768
0.233097 0.371847 0.67509
0.238117 0.362341 0.69337
0.249592 0.345525 0.7252
0.293919 0.336339 0.753429
0.415213 0.376562 0.722652
0.536797 0.424231 0.670665
0.644343 0.431769 0.710109
0.790997 0.44889 0.765179
1 0.496452 0.850965
0.242496 0.444862 0.676921
0.260273 0.435477 0.703334
0.272099 0.408042 0.758221
0.311833 0.443626 0.747967
0.395132 0.462913 0.75407
0.56968 0.512428 0.670192
0.680873 0.516472 0.712077
0.813901 0.517372 0.788739
1 0.577569 0.840604
0.143114 0.541695 0.694896
0.196002 0.550744 0.701946
0.262455 0.550225 0.729854
0.332708 0.557702 0.753384
0.464515 0.552331 0.779889
0.580011 0.590127 0.747189
0.700496 0.619257 0.741802
0.851789 0.622003 0.79057
1 0.667475 0.853758
0.287144 0.66656 0.657084
0.311513 0.677287 0.673655
0.337865 0.690166 0.697093
0.427222 0.686915 0.748058
0.50753 0.702632 0.765286
0.590249 0.715496 0.800855
0.687129 0.722728 0.859297
0.909422 0.748547 0.799542
1 0.806424 0.951049
0.320562 0.791592 0.723415
0.377249 0.800351 0.743496
0.447456 0.807095 0.772946
0.531319 0.826123 0.771908
0.618448 0.854597 0.744503
0.702983 0.856565 0.805203
0.779431 0.881239 0.83003
0.856855 0.892164 0.919966
0.934768 0.962539 1
0.437308 1 0.726635
0.72929 0.975525 0.780545
0.659373 1 0.74696
0.712169 1 0.803418
0.804608 1 0.883452
0.927398 1 0.929717
0.946441 1 1
0.945968 1 1
0.945968 1 1
0.27512 0.351171 1
0.330022 0.346578 1
0.392401 0.34522 1
0.461769 0.34699 1
0.548714 0.38146 1
0.641291 0.434623 0.959411
0.720913 0.45127 0.937163
0.827543 0.435264 0.999344
1 0.4813 1
0.207172 0.360037 1
0.275654 0.354162 1
0.347845 0.35198 1
0.426429 0.352834 1
0.510994 0.360937 1
0.616281 0.418753 0.98883
0.708339 0.445106 0.956741
0.823301 0.442252 1
1 0.509621 1
0.210086 0.405386 1
0.208728 0.380346 1
0.290211 0.374212 1
0.380865 0.371756 1
0.471336 0.367849 1
0.578759 0.39704 1
0.68867 0.429648 1
0.825956 0.470375 0.997238
1 0.550576 1
0.279561 0.477165 1
0.277607 0.456794 1
0.289036 0.43827 1
0.340185 0.424094 1
0.433173 0.413046 1
0.53669 0.4121 1
0.674922 0.501442 0.999207
0.844373 0.538201 0.967987
1 0.620188 1
0.351995 0.554086 1
0.350515 0.539055 1
0.357855 0.523445 1
0.374945 0.501762 1
0.418372 0.482826 1
0.546426 0.524605 1
0.704341 0.597421 0.961776
0.829755 0.619104 0.967102
1 0.665415 1
0.417792 0.633921 0.981933
0.414282 0.621592 0.996765
0.411475 0.60351 1
0.413733 0.575357 1
0.45066 0.583856 1
0.539559 0.616266 1
0.730922 0.672847 0.96939
0.865705 0.71252 0.927138
1 0.736629 0.982467
0.285588 0.719463 1
0.320592 0.717784 1
0.362325 0.714183 1
0.406714 0.717113 1
0.454582 0.739605 1
0.628687 0.712215 1
0.747814 0.773404 0.986114
0.8533 0.796582 0.986969
1 0.828931 1
0.400061 0.860288 0.919249
0.450584 0.865522 0.920913
0.453117 0.856809 0.976043
0.494713 0.851896 1
0.593301 0.857282 1
0.668635 0.883818 0.996414
0.774182 0.882383 1
0.862074 0.906828 1
0.93962 1 0.953964
0.571435 0.996811 0.962921
0.639628 1 0.959792
0.718395 1 0.926223
0.783551 1 0.992432
0.876417 1 0.971557
0.943999 1 1
0.945968 1 1
0.945968 1 1
0.945968 1 1
