subtle niceties LUT (SSH-TS reimagined).cube
TITLE "Generated by Resolve"
LUT_3D_SIZE 9
0.00605783 0.00605783 0.00605783
0.0733654 0.00357061 0.00605783
0.1561 0 0.00613413
0.244678 0 0.00892653
0.337499 0 0.0162509
0.437873 0 0.0333715
0.561791 0 0.0649424
0.721508 0.0143435 0.119295
1 0.104799 0.228
0.00454719 0.0698863 0.00672923
0.070573 0.0674449 0.00642405
0.151461 0.0626535 0.00738537
0.244419 0.0514687 0.00758373
0.343389 0.0358282 0.0111391
0.450568 0.022034 0.022858
0.572793 0.0274357 0.0554055
0.730556 0.0484627 0.112459
1 0.131243 0.224155
0 0.149035 0.00381476
0.0648356 0.146288 0.0040589
0.149096 0.142016 0.0043183
0.241947 0.134188 0.00613413
0.342718 0.120821 0.00842298
0.455833 0.100282 0.0152285
0.58526 0.0864118 0.0410468
0.741863 0.100725 0.10164
1 0.166049 0.218997
0 0.237385 0
0.0512856 0.234989 0
0.140734 0.23154 0.000823987
0.236896 0.225711 0.00283818
0.339406 0.216373 0.00447089
0.455161 0.201373 0.00920119
0.5953 0.178408 0.0226749
0.756924 0.173388 0.0805066
1 0.264317 0.22504
0 0.33312 0
0.0284428 0.331258 0
0.124743 0.328466 0
0.22739 0.323644 0
0.33228 0.316747 0.00244144
0.450736 0.305394 0.00239567
0.595102 0.286381 0.0116121
0.766995 0.270939 0.0604715
1 0.447776 0.286824
0 0.442451 0
0 0.441123 0
0.0940414 0.438941 0
0.2103 0.434897 0
0.322194 0.42826 0.00733959
0.439734 0.421134 0.0181277
0.589151 0.412329 0.0198978
0.78706 0.444709 0.104616
1 0.669627 0.450324
0 0.573602 0
0 0.572763 0
0.0642557 0.57145 0
0.19147 0.568856 0
0.316823 0.569955 0.0197604
0.463233 0.582879 0.0855116
0.63534 0.618799 0.174655
0.835523 0.687495 0.319478
1 0.801099 0.530587
0 0.747463 0.0392615
0 0.755459 0.0608072
0.161166 0.767697 0.102083
0.324239 0.78613 0.16846
0.47303 0.809842 0.256168
0.615091 0.838132 0.363149
0.750515 0.866102 0.472862
0.875532 0.879286 0.512993
1 0.934005 0.58468
0.675914 1 0.637491
0.687755 1 0.638514
0.704295 1 0.640162
0.730541 1 0.643244
0.768978 1 0.648493
0.82237 1 0.657221
0.900023 1 0.673396
1 0.996643 0.694743
1 1 0.803479
0.0198367 0.0152438 0.0950179
0.0850538 0.0150301 0.0869154
0.161364 0.0107729 0.0821088
0.249943 0.00199893 0.0769055
0.344671 0 0.0769665
0.447517 0 0.0874189
0.569955 0 0.112917
0.728191 0.0146639 0.154772
1 0.104356 0.250294
0.0158389 0.0824598 0.083299
0.080766 0.080766 0.0807813
0.148623 0.083238 0.0838636
0.243854 0.0709544 0.0778973
0.346517 0.0509194 0.0737926
0.456672 0.030808 0.0787671
0.581018 0.028275 0.104021
0.737301 0.0483558 0.148714
1 0.130587 0.246555
0.0119783 0.155734 0.0796368
0.0852674 0.150896 0.0863355
0.15314 0.151995 0.0844434
0.239673 0.148821 0.0820325
0.342657 0.135683 0.0744793
0.45948 0.111727 0.072755
0.593622 0.086656 0.0894026
0.748623 0.100389 0.139147
1 0.168231 0.242771
0 0.24332 0.0716716
0.0670024 0.239811 0.0754253
0.147723 0.23801 0.0735637
0.239643 0.233768 0.0696727
0.340764 0.225315 0.068864
0.458106 0.209323 0.0665904
0.600855 0.182605 0.0727245
0.763867 0.172686 0.120989
1 0.277745 0.260014
0 0.339467 0.0586862
0.0331884 0.337423 0.0588388
0.127794 0.33489 0.0580606
0.229328 0.330404 0.0566873
0.334981 0.323079 0.0565194
0.454124 0.310964 0.0554513
0.600366 0.289662 0.0587167
0.77731 0.270237 0.0983749
1 0.467552 0.337057
0 0.449439 0.0405737
0 0.447913 0.039704
0.0881514 0.445655 0.0390478
0.207767 0.441596 0.0390173
0.321782 0.435004 0.0431373
0.443915 0.425696 0.0488136
0.599069 0.417853 0.0547494
0.8009 0.455802 0.154421
1 0.682536 0.487236
0 0.58262 0.0305638
0 0.581537 0.0297551
0.0323186 0.579858 0.0294804
0.177203 0.57702 0.0319219
0.317281 0.580194 0.0561074
0.471824 0.595331 0.12929
0.648417 0.633143 0.223911
0.846204 0.700328 0.366278
1 0.802411 0.545541
0 0.75697 0.0802319
0 0.766979 0.110597
0.157336 0.781979 0.15761
0.330312 0.801801 0.224659
0.482795 0.824826 0.308995
0.624323 0.849851 0.406882
0.75491 0.871412 0.496864
0.87747 0.881178 0.52694
1 0.935363 0.596994
0.676188 1 0.650477
0.687953 1 0.651514
0.704906 1 0.65301
0.731289 1 0.655756
0.769879 1 0.660639
0.823896 1 0.669062
0.901518 1 0.684764
1 0.997253 0.706203
1 1 0.816068
0.04094 0.0243992 0.194797
0.104692 0.0253758 0.184848
0.173007 0.0237125 0.176867
0.25687 0.0178378 0.1682
0.35082 0.00732433 0.161196
0.457206 0 0.159045
0.579553 0 0.170703
0.736645 0.0173495 0.199832
1 0.104921 0.280415
0.0348211 0.0960708 0.174853
0.0988022 0.0973373 0.162585
0.162982 0.0979324 0.163714
0.24947 0.0901503 0.163867
0.350164 0.0711528 0.158831
0.462074 0.0472725 0.155306
0.590768 0.0327001 0.163607
0.745754 0.0508583 0.194446
1 0.130907 0.276921
0.0220951 0.168292 0.170153
0.0992599 0.163714 0.164096
0.163912 0.163973 0.163958
0.239094 0.166064 0.166644
0.342657 0.153704 0.159792
0.46244 0.128588 0.15201
0.6009 0.096376 0.154131
0.757259 0.101854 0.186023
1 0.173571 0.277501
0.00935378 0.251072 0.161379
0.0905776 0.246052 0.163119
0.167178 0.241993 0.168292
0.243946 0.242847 0.165225
0.338842 0.238697 0.160967
0.458015 0.223148 0.150286
0.605127 0.192691 0.144472
0.772641 0.173205 0.170016
1 0.295293 0.311208
0 0.346029 0.149584
0.0514839 0.343114 0.150942
0.144564 0.339467 0.153536
0.236255 0.336828 0.149691
0.338018 0.331151 0.14342
0.456016 0.319814 0.138857
0.604532 0.296941 0.13225
0.791074 0.272145 0.150805
1 0.49276 0.398322
0 0.456291 0.129824
0 0.454871 0.128405
0.0919509 0.452567 0.127062
0.209598 0.448737 0.124422
0.32314 0.442527 0.121218
0.447227 0.432395 0.118624
0.607706 0.429496 0.134813
0.815793 0.472145 0.225513
1 0.695109 0.52665
0 0.592645 0.0990463
0 0.592996 0.090486
0 0.591073 0.0881056
0.15819 0.589364 0.0902266
0.316381 0.595575 0.120668
0.481834 0.612619 0.188266
0.663127 0.650462 0.285039
0.856092 0.714504 0.422644
1 0.804059 0.566232
0 0.771878 0.14406
0 0.784588 0.177066
0.145129 0.801114 0.225803
0.336461 0.8206 0.291127
0.493828 0.84123 0.369345
0.634562 0.86157 0.454734
0.757717 0.876539 0.521981
0.880796 0.883513 0.546029
1 0.937835 0.614237
0.676219 1 0.668803
0.688228 1 0.669703
0.705028 1 0.671199
0.732128 1 0.67364
0.770336 1 0.677913
0.824872 1 0.685786
0.903609 1 0.700771
1 0.998428 0.722515
1 1 0.833722
0.0774701 0.0392157 0.303105
0.133394 0.0404669 0.295949
0.193027 0.0408942 0.287175
0.27013 0.0385748 0.276173
0.359594 0.0324254 0.264729
0.465568 0.0188602 0.255436
0.59147 0.0126802 0.252628
0.748425 0.0269932 0.266407
1 0.108705 0.32755
0.0661631 0.11165 0.289464
0.125505 0.112871 0.27985
0.186374 0.112795 0.273457
0.265309 0.108278 0.26862
0.359152 0.0963149 0.261769
0.468986 0.0749065 0.253117
0.602411 0.0476234 0.247944
0.75761 0.0598306 0.262043
1 0.133883 0.324392
0.0555276 0.181155 0.275792
0.122469 0.180331 0.264149
0.182727 0.18143 0.255161
0.255833 0.181491 0.256718
0.350576 0.172854 0.256764
0.467292 0.151629 0.250065
0.608042 0.118456 0.243198
0.769284 0.108721 0.254963
1 0.184253 0.333013
0.0286564 0.264103 0.267247
0.103883 0.26125 0.262943
0.181582 0.256764 0.257206
0.256367 0.256382 0.256428
0.339345 0.257588 0.258152
0.458686 0.242878 0.249027
0.609796 0.210285 0.236789
0.785122 0.176852 0.241245
1 0.31957 0.381201
0 0.356085 0.25391
0.077409 0.352758 0.25304
0.167697 0.347631 0.253849
0.256886 0.342351 0.258213
0.343374 0.342077 0.253361
0.454856 0.335286 0.245762
0.606546 0.311986 0.229389
0.802472 0.289387 0.238514
1 0.52256 0.472938
0 0.465431 0.235935
0.0059205 0.463569 0.235096
0.11339 0.460395 0.235065
0.225437 0.455482 0.235935
0.329961 0.451362 0.229679
0.45156 0.443214 0.220935
0.616419 0.448631 0.243122
0.825711 0.49865 0.327596
1 0.706157 0.574792
0 0.60322 0.205127
0 0.602655 0.201846
0 0.601419 0.197833
0.161501 0.602808 0.204364
0.327916 0.612451 0.234607
0.496651 0.632624 0.290517
0.678111 0.670726 0.379599
0.863905 0.730556 0.497993
1 0.807355 0.599466
0 0.789044 0.243458
0 0.804593 0.274754
0.135348 0.824201 0.314275
0.345663 0.842237 0.375036
0.509789 0.858351 0.446296
0.646464 0.873503 0.515755
0.760098 0.882277 0.555077
0.885328 0.887556 0.576547
1 0.941711 0.642329
0.676219 1 0.699001
0.688487 1 0.699809
0.706111 1 0.700969
0.733043 1 0.703151
0.772519 1 0.706645
0.826734 1 0.713252
0.906813 1 0.72723
1 0.999634 0.749386
1 1 0.863371
0.12668 0.0618143 0.418402
0.170459 0.0628672 0.414008
0.221469 0.0639353 0.407279
0.29099 0.0641489 0.396704
0.374945 0.0618143 0.383291
0.475334 0.0568093 0.368627
0.603052 0.0451667 0.35668
0.761822 0.0508888 0.354788
1 0.119524 0.39353
0.116503 0.127855 0.413718
0.163088 0.128481 0.408179
0.216327 0.128862 0.400961
0.28777 0.127504 0.391546
0.374456 0.121553 0.381048
0.479057 0.109346 0.368246
0.612116 0.0839399 0.355367
0.771038 0.0830701 0.351919
1 0.142977 0.39086
0.102129 0.195834 0.401266
0.153903 0.19646 0.392386
0.209049 0.196902 0.384039
0.280797 0.195804 0.377478
0.368933 0.189548 0.372717
0.478202 0.17467 0.364584
0.616373 0.147585 0.352316
0.782834 0.126146 0.346792
1 0.204517 0.410727
0.0781567 0.276661 0.386572
0.141176 0.275303 0.379019
0.204334 0.274083 0.367926
0.275868 0.274556 0.357748
0.3579 0.273411 0.358968
0.468544 0.261814 0.357656
0.616312 0.232792 0.346929
0.798383 0.189792 0.336431
1 0.35256 0.469932
0.0328679 0.368597 0.373251
0.102159 0.367376 0.370901
0.179828 0.364294 0.366339
0.271336 0.358557 0.359075
0.356725 0.356878 0.356893
0.456352 0.355306 0.356176
0.609155 0.33225 0.341314
0.812268 0.319615 0.35111
1 0.556146 0.560403
0 0.476692 0.354757
0.0354467 0.47509 0.353063
0.138598 0.471748 0.351324
0.246937 0.46537 0.350515
0.350591 0.458457 0.352636
0.460121 0.458412 0.348013
0.62359 0.475578 0.371389
0.833844 0.531426 0.443793
1 0.716091 0.634485
0 0.615061 0.325032
0 0.614252 0.322774
0 0.613458 0.321477
0.188098 0.617884 0.334936
0.356146 0.629374 0.367849
0.519112 0.653239 0.416373
0.694926 0.692256 0.489677
0.872251 0.746822 0.581109
1 0.811765 0.647318
0 0.809659 0.360662
0 0.826215 0.392538
0.179553 0.844251 0.432593
0.381369 0.859495 0.485542
0.537865 0.871885 0.543404
0.661524 0.883619 0.59176
0.764187 0.889342 0.605524
0.89131 0.893309 0.620249
1 0.94728 0.683177
0.682826 1 0.745739
0.693309 1 0.745739
0.7093 1 0.745769
0.736309 1 0.746578
0.775204 1 0.749493
0.8309 1 0.754681
0.912566 1 0.766506
1 1 0.789715
1 1 0.908125
0.182895 0.0971084 0.546929
0.217548 0.0966201 0.546166
0.260319 0.0973983 0.542092
0.321553 0.0983139 0.534127
0.398688 0.0983902 0.522042
0.493996 0.0979629 0.504967
0.613138 0.105882 0.48368
0.775708 0.0996109 0.470802
1 0.14342 0.485496
0.176211 0.149096 0.550866
0.2121 0.14934 0.547951
0.256367 0.149874 0.542687
0.319356 0.149767 0.534051
0.398245 0.147951 0.522164
0.496468 0.142473 0.506523
0.622309 0.133791 0.486839
0.784329 0.126268 0.470268
1 0.166705 0.485878
0.163378 0.211292 0.545052
0.201831 0.211353 0.541512
0.248432 0.21149 0.535622
0.313436 0.210864 0.527016
0.394644 0.207568 0.516732
0.496147 0.198856 0.504189
0.627878 0.181842 0.486732
0.795834 0.160494 0.468437
1 0.240284 0.517525
0.140673 0.291035 0.532021
0.184573 0.290867 0.526955
0.236225 0.290944 0.517937
0.303883 0.290532 0.507988
0.385824 0.28777 0.500755
0.489677 0.278599 0.494484
0.628717 0.256947 0.482017
0.810391 0.216983 0.463111
1 0.399283 0.584131
0.100542 0.382162 0.516075
0.156008 0.381048 0.511864
0.217563 0.379355 0.504372
0.295003 0.377218 0.491264
0.378073 0.376242 0.479637
0.47715 0.372137 0.478767
0.620615 0.353384 0.473243
0.824613 0.359197 0.489509
1 0.595499 0.665827
0.0286107 0.488655 0.495354
0.0915847 0.488533 0.494438
0.166506 0.487297 0.492058
0.26009 0.483528 0.486336
0.365637 0.476387 0.477256
0.479881 0.480293 0.480278
0.6365 0.509102 0.51014
0.845731 0.568093 0.572335
1 0.727459 0.712337
0 0.627451 0.468223
0 0.627329 0.466224
0.0444953 0.629709 0.469062
0.228351 0.637659 0.483696
0.393744 0.651026 0.511849
0.553506 0.674968 0.555734
0.715572 0.716045 0.611536
0.882094 0.7635 0.673625
1 0.81915 0.715953
0 0.832334 0.503395
0 0.848951 0.532967
0.248005 0.864454 0.56849
0.432563 0.875639 0.610437
0.572229 0.885191 0.650965
0.678325 0.893355 0.678874
0.77113 0.897215 0.680949
0.899107 0.901244 0.683116
1 0.955703 0.74226
0.693965 1 0.813672
0.705211 1 0.813504
0.720027 1 0.813596
0.745602 1 0.813657
0.782086 1 0.813947
0.836957 1 0.816678
0.919783 1 0.82501
1 1 0.850141
0.998123 1 0.976333
0.252033 0.147387 0.70045
0.278752 0.146563 0.701015
0.313939 0.14548 0.700771
0.366262 0.144411 0.698253
0.434958 0.14432 0.690791
0.522896 0.146075 0.676097
0.637598 0.155718 0.65098
0.789197 0.17319 0.624887
1 0.191165 0.619837
0.248981 0.182193 0.713344
0.276799 0.18114 0.713741
0.312718 0.18056 0.712215
0.365835 0.180682 0.70663
0.43566 0.18027 0.697261
0.525933 0.178195 0.682795
0.643656 0.180362 0.657221
0.796658 0.19263 0.627665
1 0.217136 0.628016
0.240269 0.232578 0.718105
0.2692 0.231678 0.718242
0.306386 0.231647 0.714626
0.361303 0.231373 0.708171
0.433234 0.229831 0.69836
0.525612 0.226032 0.684123
0.649622 0.217014 0.662715
0.806607 0.219226 0.630747
1 0.30193 0.667933
0.221424 0.306661 0.713298
0.252293 0.306111 0.712398
0.292546 0.305409 0.709163
0.350652 0.304692 0.702129
0.425574 0.302449 0.692439
0.521355 0.296864 0.679744
0.650584 0.283253 0.661524
0.823133 0.266239 0.636271
1 0.465934 0.73489
0.187366 0.396704 0.701335
0.223575 0.396094 0.699367
0.268803 0.395392 0.695048
0.333272 0.394415 0.68542
0.412116 0.392355 0.674647
0.510887 0.386694 0.664698
0.648173 0.377234 0.655024
0.845151 0.407507 0.665843
1 0.644892 0.79707
0.119936 0.504646 0.682811
0.168597 0.503868 0.681193
0.224964 0.502708 0.677668
0.301946 0.500252 0.669612
0.39501 0.498344 0.656077
0.514092 0.511009 0.650965
0.671366 0.544732 0.673396
0.866758 0.609506 0.721645
1 0.743664 0.818402
0.047364 0.634958 0.643763
0.0892653 0.638392 0.64683
0.159701 0.649073 0.657008
0.285939 0.664271 0.669993
0.434989 0.682795 0.685634
0.590448 0.707637 0.708186
0.743618 0.744884 0.744808
0.89546 0.780926 0.78088
1 0.833753 0.822995
0.00694286 0.850996 0.681697
0.197208 0.867857 0.705135
0.349767 0.883696 0.729503
0.493156 0.894499 0.753613
0.609735 0.901167 0.774334
0.693385 0.905135 0.783261
0.78291 0.907668 0.784222
0.909392 0.911574 0.783215
1 0.968338 0.833265
0.718578 1 0.912932
0.728679 1 0.913191
0.742412 1 0.913634
0.766308 1 0.914321
0.801389 1 0.915419
0.853407 1 0.916899
0.934569 1 0.920226
0.999313 1 0.94844
0.99736 1 1
0.341833 0.217014 0.894713
0.361975 0.216632 0.895476
0.389288 0.216022 0.896071
0.431907 0.215183 0.895781
0.48986 0.214893 0.893202
0.567514 0.215763 0.885618
0.675013 0.220218 0.868421
0.821683 0.235264 0.83798
1 0.273442 0.815
0.340612 0.241459 0.906676
0.361379 0.240635 0.907622
0.389075 0.239963 0.907851
0.432044 0.239094 0.907118
0.490852 0.238224 0.903807
0.569818 0.237919 0.89514
0.678614 0.240604 0.876265
0.826703 0.252628 0.843122
1 0.306325 0.831006
0.336095 0.276356 0.918517
0.358358 0.273732 0.92314
0.386831 0.272877 0.922988
0.430991 0.271565 0.921569
0.491157 0.270054 0.917449
0.571893 0.268437 0.9075
0.683055 0.268467 0.886519
0.833265 0.276753 0.849867
1 0.40177 0.871382
0.323995 0.33106 0.934127
0.347143 0.32874 0.938567
0.378317 0.325673 0.943069
0.424811 0.324117 0.939788
0.487633 0.322194 0.93344
0.571649 0.318853 0.922225
0.688106 0.313619 0.901076
0.848997 0.330755 0.864988
1 0.559762 0.922026
0.299519 0.412238 0.937972
0.323476 0.410285 0.942107
0.356344 0.408316 0.943206
0.406531 0.406134 0.941329
0.473548 0.403937 0.934005
0.56257 0.399222 0.922545
0.69369 0.409567 0.903456
0.87837 0.465995 0.889204
1 0.703792 0.954009
0.249149 0.517617 0.931762
0.277592 0.516701 0.932418
0.314977 0.51548 0.932326
0.371374 0.513603 0.930098
0.453986 0.520928 0.920348
0.569711 0.543786 0.904616
0.720989 0.587335 0.893523
0.897871 0.658091 0.900801
1 0.769543 0.964157
0.14229 0.658488 0.903059
0.181384 0.665721 0.908019
0.256016 0.678737 0.910552
0.370718 0.697169 0.908095
0.502846 0.719921 0.901915
0.641108 0.747341 0.897063
0.778637 0.780026 0.902312
0.915389 0.79913 0.916716
1 0.855299 0.973663
0.291997 0.872526 0.88011
0.385733 0.888487 0.894087
0.482902 0.902983 0.906188
0.574502 0.914443 0.915541
0.648783 0.920546 0.920897
0.709209 0.922881 0.923247
0.797086 0.924651 0.924605
0.923934 0.92607 0.926192
1 0.987121 0.981582
0.769177 1 1
0.778302 1 1
0.791089 1 1
0.812467 1 1
0.843488 1 1
0.890257 1 1
0.965576 1 1
0.99736 1 1
0.99736 1 1
0.508843 0.363272 1
0.522683 0.363088 1
0.542123 0.362737 1
0.573266 0.362249 1
0.617777 0.36144 1
0.680064 0.360815 1
0.771221 0.360464 1
0.904387 0.362615 1
1 0.402792 1
0.507637 0.380224 1
0.521721 0.379919 1
0.541466 0.3794 1
0.573022 0.378683 1
0.617899 0.377737 1
0.680797 0.376745 1
0.772869 0.375677 1
0.907179 0.376425 1
1 0.462593 1
0.505135 0.404013 1
0.51989 0.403326 1
0.539757 0.402808 1
0.571649 0.402045 1
0.617212 0.400824 1
0.68127 0.399115 1
0.774807 0.396933 1
0.912215 0.400977 1
1 0.590005 1
0.497887 0.443748 1
0.513634 0.442435 1
0.534798 0.441199 1
0.567651 0.440131 1
0.614832 0.438254 1
0.680644 0.435782 1
0.779141 0.437705 1
0.929183 0.479072 1
1 0.736004 1
0.482551 0.501381 1
0.498772 0.500282 1
0.521309 0.498604 1
0.557061 0.496117 1
0.60708 0.494484 1
0.683024 0.504509 1
0.797498 0.53994 1
0.948455 0.622049 1
1 0.800214 1
0.452598 0.587961 1
0.469001 0.586313 1
0.492378 0.587121 1
0.535134 0.596353 1
0.603677 0.617319 1
0.698848 0.653284 1
0.818891 0.708125 1
0.954833 0.771359 1
1 0.850309 1
0.390585 0.73254 1
0.418677 0.748379 1
0.472938 0.768704 1
0.550652 0.793057 1
0.641688 0.818647 1
0.739178 0.84361 1
0.836576 0.857466 1
0.959258 0.85919 1
1 0.927977 1
0.493904 0.957229 1
0.570947 0.965988 1
0.631586 0.97229 1
0.668894 0.975189 1
0.705104 0.97641 1
0.756878 0.97792 1
0.836301 0.978637 1
0.959991 0.976242 1
0.99736 1 1
0.852781 1 1
0.86067 1 1
0.874128 1 1
0.894621 1 1
0.926024 1 1
0.973587 1 1
0.99736 1 1
0.99736 1 1
0.99736 1 1
