subtle niceties LUT V2 beta 11 (SSH-TS reimagined).cube
TITLE "Generated by Resolve"
LUT_3D_SIZE 9
0.0171511 0.0155642 0.0246433
0.0815137 0.0156405 0.019028
0.135164 0.0179751 0.0130617
0.201175 0.0178073 0.00546273
0.271763 0.0245975 0.00849927
0.358282 0.0397498 0.0204166
0.482048 0.0611582 0.0311284
0.65655 0.105394 0.0552987
0.971618 0.265232 0.212177
0.0341497 0.0735637 0.019379
0.0834363 0.0822614 0.0151522
0.154772 0.074342 0.0152743
0.229984 0.0673228 0
0.30782 0.0588998 0
0.394125 0.0703899 0
0.513954 0.100664 0.00228885
0.684352 0.167025 0.0687572
1 0.319722 0.239689
0.0579232 0.133013 0.0328527
0.0904555 0.145922 0.0287022
0.161669 0.151797 0.0152895
0.244678 0.148119 0
0.329885 0.149874 0
0.424323 0.15407 0
0.551568 0.16759 0
0.721325 0.219394 0.0256504
1 0.375738 0.255482
0.092668 0.204288 0.0400854
0.127611 0.216663 0.0326238
0.179583 0.228946 0.0215152
0.260273 0.23505 0.00921645
0.347707 0.235142 0
0.445914 0.24448 0
0.565347 0.264714 0
0.742412 0.310796 0
1 0.431022 0.206241
0.123934 0.285466 0.0501869
0.169818 0.295445 0.0399481
0.208011 0.311742 0.0258946
0.282551 0.324132 0.0107118
0.368231 0.330541 0.00605783
0.465339 0.33344 0
0.584649 0.349096 0
0.74165 0.384863 0
1 0.517174 0.128496
0.151995 0.380423 0.0726329
0.21413 0.388632 0.0627146
0.255879 0.404486 0.0452277
0.30959 0.423621 0.0181888
0.397665 0.436042 0.000457771
0.493935 0.4439 0.0078584
0.608469 0.450416 0
0.75761 0.472221 0
1 0.5729 0
0.187839 0.497536 0.117815
0.258488 0.50576 0.105165
0.316609 0.518959 0.0823682
0.368231 0.538903 0.0428473
0.436591 0.558053 0.033341
0.531731 0.573846 0.0112001
0.643702 0.586862 0.0353094
0.778332 0.597421 0.00274662
1 0.648127 0
0.241337 0.640818 0.172229
0.321386 0.648478 0.159808
0.396094 0.658839 0.134279
0.447318 0.678569 0.106538
0.501259 0.700664 0.09691
0.582406 0.720211 0.125887
0.684443 0.741512 0.139681
0.805982 0.760143 0.160769
1 0.774853 0.203418
0.411536 0.872053 0.245792
0.486107 0.876661 0.231769
0.553719 0.88368 0.228122
0.599847 0.89868 0.250019
0.636133 0.917418 0.293797
0.669535 0.939956 0.34345
0.752331 0.955749 0.393072
0.847608 0.979355 0.386938
0.979919 1 0.508858
0.0190433 0.0265812 0.0821546
0.0908064 0.0253452 0.081651
0.142763 0.0298009 0.0793164
0.206607 0.0359808 0.0644846
0.28893 0.0233768 0.0510262
0.379995 0.01944 0.0466468
0.498772 0.0264439 0.0528267
0.653284 0.106432 0.117617
0.967651 0.263249 0.244373
0.0244144 0.0855726 0.0873274
0.0833448 0.0881666 0.0917678
0.150713 0.0931716 0.0867323
0.248341 0.0703899 0.0630655
0.316915 0.0731823 0.0538643
0.401297 0.0856794 0.0493324
0.520928 0.114015 0.0605783
0.687709 0.177996 0.126802
1 0.325277 0.27306
0.0392767 0.149935 0.082948
0.0934005 0.162463 0.0707103
0.168032 0.16817 0.0655222
0.259174 0.161563 0.060914
0.345754 0.154925 0.0514229
0.445701 0.147509 0.0270542
0.565744 0.16643 0.0236515
0.726696 0.230106 0.112535
1 0.388128 0.299443
0.0737926 0.218723 0.100786
0.132158 0.231601 0.0816205
0.182406 0.24741 0.0649729
0.261372 0.256428 0.0577401
0.356252 0.252628 0.0518807
0.455634 0.253712 0.0505379
0.58677 0.271 0.00280766
0.76289 0.313069 0.0611124
1 0.449409 0.271809
0.119371 0.297246 0.110338
0.174273 0.308415 0.102937
0.207767 0.326711 0.100694
0.281086 0.341726 0.0890516
0.370214 0.352529 0.0602426
0.476143 0.351186 0.0428931
0.597711 0.363439 0
0.762997 0.401877 0
1 0.541573 0.26421
0.170047 0.389715 0.110674
0.226734 0.399664 0.117418
0.2645 0.417166 0.115679
0.305608 0.44033 0.112673
0.397742 0.454215 0.0960708
0.497459 0.466087 0.0706645
0.620752 0.469413 0.039765
0.76704 0.490105 0
1 0.598581 0.239246
0.216144 0.506218 0.132052
0.283894 0.514763 0.129686
0.334966 0.529717 0.136339
0.376181 0.552819 0.135607
0.434394 0.575418 0.144564
0.532937 0.592477 0.128862
0.647181 0.608957 0.116304
0.790005 0.616693 0.0934615
1 0.669184 0.243229
0.273167 0.649271 0.174304
0.348302 0.657359 0.166995
0.416114 0.669062 0.175586
0.461921 0.690929 0.18056
0.504417 0.716182 0.20087
0.582086 0.737926 0.221851
0.687236 0.75993 0.227985
0.805997 0.78265 0.233616
1 0.798291 0.278492
0.433402 0.880461 0.24828
0.506905 0.884825 0.260288
0.571878 0.892836 0.285451
0.604303 0.911299 0.321248
0.63743 0.931594 0.358633
0.671275 0.954543 0.402029
0.770687 0.972808 0.404211
0.853925 1 0.411048
0.990799 1 0.581964
0.019379 0.0409094 0.145541
0.0849012 0.0395514 0.15079
0.159594 0.0395819 0.14403
0.2224 0.0403449 0.144381
0.281315 0.0604562 0.142016
0.369162 0.061326 0.144656
0.48954 0.0585184 0.152743
0.651179 0.0983902 0.18088
0.956634 0.25864 0.294255
0.0320439 0.0947738 0.148379
0.0838941 0.0988174 0.155886
0.176593 0.0869154 0.163745
0.245594 0.0882429 0.162661
0.321477 0.0932326 0.150317
0.410956 0.10518 0.139391
0.53463 0.122377 0.145556
0.693019 0.187427 0.194446
1 0.328527 0.31043
0.0251926 0.162112 0.159594
0.10013 0.163409 0.171206
0.165988 0.173754 0.173312
0.249683 0.179309 0.173617
0.343908 0.17908 0.163592
0.460655 0.158953 0.145785
0.571557 0.186755 0.161273
0.732448 0.247379 0.208591
1 0.397543 0.346639
0.0526284 0.232319 0.176165
0.111269 0.248692 0.160082
0.182208 0.262196 0.156481
0.27245 0.27097 0.1505
0.368734 0.269917 0.159182
0.482856 0.269841 0.145663
0.612619 0.280018 0.153735
0.784848 0.316701 0.189807
1 0.470359 0.36083
0.0913405 0.31107 0.194598
0.150195 0.328832 0.171298
0.219043 0.34519 0.156252
0.287984 0.365164 0.132921
0.374441 0.375845 0.138155
0.489097 0.373892 0.137163
0.622034 0.381918 0.156008
0.792782 0.423606 0.200336
1 0.564157 0.359213
0.13518 0.405951 0.200137
0.208927 0.41709 0.199115
0.266407 0.435172 0.187945
0.317296 0.459846 0.170733
0.400259 0.477409 0.162432
0.500511 0.490745 0.15436
0.630304 0.49369 0.150484
0.787182 0.512932 0.196597
1 0.639078 0.337148
0.206531 0.519951 0.210513
0.273259 0.531106 0.219394
0.33315 0.547051 0.220584
0.37406 0.571298 0.225559
0.43032 0.596139 0.229541
0.534142 0.614847 0.213642
0.648386 0.634531 0.19791
0.796246 0.642359 0.200076
1 0.701854 0.310201
0.287068 0.661555 0.224323
0.354955 0.671229 0.241474
0.419928 0.685023 0.256657
0.461524 0.708385 0.271107
0.503822 0.73489 0.286519
0.580972 0.758373 0.302602
0.691112 0.783139 0.285298
0.813779 0.804456 0.29723
1 0.821942 0.360006
0.454292 0.890013 0.299001
0.511574 0.897047 0.334691
0.57052 0.907378 0.361196
0.604913 0.92636 0.390051
0.641657 0.947402 0.417533
0.697902 0.971725 0.417136
0.791882 0.992004 0.416815
0.870634 1 0.500435
0.990021 1 0.685756
0.0173953 0.0665446 0.216648
0.0884413 0.064683 0.220218
0.152483 0.0614328 0.229465
0.242466 0.0574197 0.221271
0.309331 0.0615244 0.221012
0.383917 0.0711528 0.231434
0.478508 0.118791 0.244556
0.633204 0.145449 0.272129
0.944167 0.250004 0.350011
0.0249943 0.111604 0.226658
0.0918135 0.112779 0.232456
0.1626 0.115724 0.238895
0.25803 0.10544 0.241611
0.328511 0.108217 0.246906
0.400412 0.138613 0.242817
0.516869 0.159396 0.243305
0.678965 0.197055 0.272877
0.993713 0.322866 0.372747
0.0375982 0.174762 0.232639
0.0941939 0.173693 0.251743
0.170321 0.183536 0.252262
0.280079 0.169268 0.265553
0.363226 0.169696 0.267781
0.445212 0.192432 0.270573
0.580972 0.197559 0.267857
0.74815 0.251881 0.305058
1 0.382742 0.406577
0.0289311 0.249973 0.25388
0.0861677 0.260624 0.260258
0.185489 0.262104 0.278294
0.267597 0.276692 0.27837
0.366537 0.282795 0.282216
0.463264 0.299458 0.284566
0.621088 0.299092 0.287251
0.794598 0.332723 0.318639
1 0.474769 0.453696
0.0739452 0.32488 0.281331
0.113756 0.342687 0.279042
0.20351 0.360571 0.263127
0.289067 0.378042 0.260533
0.389578 0.38822 0.258076
0.495064 0.394598 0.27541
0.643137 0.410498 0.287114
0.815854 0.448508 0.323445
1 0.586618 0.471199
0.0759594 0.424949 0.29012
0.140673 0.444022 0.276677
0.242771 0.460136 0.263035
0.320546 0.481392 0.253544
0.406287 0.501122 0.243885
0.51191 0.512245 0.254597
0.651347 0.514488 0.273899
0.822522 0.545464 0.306752
1 0.681376 0.466117
0.204273 0.526406 0.346288
0.226413 0.552651 0.317235
0.316289 0.569009 0.305608
0.38941 0.5935 0.282734
0.456718 0.622156 0.245762
0.539544 0.645212 0.249287
0.658061 0.659968 0.277516
0.814252 0.665354 0.311711
1 0.742763 0.427527
0.245487 0.679622 0.33489
0.324361 0.690974 0.347066
0.401389 0.706249 0.349187
0.465568 0.729427 0.34345
0.52311 0.756909 0.333913
0.601755 0.784329 0.320089
0.695445 0.812497 0.3205
0.820127 0.828733 0.372442
1 0.84361 0.478294
0.43476 0.90454 0.403723
0.497322 0.912947 0.426062
0.561959 0.924941 0.439078
0.61004 0.943938 0.452415
0.662745 0.965438 0.455497
0.730739 0.991287 0.429221
0.804486 1 0.499107
0.893645 1 0.593027
0.981476 1 0.804288
0.0221714 0.0863355 0.304021
0.093904 0.0979629 0.298222
0.162951 0.108034 0.292943
0.234699 0.0902113 0.314778
0.338262 0.0749065 0.307439
0.410758 0.0938582 0.310765
0.511833 0.0943465 0.332265
0.635523 0.180468 0.358846
0.928557 0.274891 0.428122
0.0199283 0.14052 0.303227
0.0899367 0.129671 0.319615
0.169558 0.132189 0.323491
0.239902 0.131197 0.339757
0.350134 0.131014 0.32517
0.43154 0.143328 0.325078
0.526864 0.166308 0.339422
0.659754 0.230289 0.362875
0.973388 0.334325 0.441657
0.0303807 0.192264 0.317449
0.0895399 0.202167 0.31606
0.175494 0.201175 0.329641
0.273289 0.201831 0.335744
0.372427 0.187137 0.353155
0.455894 0.201221 0.35465
0.557778 0.228138 0.365377
0.714595 0.271489 0.388159
1 0.389273 0.491707
0.0292668 0.266941 0.330755
0.113802 0.270253 0.341955
0.185885 0.274556 0.358785
0.273915 0.285023 0.366415
0.401373 0.271153 0.378683
0.489235 0.286412 0.385092
0.589502 0.323857 0.418067
0.773999 0.363867 0.454719
1 0.491218 0.55993
0.0318914 0.347524 0.356893
0.0851301 0.362493 0.358938
0.189593 0.36878 0.376837
0.288411 0.379629 0.388266
0.381018 0.393454 0.397375
0.498741 0.402228 0.406058
0.612879 0.434943 0.421592
0.799359 0.474845 0.454536
1 0.608957 0.593362
0.0780194 0.432502 0.399756
0.149554 0.451164 0.391531
0.229633 0.466453 0.397955
0.312123 0.493523 0.378103
0.410117 0.513146 0.373709
0.525475 0.525093 0.376425
0.650568 0.5393 0.402716
0.825467 0.582559 0.453407
1 0.714427 0.590494
0.146654 0.55436 0.403311
0.1402 0.578088 0.402258
0.233082 0.602335 0.378454
0.356374 0.620066 0.37293
0.439963 0.644053 0.36939
0.547219 0.664347 0.364843
0.676463 0.675975 0.38941
0.824659 0.687877 0.439384
1 0.788632 0.575341
0.274617 0.677684 0.489982
0.301106 0.704601 0.464332
0.348501 0.73344 0.432441
0.453498 0.753262 0.421057
0.52929 0.779416 0.407691
0.608164 0.807187 0.400183
0.708171 0.830808 0.422812
0.838285 0.843458 0.475563
1 0.868299 0.587396
0.396246 0.920867 0.50277
0.472648 0.930098 0.514107
0.547356 0.943023 0.516442
0.615045 0.962188 0.51104
0.675013 0.983886 0.509575
0.729625 1 0.527382
0.817685 1 0.594308
0.915755 1 0.708843
0.940017 1 0.981018
0.030457 0.109133 0.404181
0.103639 0.12517 0.39649
0.171069 0.139528 0.390478
0.247776 0.151598 0.384298
0.329763 0.131624 0.407858
0.450584 0.103838 0.40911
0.539864 0.139559 0.420066
0.679515 0.149905 0.458839
0.925414 0.330236 0.524468
0.0410925 0.169589 0.397116
0.0814221 0.168246 0.408225
0.169085 0.167651 0.413123
0.25658 0.173831 0.412634
0.338354 0.162295 0.436027
0.456123 0.168475 0.425513
0.559289 0.189288 0.428794
0.689952 0.215686 0.461738
0.955322 0.358877 0.531746
0.00866712 0.221469 0.409888
0.0863813 0.216022 0.422171
0.176272 0.213535 0.434867
0.26775 0.222232 0.436988
0.34876 0.223255 0.456931
0.480522 0.216052 0.451072
0.58053 0.241093 0.457938
0.709484 0.281575 0.482811
1 0.402777 0.56379
0.0326696 0.286595 0.424292
0.104921 0.292836 0.430701
0.178836 0.303731 0.434165
0.272053 0.306142 0.452918
0.382345 0.306828 0.464454
0.514565 0.287678 0.479774
0.620752 0.305974 0.487373
0.756878 0.351507 0.522423
1 0.489815 0.637949
0.0226139 0.367697 0.443778
0.115969 0.375296 0.452293
0.206439 0.379889 0.469841
0.285908 0.391287 0.486351
0.391714 0.397696 0.502632
0.537896 0.38996 0.509575
0.645289 0.418341 0.520836
0.788739 0.464973 0.584955
1 0.639094 0.733669
0.0374151 0.460014 0.473716
0.0996567 0.475059 0.480049
0.175692 0.492531 0.486076
0.321569 0.496666 0.506691
0.402197 0.514717 0.522393
0.513252 0.52958 0.53431
0.655253 0.544106 0.553567
0.794461 0.596674 0.583017
1 0.715877 0.703563
0.095613 0.566812 0.523751
0.172152 0.582681 0.528786
0.246357 0.605295 0.523568
0.381796 0.620249 0.523293
0.437537 0.654047 0.510597
0.551369 0.675441 0.507897
0.688334 0.689006 0.518639
0.828107 0.710719 0.562936
1 0.811078 0.691524
0.21651 0.712367 0.532921
0.21886 0.732448 0.546731
0.295644 0.757229 0.530251
0.381903 0.785901 0.508995
0.498741 0.804028 0.515023
0.594125 0.825925 0.530159
0.716976 0.845991 0.541711
0.852491 0.856245 0.588449
1 0.892302 0.687678
0.408621 0.923491 0.634745
0.420157 0.951965 0.596918
0.49456 0.970413 0.581521
0.595682 0.984009 0.583673
0.661891 1 0.594095
0.725551 1 0.628016
0.845884 1 0.713237
0.936263 1 0.8262
0.919234 1 1
0.0486305 0.140017 0.530114
0.118807 0.156619 0.522087
0.187533 0.175937 0.512551
0.264424 0.201007 0.496834
0.343481 0.20734 0.496345
0.439902 0.183871 0.528878
0.593988 0.155886 0.54226
0.714183 0.21738 0.565194
0.984222 0.319127 0.655543
0.0567178 0.195529 0.527489
0.0847944 0.204562 0.529351
0.173495 0.213718 0.526223
0.25977 0.218463 0.52752
0.347692 0.223621 0.52903
0.448142 0.211017 0.556023
0.597589 0.213855 0.557565
0.727428 0.259358 0.568689
0.983246 0.364187 0.651087
0.0741894 0.259083 0.519219
0.070222 0.259876 0.533669
0.168856 0.247761 0.551797
0.270359 0.245991 0.560204
0.36434 0.257481 0.558679
0.45832 0.256504 0.584512
0.613672 0.266575 0.576303
0.746212 0.30692 0.584146
0.991089 0.417472 0.666087
0 0.319997 0.542275
0.066041 0.318853 0.553643
0.175662 0.320882 0.561227
0.280568 0.321218 0.575647
0.380957 0.33196 0.578775
0.485847 0.337011 0.595285
0.635966 0.330968 0.607523
0.763699 0.371069 0.622614
1 0.472038 0.702815
0.0261082 0.392309 0.557305
0.1075 0.399664 0.564706
0.200534 0.40853 0.57116
0.282795 0.420462 0.581888
0.382406 0.426276 0.602274
0.51313 0.427344 0.61677
0.677852 0.407843 0.636515
0.815442 0.43006 0.652766
1 0.576822 0.769924
0 0.486183 0.58024
0.116167 0.494285 0.589227
0.219852 0.502708 0.60296
0.315373 0.511955 0.622919
0.405737 0.525643 0.64007
0.52517 0.534432 0.658488
0.702464 0.528084 0.66717
0.828305 0.575906 0.685771
1 0.696239 0.825574
0.0504768 0.596551 0.615579
0.116655 0.611963 0.62472
0.194934 0.632227 0.627894
0.311696 0.644617 0.649714
0.456016 0.650553 0.671031
0.538537 0.676432 0.681559
0.669245 0.693385 0.69958
0.824887 0.714549 0.736339
1 0.8056 0.796124
0.135943 0.726574 0.673899
0.209277 0.74049 0.687968
0.299489 0.763867 0.678111
0.396689 0.78143 0.693416
0.533242 0.800397 0.682383
0.600519 0.832319 0.680385
0.723674 0.856199 0.678767
0.860883 0.867674 0.712337
1 0.904692 0.825711
0.265766 0.95935 0.697841
0.352285 0.977035 0.681437
0.447501 0.993042 0.673594
0.545922 1 0.670314
0.647654 1 0.702129
0.748837 1 0.759869
0.881773 1 0.81413
0.935561 1 0.988098
0.919234 1 1
0.0937819 0.193881 0.703471
0.154803 0.205783 0.692805
0.219867 0.223362 0.680201
0.292332 0.246632 0.664515
0.372442 0.284535 0.635035
0.459709 0.282948 0.643229
0.582544 0.257252 0.693889
0.784527 0.249332 0.725231
1 0.350393 0.785138
0.0614939 0.234577 0.706569
0.117205 0.240574 0.701137
0.198535 0.25388 0.691051
0.282872 0.270222 0.679896
0.368643 0.289784 0.666621
0.461112 0.294896 0.670054
0.58648 0.277577 0.714214
0.782452 0.294224 0.733455
1 0.37792 0.788602
0.117144 0.300008 0.69102
0.109377 0.300832 0.696468
0.15816 0.31342 0.693019
0.266789 0.313939 0.694926
0.36759 0.310307 0.702296
0.470527 0.319005 0.702571
0.594797 0.312856 0.740871
0.785672 0.347707 0.74403
1 0.415808 0.80174
0.134203 0.372732 0.677531
0.0788891 0.370092 0.695445
0.158709 0.364462 0.709484
0.27538 0.349233 0.731319
0.382849 0.353918 0.736156
0.487907 0.372869 0.73196
0.607126 0.380056 0.762295
0.808179 0.389151 0.76434
1 0.468345 0.828031
0 0.436133 0.703059
0.0341192 0.435782 0.716625
0.15935 0.433082 0.731441
0.281544 0.445869 0.729305
0.395743 0.445991 0.745785
0.511635 0.456977 0.750759
0.646616 0.46688 0.765423
0.823743 0.46125 0.792447
1 0.528832 0.833036
0 0.516014 0.72433
0.101961 0.523995 0.729458
0.210147 0.532158 0.737194
0.309697 0.544747 0.744442
0.398825 0.557748 0.757092
0.509728 0.565911 0.779126
0.670207 0.567697 0.794476
0.85684 0.554162 0.819486
1 0.621225 0.86482
0 0.629557 0.746014
0.107393 0.637552 0.755276
0.232059 0.647837 0.765408
0.346197 0.656306 0.784222
0.438712 0.670115 0.801358
0.547341 0.684916 0.817639
0.679118 0.7019 0.830503
0.851667 0.721233 0.829007
1 0.788586 0.896193
0.08542 0.758282 0.782223
0.158679 0.773327 0.790814
0.245182 0.792752 0.792264
0.34519 0.810193 0.805463
0.504738 0.813336 0.828931
0.627909 0.819852 0.855467
0.712093 0.854231 0.85304
0.839277 0.870069 0.880568
1 0.924147 0.925994
0.352743 0.957778 0.836332
0.412406 0.973251 0.831083
0.457221 0.98677 0.84654
0.63151 0.989975 0.840345
0.700328 1 0.847684
0.791135 1 0.883268
0.904372 1 0.935683
0.919234 1 1
0.919234 1 1
0.22089 0.35288 1
0.272969 0.35172 1
0.328084 0.356802 1
0.390967 0.369207 1
0.458274 0.388754 0.995285
0.539391 0.423896 0.95877
0.641352 0.448157 0.931655
0.781765 0.418021 0.993332
1 0.449332 1
0.155673 0.368353 1
0.222766 0.365789 1
0.289876 0.369818 1
0.363561 0.380987 1
0.439643 0.39823 0.999481
0.522301 0.418845 0.976043
0.632456 0.452049 0.940597
0.770275 0.423056 1
1 0.480369 1
0.15697 0.409644 1
0.15256 0.401099 1
0.235386 0.402045 1
0.326345 0.410025 1
0.414694 0.422675 1
0.507912 0.435477 0.988113
0.625101 0.460197 0.960678
0.761593 0.434134 1
1 0.518441 1
0.217594 0.474388 1
0.197543 0.464439 1
0.198383 0.463203 1
0.267735 0.473091 1
0.379156 0.475685 1
0.495674 0.469505 1
0.631754 0.483421 0.985458
0.764065 0.462425 1
1 0.540398 1
0.259525 0.546441 0.999939
0.221302 0.537301 1
0.183597 0.532143 1
0.252094 0.524987 1
0.379767 0.503288 1
0.50901 0.499916 1
0.648295 0.526497 1
0.7608 0.533684 1
1 0.586831 1
0.222629 0.62121 0.981979
0.101778 0.611063 1
0.0799268 0.602182 1
0.254734 0.593347 1
0.390845 0.59205 1
0.523171 0.59144 1
0.657542 0.609201 1
0.806424 0.636362 1
1 0.64976 1
0 0.689494 1
0.00247196 0.691173 1
0.168399 0.693996 1
0.300649 0.70222 1
0.41474 0.724086 1
0.532021 0.737057 1
0.661494 0.739055 1
0.827161 0.745953 1
1 0.754025 1
0 0.813977 1
0 0.820111 1
0.223072 0.825879 1
0.385962 0.831296 1
0.502419 0.828077 1
0.60708 0.838666 1
0.724086 0.858778 1
0.835401 0.884596 1
0.934081 0.958801 1
0.274922 0.987396 0.999084
0.339376 0.997223 0.994553
0.425986 1 0.996811
0.582666 0.996017 1
0.727687 0.996246 1
0.819471 1 1
0.914717 1 1
0.919234 1 1
0.919234 1 1
