subtle niceties LUT V2 beta 14 (SSH-TS reimagined).cube
TITLE "Generated by Resolve"
LUT_3D_SIZE 9
0.00776684 0.00639353 0.0107271
0.0528725 0.00943008 0.00862135
0.117662 0.0129854 0.00979629
0.209506 0.015671 0
0.289769 0.0238346 0.00169375
0.369955 0.0315862 0.00634775
0.466972 0.0419318 0.00773632
0.588083 0.0556497 0
0.758541 0.0960555 0
0.0211337 0.0586862 0.0133822
0.0682078 0.0678721 0.0096437
0.148943 0.0702983 0.00889601
0.244633 0.0664378 0
0.323323 0.0719005 0
0.405737 0.0860914 0
0.507897 0.103746 0
0.636881 0.126207 0
0.808637 0.185183 0.0515908
0.0491493 0.134356 0.0166629
0.0943923 0.136721 0.0221714
0.146761 0.146288 0.00755322
0.249577 0.152346 0
0.348913 0.156359 0
0.445228 0.1664 0
0.556085 0.179446 0
0.685496 0.204456 0
0.855833 0.27013 0.0944686
0.066392 0.213657 0.0102083
0.119646 0.217395 0.0178073
0.175372 0.221958 0.0230716
0.248798 0.242908 0
0.359091 0.252674 0
0.470848 0.265614 0
0.591989 0.286854 0
0.733501 0.317983 0
0.906996 0.36994 0.146487
0.0863661 0.30219 0.00288396
0.151476 0.307317 0.0149996
0.207767 0.316518 0.0239872
0.282582 0.329809 0.0231632
0.36762 0.356603 0
0.482811 0.376822 0
0.613474 0.389609 0
0.753613 0.42092 0
0.941543 0.487022 0.150912
0.116426 0.403159 0.00733959
0.188693 0.411261 0.0200656
0.25594 0.425269 0.0249332
0.329793 0.44152 0.0433509
0.413275 0.461006 0.0387427
0.501869 0.495171 0
0.619379 0.52874 0
0.766583 0.540246 0
0.953109 0.583169 0.139864
0.17229 0.527047 0.00842298
0.24892 0.539681 0.0218509
0.323903 0.555367 0.0470893
0.400214 0.577523 0.0670787
0.482795 0.592645 0.117617
0.561532 0.618082 0.114092
0.656901 0.657069 0.0483101
0.777295 0.704433 0
0.957275 0.732509 0.167361
0.257084 0.671656 0.0226291
0.334035 0.685863 0.046067
0.413138 0.703395 0.0876326
0.491295 0.725032 0.134951
0.574151 0.73994 0.206806
0.65124 0.763577 0.242298
0.725795 0.801389 0.277668
0.838773 0.845014 0.297475
0.98584 0.89659 0.365209
0.409674 0.860059 0.0717632
0.478355 0.869413 0.139223
0.55375 0.883162 0.214908
0.641001 0.904143 0.300877
0.714961 0.927352 0.373663
0.78851 0.949401 0.432258
0.84509 0.980148 0.471412
0.92845 1 0.504601
1 1 0.650706
0.00640879 0.0113375 0.0341955
0.0596017 0.010605 0.0495308
0.118669 0.0204929 0.0629435
0.214206 0.0209049 0.0561379
0.303227 0.00881972 0.0264286
0.381079 0.00958267 0.0270695
0.472648 0.0185245 0.0313115
0.588525 0.0367895 0.0258946
0.757488 0.084596 0.0402838
0.00587472 0.0610361 0.0648966
0.0673991 0.0653849 0.070985
0.153063 0.067216 0.0645304
0.247868 0.0644388 0.046891
0.332967 0.0649882 0.0403906
0.419699 0.0709239 0.0150912
0.520867 0.0863203 0.0012665
0.639735 0.115862 0.0270695
0.80763 0.178241 0.124987
0.0244297 0.146471 0.060441
0.0733654 0.148531 0.0483711
0.151568 0.147845 0.0444038
0.255863 0.149874 0.0579995
0.360235 0.155856 0.0450141
0.459464 0.157931 0.0316167
0.566629 0.174426 0.0110933
0.68893 0.205982 0.0478065
0.859648 0.270619 0.172747
0.0510719 0.224323 0.0508431
0.114977 0.226688 0.0565347
0.174411 0.230243 0.057908
0.24686 0.246159 0.0428016
0.354681 0.264622 0.0164645
0.479454 0.269444 0.0334936
0.604852 0.289403 0.0346838
0.740276 0.318578 0.0935683
0.911284 0.370718 0.206836
0.0866407 0.30959 0.0443885
0.156115 0.312627 0.0568399
0.216098 0.318639 0.0713817
0.280446 0.330037 0.0753796
0.359014 0.358495 0.0360876
0.471504 0.390433 0
0.618708 0.399771 0.0403754
0.766583 0.430503 0.108629
0.955886 0.492241 0.228916
0.127352 0.409613 0.0380102
0.196429 0.415442 0.0580606
0.2645 0.423972 0.0814832
0.336156 0.436362 0.107515
0.403937 0.457267 0.108995
0.492439 0.492699 0.0631571
0.617014 0.534401 0
0.773129 0.55259 0.0973983
0.970977 0.597467 0.254185
0.186343 0.532799 0.0484474
0.257954 0.541436 0.0706493
0.331167 0.552712 0.102464
0.406348 0.567651 0.145739
0.481117 0.584909 0.177249
0.549004 0.613993 0.189853
0.651667 0.655467 0.169833
0.785077 0.702647 0.112352
0.971542 0.741436 0.307546
0.274388 0.677562 0.0747539
0.34551 0.687861 0.10956
0.42153 0.700099 0.153689
0.498741 0.716487 0.210224
0.570077 0.736156 0.255604
0.644862 0.760815 0.285618
0.718074 0.803159 0.304601
0.841154 0.844892 0.355673
0.996124 0.894881 0.467338
0.419959 0.860395 0.169223
0.488304 0.870069 0.222675
0.567452 0.883558 0.282734
0.63743 0.905928 0.349996
0.712001 0.927169 0.413535
0.773754 0.953155 0.453895
0.835798 0.981567 0.486702
0.932006 1 0.509224
1 1 0.686168
0.00415045 0.0177005 0.070634
0.0560006 0.0209659 0.0963912
0.126238 0.0240635 0.107286
0.205722 0.0266728 0.124895
0.284718 0.0337682 0.125368
0.372747 0.0326085 0.104646
0.468498 0.027039 0.10959
0.580713 0.0319219 0.117968
0.748623 0.0360418 0.0945907
0.00588998 0.0720073 0.111147
0.0506905 0.0636149 0.138811
0.148669 0.0637064 0.132876
0.225772 0.0728466 0.142428
0.318349 0.0855726 0.137545
0.422461 0.0565652 0.111894
0.528679 0.0441291 0.0725261
0.64271 0.0786297 0.0974289
0.80647 0.152285 0.179644
0 0.144854 0.146242
0.0245823 0.13933 0.157641
0.139803 0.135698 0.143053
0.252644 0.143938 0.137346
0.366262 0.152911 0.13022
0.466896 0.157336 0.119738
0.570336 0.171572 0.130282
0.691951 0.202533 0.155932
0.862654 0.272847 0.220615
0.0282597 0.236408 0.127932
0.0643778 0.247364 0.119295
0.146761 0.248554 0.11162
0.249668 0.245884 0.118456
0.369009 0.257649 0.148058
0.497139 0.269657 0.142275
0.623804 0.280995 0.1467
0.752712 0.307607 0.178454
0.921645 0.368826 0.245869
0.037232 0.326131 0.113298
0.125338 0.328283 0.125032
0.198535 0.333333 0.127611
0.266224 0.342199 0.118044
0.361624 0.358572 0.125994
0.483391 0.383612 0.141085
0.635752 0.399786 0.184588
0.78819 0.433295 0.215259
0.978134 0.484871 0.282643
0.112413 0.420829 0.114321
0.184421 0.424628 0.13225
0.252216 0.431373 0.145663
0.325536 0.441932 0.161868
0.389792 0.460533 0.158541
0.4907 0.489647 0.163165
0.626764 0.527459 0.16875
0.791547 0.554086 0.249668
0.993591 0.609964 0.345129
0.188312 0.539818 0.125536
0.256809 0.544305 0.152361
0.323171 0.553033 0.17554
0.396292 0.567468 0.204623
0.467842 0.585199 0.221759
0.53489 0.615061 0.223697
0.651667 0.652537 0.24509
0.798413 0.697536 0.280964
0.987716 0.74905 0.423972
0.28072 0.681956 0.162142
0.347051 0.688075 0.19498
0.414954 0.698421 0.226947
0.485115 0.715541 0.265675
0.55787 0.735592 0.299016
0.624247 0.763592 0.313558
0.712932 0.803525 0.322957
0.846128 0.845075 0.401617
1 0.895918 0.545663
0.431846 0.865629 0.257908
0.493523 0.873854 0.300099
0.554299 0.888334 0.343343
0.626581 0.907698 0.397482
0.695399 0.931014 0.444862
0.755398 0.957 0.476417
0.827237 0.983063 0.500206
0.92401 1 0.563668
1 1 0.745281
0.00515755 0.0333257 0.128664
0.0539864 0.0441901 0.152163
0.126009 0.0386358 0.172763
0.200534 0.0409094 0.183322
0.273472 0.0482643 0.199191
0.365759 0.0397498 0.210513
0.462119 0.0610056 0.21001
0.578012 0.0793317 0.205188
0.742473 0.0866255 0.207492
0.00177005 0.0724651 0.185107
0.0531472 0.0837262 0.189197
0.134508 0.0735485 0.201556
0.231235 0.0565499 0.206149
0.305562 0.0820783 0.21735
0.386206 0.112184 0.227329
0.502495 0.103532 0.220447
0.62649 0.106462 0.212039
0.791272 0.134127 0.231464
0 0.157015 0.197635
0.0616465 0.142138 0.209277
0.116823 0.132509 0.231022
0.235096 0.134615 0.22356
0.335698 0.15349 0.24033
0.449546 0.167697 0.235782
0.559304 0.180346 0.236683
0.688289 0.190188 0.241398
0.85658 0.253788 0.282216
0 0.239277 0.243366
0.0356756 0.239857 0.251301
0.055848 0.23093 0.259968
0.230503 0.225025 0.237415
0.366644 0.247471 0.238056
0.499336 0.271717 0.257298
0.627253 0.284291 0.249699
0.756313 0.310567 0.26453
0.924865 0.371572 0.319951
0.0386511 0.33579 0.229877
0.0747692 0.348119 0.218448
0.115969 0.364218 0.205203
0.225605 0.361929 0.213107
0.357931 0.355383 0.234806
0.501106 0.379583 0.268299
0.649577 0.40621 0.298604
0.801892 0.435294 0.321996
0.981964 0.481788 0.373419
0.0466011 0.441749 0.218036
0.108385 0.449073 0.22002
0.212055 0.452781 0.226978
0.295842 0.462486 0.218387
0.373434 0.473213 0.207355
0.498177 0.489937 0.235416
0.642054 0.521126 0.306249
0.810636 0.555123 0.375845
1 0.625284 0.455802
0.12195 0.560678 0.225391
0.211124 0.563241 0.24033
0.28986 0.56907 0.254063
0.368627 0.580545 0.263142
0.438407 0.598718 0.263767
0.526986 0.620157 0.247669
0.657221 0.650401 0.303319
0.810987 0.692958 0.399329
1 0.758709 0.531533
0.25301 0.697307 0.259388
0.318624 0.701595 0.280705
0.38645 0.709712 0.302693
0.460212 0.723461 0.322469
0.530526 0.743542 0.341085
0.598566 0.771191 0.342779
0.710994 0.80444 0.34078
0.850858 0.844144 0.455863
1 0.89836 0.619959
0.416327 0.879194 0.347295
0.473548 0.88629 0.3776
0.535424 0.897505 0.411048
0.607172 0.914412 0.446693
0.6748 0.936095 0.481346
0.733883 0.962936 0.501778
0.810803 0.982788 0.547616
0.907973 1 0.637095
1 1 0.804669
0.0151827 0.0611276 0.202472
0.0520333 0.0657816 0.221714
0.123812 0.0789654 0.224079
0.209674 0.0576944 0.242481
0.2813 0.0567178 0.258228
0.354406 0.0791791 0.281071
0.471031 0.0569924 0.30222
0.583566 0.100664 0.318868
0.735607 0.161608 0.336736
0.00547799 0.101244 0.246448
0.0497139 0.10367 0.252491
0.115999 0.098085 0.267018
0.21471 0.0821546 0.27776
0.307881 0.0916152 0.269505
0.381735 0.117983 0.297276
0.491997 0.129397 0.313237
0.608179 0.158251 0.329442
0.7729 0.189105 0.351003
0.0231632 0.168902 0.260136
0.0529793 0.145983 0.292683
0.11986 0.151385 0.287907
0.219577 0.150744 0.287831
0.338628 0.126543 0.304051
0.423957 0.166842 0.324605
0.521248 0.207721 0.34461
0.642023 0.245441 0.35993
0.823255 0.275013 0.381399
0 0.258396 0.290211
0.0412757 0.246021 0.317281
0.130617 0.234043 0.30428
0.210651 0.218463 0.326635
0.35111 0.208896 0.348348
0.46746 0.261707 0.364248
0.593286 0.29807 0.382147
0.753491 0.304753 0.35877
0.941192 0.339681 0.356268
0 0.34522 0.351675
0.0136263 0.351019 0.355459
0.100816 0.350744 0.371542
0.221851 0.334524 0.340169
0.336477 0.329839 0.347539
0.500679 0.367926 0.356069
0.659236 0.407233 0.396063
0.800397 0.4374 0.420203
0.975921 0.489601 0.45948
0.0555276 0.452094 0.354543
0.12784 0.463996 0.327871
0.133532 0.480232 0.323171
0.22504 0.488472 0.330129
0.336889 0.484672 0.329595
0.486275 0.483772 0.364279
0.654292 0.52311 0.414466
0.824796 0.56527 0.465934
1 0.634791 0.544091
0.114382 0.580758 0.342123
0.177478 0.584604 0.347082
0.227909 0.596002 0.339986
0.326085 0.604944 0.337697
0.401328 0.616297 0.342092
0.495583 0.625498 0.354314
0.65008 0.646693 0.415641
0.820661 0.694148 0.495903
1 0.768795 0.620417
0.167285 0.726101 0.350912
0.260609 0.726452 0.368719
0.347631 0.730434 0.381888
0.43267 0.74052 0.389181
0.503685 0.758038 0.389776
0.563287 0.781369 0.4103
0.683314 0.803204 0.451255
0.840238 0.839124 0.561883
1 0.89926 0.705287
0.38294 0.90074 0.433494
0.44712 0.904799 0.456245
0.516213 0.912551 0.479454
0.589883 0.925933 0.500374
0.655238 0.945281 0.521874
0.708171 0.966888 0.56054
0.786938 0.981247 0.620356
0.904753 1 0.691524
1 1 0.852094
0.0305028 0.0995193 0.279683
0.0470283 0.0939193 0.300832
0.128893 0.108186 0.298177
0.210956 0.113817 0.302342
0.302113 0.0861982 0.321843
0.378317 0.0884108 0.348302
0.462425 0.130373 0.380621
0.602335 0.11548 0.411093
0.760113 0.179217 0.450904
0.0187686 0.136721 0.313802
0.0378882 0.130037 0.330175
0.120699 0.131914 0.334707
0.210346 0.126909 0.346166
0.303777 0.09514 0.369558
0.398032 0.127565 0.360281
0.485161 0.165194 0.394995
0.62237 0.169253 0.417777
0.767285 0.24097 0.458152
0 0.180316 0.360082
0.0319524 0.164019 0.377325
0.124941 0.18349 0.355093
0.204822 0.17142 0.377508
0.317113 0.164614 0.375387
0.433326 0.147021 0.394263
0.524742 0.203372 0.416785
0.643778 0.243641 0.443412
0.782071 0.327504 0.489311
0.0468299 0.283604 0.353323
0.0743267 0.268452 0.376715
0.148806 0.247669 0.393103
0.198032 0.233982 0.412131
0.331914 0.228199 0.403235
0.454597 0.239185 0.420752
0.56939 0.287327 0.457099
0.700893 0.326619 0.486397
0.884138 0.378012 0.501076
0 0.376089 0.407431
0.0681621 0.368338 0.420356
0.144427 0.349477 0.450752
0.238743 0.332662 0.411536
0.325536 0.320134 0.424765
0.483253 0.336553 0.446632
0.642634 0.376196 0.526833
0.759503 0.455146 0.54464
0.945495 0.506935 0.585351
0 0.473442 0.482429
0.0041352 0.475608 0.481727
0.131792 0.473716 0.497734
0.159457 0.471504 0.533074
0.353338 0.457893 0.449653
0.464469 0.456184 0.479362
0.663127 0.514397 0.499809
0.835966 0.569772 0.55874
1 0.633631 0.624842
0.111421 0.599573 0.492287
0.193027 0.604746 0.472877
0.218051 0.614298 0.470802
0.224857 0.639048 0.443015
0.355261 0.630304 0.484794
0.478569 0.629831 0.460227
0.643427 0.642008 0.521294
0.826139 0.699886 0.600336
1 0.786969 0.701152
0.215518 0.747616 0.482277
0.255726 0.750591 0.483101
0.281163 0.760632 0.478889
0.334264 0.77792 0.456001
0.45127 0.78085 0.479149
0.528023 0.790829 0.510079
0.675151 0.801953 0.536446
0.836332 0.836149 0.650523
1 0.902815 0.78172
0.331395 0.930037 0.528572
0.4047 0.931823 0.538293
0.488228 0.935073 0.554055
0.557885 0.946532 0.568521
0.622965 0.958801 0.5953
0.67686 0.974319 0.631403
0.779858 0.978882 0.689906
0.913634 0.998672 0.740154
1 1 0.897932
0.0514687 0.146899 0.368185
0.0378271 0.135851 0.398077
0.139254 0.147936 0.397925
0.225635 0.175006 0.388205
0.311864 0.161471 0.411322
0.414328 0.130266 0.43592
0.505013 0.146151 0.470314
0.606699 0.204501 0.512444
0.799466 0.21265 0.559716
0.0476387 0.186816 0.403967
0.02916 0.173816 0.430762
0.123125 0.179141 0.431891
0.21883 0.183017 0.437415
0.313573 0.176486 0.449149
0.412451 0.124117 0.489647
0.520897 0.183398 0.479377
0.621439 0.236698 0.523751
0.806729 0.254871 0.562142
0.00909438 0.229175 0.457252
0.0336461 0.216831 0.470695
0.137423 0.225681 0.456977
0.216724 0.220356 0.468788
0.314977 0.206668 0.484443
0.425345 0.185794 0.498451
0.554269 0.200092 0.500084
0.653956 0.267033 0.538476
0.817121 0.317433 0.579568
0.038468 0.315022 0.483528
0.0725109 0.284932 0.51162
0.14583 0.271061 0.514275
0.222492 0.280751 0.494133
0.309987 0.276463 0.503349
0.441962 0.27216 0.491814
0.588083 0.251362 0.535943
0.692317 0.329015 0.57084
0.853193 0.393561 0.615595
0.0456245 0.413214 0.515511
0.0732891 0.400732 0.522713
0.185245 0.379644 0.526604
0.266911 0.355444 0.522652
0.292805 0.336446 0.549905
0.433204 0.325795 0.556893
0.597803 0.37438 0.563821
0.749935 0.425315 0.61706
0.916426 0.50222 0.670604
0 0.521904 0.567422
0.0776226 0.512764 0.570291
0.18172 0.500542 0.578485
0.289235 0.483558 0.573419
0.355688 0.442313 0.547341
0.446418 0.429511 0.572717
0.631037 0.495598 0.578775
0.831632 0.55256 0.680949
0.992172 0.647593 0.744472
0 0.637049 0.650736
0.0371862 0.63447 0.642283
0.180087 0.626154 0.653407
0.228 0.626551 0.676966
0.30544 0.627466 0.684199
0.502953 0.608347 0.590921
0.625101 0.614054 0.646159
0.846937 0.698726 0.683742
1 0.794354 0.778393
0.220249 0.779492 0.650904
0.293294 0.769162 0.662181
0.312703 0.775082 0.652125
0.268299 0.810849 0.586084
0.397681 0.79971 0.639719
0.534737 0.794659 0.647898
0.681437 0.794263 0.644572
0.835843 0.834577 0.74139
1 0.912291 0.848173
0.345785 0.963714 0.650141
0.354467 0.967758 0.646632
0.383444 0.976074 0.636927
0.466011 0.982193 0.64387
0.56669 0.977981 0.698116
0.642893 0.984909 0.721462
0.782177 0.9776 0.757641
0.925826 0.990997 0.820294
1 1 0.949096
0.0889754 0.217639 0.492378
0.0423743 0.202823 0.527474
0.141741 0.211383 0.534401
0.248569 0.232227 0.531823
0.339529 0.250965 0.532677
0.441672 0.229389 0.565072
0.564263 0.184924 0.606394
0.673793 0.242344 0.637461
0.819837 0.325917 0.697475
0.077409 0.256809 0.53463
0.033051 0.241764 0.564691
0.134661 0.245914 0.569558
0.247074 0.255619 0.571008
0.342443 0.257679 0.579263
0.442649 0.244556 0.5991
0.561227 0.178607 0.651987
0.692393 0.263203 0.636072
0.827848 0.345968 0.698955
0.028809 0.302754 0.594308
0.062089 0.291386 0.606973
0.161837 0.294484 0.600946
0.253986 0.294209 0.601221
0.332448 0.279927 0.621897
0.445518 0.27274 0.625864
0.569345 0.237095 0.654124
0.717281 0.273136 0.650233
0.849409 0.364324 0.703197
0 0.361883 0.671153
0.0357214 0.330694 0.689845
0.175555 0.331838 0.666819
0.261173 0.35378 0.623652
0.336126 0.348287 0.625864
0.450217 0.326619 0.638956
0.57319 0.336828 0.626368
0.741009 0.296956 0.68368
0.874205 0.410697 0.720699
0.168551 0.494865 0.640314
0.183902 0.465354 0.662257
0.214527 0.432074 0.678492
0.291844 0.410758 0.663462
0.340627 0.395453 0.659541
0.424262 0.402808 0.650462
0.59028 0.384833 0.649683
0.747753 0.410224 0.698817
0.899336 0.501991 0.755291
0 0.596506 0.711452
0.0947127 0.572778 0.714961
0.221668 0.539773 0.71751
0.343008 0.51838 0.682445
0.380362 0.484718 0.674189
0.425193 0.458961 0.69424
0.578943 0.465782 0.701167
0.775021 0.512474 0.771664
0.985916 0.608103 0.838392
0.0393683 0.710369 0.77496
0.125032 0.696834 0.765316
0.244877 0.68191 0.752468
0.370001 0.666255 0.740597
0.459159 0.619638 0.749722
0.481498 0.588571 0.683909
0.571786 0.602457 0.713848
0.807645 0.691096 0.762478
1 0.808255 0.866163
0.0431678 0.835355 0.845319
0.178668 0.82182 0.838773
0.277623 0.805875 0.845151
0.307286 0.798383 0.859754
0.344076 0.796368 0.883024
0.606897 0.795758 0.800793
0.695903 0.779812 0.769192
0.824811 0.813611 0.84918
1 0.915206 0.913542
0.446128 0.978042 0.883162
0.449256 0.981537 0.856855
0.430945 0.996536 0.810895
0.432975 1 0.775143
0.597025 0.981414 0.850126
0.722744 0.971954 0.852033
0.809339 0.97377 0.840314
0.938384 0.980209 0.908415
1 1 1
0.122576 0.3402 0.722301
0.068452 0.324651 0.750774
0.148531 0.325444 0.763378
0.289021 0.345602 0.758175
0.398138 0.363638 0.760189
0.508385 0.36762 0.776547
0.630533 0.348592 0.818601
0.7738 0.271916 0.899306
0.960769 0.388907 0.888502
0.0856489 0.37583 0.766567
0.0860304 0.364645 0.785
0.189197 0.368978 0.788113
0.30576 0.37438 0.79266
0.406332 0.375891 0.805753
0.511818 0.372702 0.8224
0.632044 0.366186 0.844572
0.777218 0.312016 0.898665
0.971847 0.395926 0.879927
0.0697032 0.423362 0.824903
0.125368 0.414389 0.833036
0.224582 0.417182 0.828275
0.328725 0.425498 0.819898
0.412879 0.415824 0.836606
0.505211 0.399283 0.85922
0.635309 0.393072 0.860563
0.774853 0.360143 0.886885
0.968566 0.388907 0.896941
0 0.465934 0.928161
0.128603 0.462501 0.918364
0.25658 0.465217 0.896696
0.353079 0.484825 0.854032
0.421836 0.477394 0.850095
0.497414 0.462638 0.859892
0.632685 0.435691 0.857252
0.76173 0.445808 0.839582
0.968277 0.40235 0.901976
0.20824 0.586603 0.942199
0.240146 0.546441 0.968383
0.298024 0.529915 0.955993
0.372564 0.542901 0.895262
0.423362 0.522072 0.871687
0.499352 0.519875 0.840589
0.594736 0.495644 0.84889
0.769436 0.480552 0.821241
0.950988 0.500084 0.88719
0.27483 0.720592 0.945891
0.287877 0.68658 0.961776
0.345571 0.653971 0.948989
0.42771 0.613367 0.915328
0.464927 0.570916 0.893217
0.467842 0.540703 0.888808
0.586084 0.54377 0.848463
0.711833 0.530449 0.886275
0.94818 0.626673 0.902266
0.141482 0.829999 1
0.209934 0.790051 1
0.320912 0.750286 1
0.43978 0.727123 0.942214
0.51107 0.69427 0.887663
0.500557 0.635462 0.880339
0.579355 0.609949 0.869139
0.747051 0.662669 0.869307
1 0.760555 0.964248
0.238361 0.959335 1
0.34081 0.934371 1
0.437278 0.906905 0.986267
0.527733 0.871885 0.973632
0.61796 0.833783 0.988891
0.632517 0.786755 0.92076
0.66923 0.7514 0.863127
0.796902 0.805417 0.905943
1 0.907408 0.982849
0.413993 1 1
0.44889 1 1
0.461097 1 1
0.453941 0.991684 1
0.558816 0.990555 1
0.79559 0.980545 0.98146
0.862272 0.96611 0.949386
0.948806 0.974838 0.981445
1 1 1
