subtle niceties LUT V2 beta 3 (SSH-TS reimagined).cube
TITLE "Generated by Resolve"
LUT_3D_SIZE 9
0.00825513 0.00720226 0.00747692
0.0645151 0.0112917 0.013077
0.129686 0.0112459 0.0182193
0.201907 0.00770581 0.0254063
0.280613 0.00242618 0.0385748
0.37052 0 0.0592966
0.479896 0 0.09308
0.626657 0 0.146288
0.945037 0 0.269429
0.0243992 0.071046 0.0139773
0.0767224 0.0738537 0.0170596
0.138888 0.0726482 0.0188144
0.210468 0.0640726 0.0237125
0.291203 0.0446784 0.0316472
0.384405 0.0171054 0.0489357
0.501945 0 0.0850843
0.653788 0 0.144381
0.963989 0.000732433 0.268406
0.0233463 0.141558 0.00520333
0.0827649 0.14435 0.0101015
0.149584 0.144549 0.0116732
0.221607 0.13959 0.00856031
0.302083 0.127642 0.0144961
0.399542 0.108736 0.0321355
0.525048 0.0789654 0.0679942
0.687999 0.0461738 0.130907
0.985718 0.126894 0.26302
0.00944533 0.219379 0.000137331
0.0733349 0.221286 0
0.150225 0.222385 0
0.231601 0.223011 0.000320439
0.320806 0.223087 0.00350958
0.423926 0.223148 0.00531014
0.55259 0.22298 0.0398566
0.71603 0.227481 0.109697
0.997787 0.299443 0.252216
0.000244144 0.304738 0
0.0421302 0.31043 0
0.149584 0.317479 0
0.248493 0.326009 0
0.348501 0.335607 0.000869764
0.457603 0.346166 0.00131228
0.587564 0.361212 0.0167544
0.746044 0.384085 0.0920577
0.997131 0.463554 0.252659
0 0.415274 0
0.0148928 0.426551 0
0.156878 0.438651 0
0.277913 0.452598 0
0.388693 0.468299 0
0.503029 0.487053 0.00602731
0.632471 0.509544 0.0260624
0.781079 0.541527 0.13022
1 0.622049 0.320348
0 0.56437 0
0.0145266 0.579324 0
0.192294 0.594675 0
0.332067 0.610803 0
0.452155 0.629191 0.00015259
0.569299 0.650462 0.039765
0.693004 0.676768 0.16643
0.824598 0.710018 0.282322
1 0.777829 0.45716
0 0.752087 0
0.0916915 0.766995 0
0.296452 0.780575 0
0.436774 0.794751 0.000839246
0.556786 0.809766 0.0729381
0.66862 0.826963 0.242481
0.778241 0.847395 0.381003
0.88159 0.871885 0.501335
1 0.899351 0.604639
0.49221 0.994919 0.148394
0.593118 0.994949 0.299992
0.671748 0.995148 0.399847
0.741878 0.995438 0.485008
0.80029 0.995926 0.554681
0.847547 0.996521 0.604898
0.886809 0.996796 0.629496
0.929412 0.996948 0.642847
0.995865 0.993271 0.633295
0.0297093 0.0223392 0.0739605
0.0859846 0.0247807 0.0759289
0.143374 0.0242924 0.0797131
0.213977 0.0159457 0.0844129
0.293126 0.00479133 0.0910506
0.383108 1.5259e-05 0.103716
0.489967 0 0.125048
0.635218 0 0.173602
0.952224 0 0.293278
0.0401923 0.0878309 0.0637675
0.0948959 0.0901656 0.0714427
0.144915 0.0949722 0.0771191
0.212009 0.0902419 0.0783246
0.292531 0.071397 0.0784772
0.387152 0.037171 0.0925154
0.507317 0.000946059 0.123888
0.66424 0 0.176104
0.972625 3.0518e-05 0.297841
0.0488289 0.152422 0.0587778
0.111513 0.15404 0.073991
0.16321 0.158556 0.0801251
0.226642 0.158068 0.076524
0.305303 0.150118 0.0732128
0.403525 0.13608 0.0881819
0.530922 0.114412 0.120928
0.695186 0.0891737 0.175128
0.994202 0.159991 0.298253
0.0337682 0.227893 0.0299382
0.107622 0.229053 0.0478523
0.171633 0.233539 0.0565347
0.245121 0.239002 0.0651255
0.33051 0.243427 0.0677501
0.43212 0.247044 0.0820783
0.560525 0.251774 0.118807
0.7234 0.261021 0.174975
0.998825 0.325322 0.294743
0.00430304 0.314153 0.00334173
0.0855116 0.320516 0.00378424
0.179248 0.330175 0.018677
0.269688 0.342489 0.0381781
0.36524 0.355337 0.0649882
0.471321 0.369177 0.0880446
0.599207 0.387579 0.124483
0.754543 0.413947 0.184161
0.999725 0.489616 0.315175
0 0.427512 0
0.0594797 0.439841 0
0.194949 0.453956 0.00120546
0.30605 0.469917 0.0197604
0.411826 0.488746 0.0578317
0.522698 0.509483 0.123888
0.648188 0.535225 0.181903
0.791791 0.570016 0.254154
1 0.649561 0.3944
0 0.579553 0
0.0556649 0.595468 0
0.236683 0.611521 0
0.366461 0.629206 0.0114137
0.481575 0.64892 0.0891737
0.594247 0.671473 0.199817
0.713588 0.699428 0.294194
0.838743 0.734188 0.381201
1 0.800427 0.520226
0 0.768933 0
0.168566 0.782956 0
0.343679 0.796613 0.00106813
0.476753 0.810925 0.0981003
0.592584 0.826093 0.245914
0.698466 0.843809 0.360937
0.803021 0.865248 0.47042
0.899443 0.890532 0.57377
1 0.914382 0.647425
0.528237 0.996841 0.268544
0.626368 0.996719 0.379538
0.704524 0.996719 0.465492
0.77052 0.99707 0.540017
0.826246 0.997513 0.601328
0.871031 0.998093 0.645685
0.90779 0.999054 0.669642
0.948699 1 0.68603
0.99913 0.993149 0.690013
0.0576486 0.038407 0.149035
0.111666 0.0404364 0.146029
0.162478 0.040238 0.150225
0.224506 0.0343633 0.152743
0.300237 0.0178073 0.158206
0.390249 0.000610361 0.166125
0.502831 0 0.180987
0.648157 0 0.215045
0.962798 0 0.32549
0.0646983 0.104921 0.131121
0.116274 0.108202 0.130907
0.164874 0.112398 0.141009
0.227451 0.10959 0.147601
0.310399 0.0843824 0.148775
0.406683 0.0394293 0.155352
0.527962 0.00077821 0.175158
0.681437 0 0.21944
0.981765 0.00708019 0.333913
0.0670634 0.169482 0.131334
0.130602 0.169528 0.136431
0.180697 0.173785 0.145464
0.234531 0.179004 0.152102
0.309346 0.177981 0.156435
0.407935 0.169528 0.162524
0.536171 0.154665 0.179095
0.70164 0.140429 0.22446
1 0.196872 0.337041
0.0607309 0.240421 0.116091
0.135454 0.240818 0.131273
0.199756 0.245258 0.149386
0.263127 0.256275 0.162829
0.341009 0.266911 0.17026
0.439536 0.276005 0.18143
0.5673 0.284581 0.201816
0.730022 0.297581 0.240497
0.999481 0.358618 0.34403
0.0243381 0.325948 0.0752728
0.128099 0.333028 0.106584
0.216724 0.342809 0.138643
0.296895 0.358328 0.165454
0.384695 0.375799 0.188556
0.48571 0.394537 0.208606
0.610269 0.416693 0.237171
0.7626 0.446677 0.282124
0.999756 0.5234 0.388708
0.000610361 0.441505 0.0176394
0.118456 0.454185 0.05626
0.238895 0.468299 0.115114
0.339208 0.486915 0.160571
0.438056 0.507927 0.205325
0.543786 0.532052 0.250858
0.664408 0.560311 0.293233
0.80264 0.598093 0.350027
1 0.678553 0.464179
0 0.595285 0
0.133684 0.610986 0.00462348
0.283986 0.627405 0.0865034
0.403174 0.646494 0.17435
0.512505 0.667781 0.247471
0.620249 0.691905 0.317174
0.734707 0.720897 0.390723
0.852705 0.757794 0.463859
0.999298 0.823133 0.57847
9.15541e-05 0.783764 0
0.237018 0.797818 0.0246128
0.391852 0.811215 0.144961
0.516976 0.825986 0.26714
0.62739 0.841917 0.362478
0.72961 0.860014 0.452964
0.828275 0.881605 0.546258
0.917617 0.907332 0.636912
1 0.929625 0.688548
0.564111 0.99823 0.355871
0.660609 0.997879 0.44712
0.735149 0.997864 0.521859
0.79968 0.998093 0.58883
0.853056 0.998596 0.644221
0.894347 0.999512 0.682902
0.931411 1 0.709895
0.97998 0.999573 0.744091
1 0.995041 0.754955
0.0991379 0.0607156 0.231067
0.145525 0.0626535 0.227771
0.189685 0.0632486 0.228489
0.246433 0.0586557 0.232563
0.314412 0.0469368 0.234485
0.401007 0.0182956 0.239536
0.518441 0 0.254078
0.66601 0 0.278645
0.978119 0 0.37734
0.100175 0.127962 0.215579
0.146624 0.130175 0.213138
0.192706 0.132189 0.217731
0.250401 0.130709 0.2271
0.320089 0.121416 0.231296
0.41323 0.0914015 0.238056
0.537224 0.0401007 0.254658
0.700389 9.15541e-05 0.28835
0.996048 0.00241093 0.384146
0.105455 0.187015 0.211383
0.156344 0.188693 0.209216
0.203021 0.192599 0.211688
0.257343 0.197299 0.223377
0.329656 0.19942 0.234012
0.431861 0.189151 0.24477
0.567071 0.162219 0.259098
0.731533 0.140932 0.291569
1 0.220188 0.38822
0.0872206 0.259129 0.207156
0.156359 0.260349 0.212314
0.222156 0.264515 0.22153
0.285908 0.276341 0.237858
0.355993 0.293126 0.255238
0.450034 0.308492 0.272694
0.57554 0.322347 0.295888
0.736904 0.340352 0.331441
0.999847 0.402655 0.421042
0.0627756 0.343618 0.188998
0.16286 0.351308 0.208957
0.249149 0.360845 0.233814
0.329915 0.376287 0.263478
0.408713 0.398718 0.288441
0.50309 0.422415 0.309499
0.62269 0.4495 0.337652
0.771191 0.482689 0.377539
0.999527 0.561028 0.467674
0.0272068 0.458595 0.163592
0.171389 0.471901 0.203387
0.279652 0.486503 0.242237
0.378363 0.504891 0.284001
0.469154 0.529213 0.319158
0.568414 0.555978 0.356786
0.683146 0.587869 0.393225
0.814893 0.627863 0.441917
0.99939 0.709575 0.537591
0.00578317 0.612833 0.122789
0.196185 0.629053 0.191882
0.331044 0.645457 0.254261
0.444755 0.664637 0.311467
0.547127 0.687419 0.364187
0.64918 0.713252 0.419501
0.758251 0.743923 0.481514
0.868681 0.781964 0.543923
0.998306 0.847913 0.639673
0.0695048 0.799786 0.104585
0.300603 0.813489 0.221256
0.440055 0.827024 0.308659
0.559075 0.841199 0.388632
0.66392 0.85771 0.462898
0.761913 0.875669 0.538399
0.855802 0.898253 0.619593
0.936858 0.925063 0.699184
1 0.947524 0.734203
0.605951 0.999084 0.440558
0.695491 0.998886 0.513817
0.768414 0.998779 0.579538
0.83064 0.998993 0.638911
0.881514 0.999603 0.688746
0.920897 1 0.724651
0.967468 1 0.768093
1 0.997406 0.819654
1 0.997024 0.839658
0.150668 0.0918135 0.321477
0.187823 0.092958 0.319493
0.225711 0.0939345 0.319066
0.276204 0.0911574 0.320241
0.339239 0.0820478 0.323781
0.418418 0.0632181 0.325612
0.538079 0.0310216 0.342184
0.706859 0.000991836 0.380423
0.989288 0 0.446693
0.148928 0.153429 0.313344
0.187121 0.155032 0.311131
0.228626 0.156008 0.31191
0.281407 0.154421 0.315831
0.346532 0.147387 0.323552
0.430121 0.136248 0.328847
0.551629 0.109987 0.345312
0.717052 0.0589303 0.377401
1 0.0479591 0.458488
0.148699 0.209995 0.307012
0.189639 0.212222 0.301686
0.233448 0.214847 0.30135
0.288075 0.218753 0.308705
0.358099 0.223331 0.324529
0.447593 0.227619 0.338842
0.575158 0.220737 0.356893
0.744991 0.201953 0.385519
1 0.218463 0.460639
0.140581 0.276799 0.301244
0.193759 0.280507 0.300923
0.251179 0.287251 0.303243
0.31339 0.30013 0.313909
0.385031 0.317205 0.336645
0.476875 0.334462 0.35903
0.605509 0.346395 0.385367
0.772213 0.355962 0.418479
1 0.430488 0.500908
0.110979 0.365301 0.297536
0.193744 0.374868 0.309743
0.274952 0.386175 0.323522
0.357458 0.40119 0.343679
0.436759 0.423667 0.370489
0.524468 0.451759 0.39791
0.638895 0.482612 0.42948
0.782574 0.519509 0.4692
0.999435 0.600702 0.549264
0.0868086 0.480415 0.29102
0.21178 0.494438 0.315785
0.315694 0.509255 0.3449
0.412207 0.527855 0.377981
0.503563 0.551232 0.414816
0.59556 0.581537 0.45008
0.704295 0.616327 0.484489
0.829862 0.658671 0.529473
0.998657 0.741817 0.61149
0.0759899 0.632883 0.286091
0.253162 0.649317 0.329793
0.37499 0.665858 0.372869
0.483986 0.685176 0.41883
0.583749 0.707713 0.465522
0.680629 0.73489 0.512322
0.782879 0.767559 0.565499
0.886244 0.807065 0.620645
0.998123 0.87274 0.700938
0.178683 0.816754 0.300633
0.359792 0.830167 0.367636
0.488533 0.843259 0.429221
0.601328 0.857313 0.491859
0.702846 0.873014 0.554177
0.796078 0.891875 0.618173
0.884153 0.914977 0.688655
0.957641 0.943053 0.758343
1 0.965362 0.781826
0.648615 0.999649 0.520592
0.734325 0.999466 0.581811
0.80322 0.99942 0.637186
0.862989 0.999619 0.689921
0.911437 1 0.734127
0.953063 1 0.774929
0.999893 0.998672 0.837507
1 0.99881 0.90425
1 0.99881 0.90425
0.212543 0.134051 0.428489
0.240848 0.133852 0.426612
0.272923 0.133547 0.425742
0.317235 0.131228 0.425879
0.374472 0.125338 0.42742
0.450416 0.114305 0.432868
0.562539 0.104219 0.446372
0.737819 0.086656 0.491493
1 0.0383459 0.553979
0.210986 0.184436 0.42826
0.240772 0.185122 0.4262
0.276249 0.185229 0.425025
0.323064 0.183871 0.425498
0.382269 0.179889 0.428794
0.462608 0.174105 0.438773
0.574746 0.17052 0.452125
0.742535 0.165576 0.487755
1 0.148379 0.550896
0.20647 0.237247 0.423133
0.238468 0.239521 0.418128
0.277836 0.241489 0.417334
0.330098 0.245457 0.420417
0.396399 0.251774 0.430014
0.482765 0.258808 0.448341
0.597284 0.268345 0.467445
0.758373 0.274022 0.494316
1 0.29221 0.559045
0.196033 0.302281 0.415641
0.238422 0.307897 0.413458
0.289631 0.316121 0.412085
0.350515 0.328618 0.418769
0.42266 0.344915 0.435447
0.511681 0.363958 0.46183
0.626215 0.387304 0.489006
0.781933 0.409873 0.522789
1 0.464195 0.590524
0.182849 0.388998 0.414511
0.247257 0.399939 0.419669
0.31725 0.412467 0.426764
0.392035 0.429541 0.437766
0.469657 0.452537 0.457908
0.557916 0.480262 0.489555
0.669612 0.512169 0.522194
0.81416 0.546258 0.560342
1 0.62536 0.63006
0.161669 0.506783 0.41825
0.258228 0.521996 0.435203
0.350134 0.537636 0.453285
0.444099 0.556252 0.475837
0.535271 0.579141 0.503517
0.626474 0.609201 0.537682
0.72845 0.646342 0.572961
0.846677 0.691035 0.614878
0.99855 0.775464 0.685664
0.166567 0.65745 0.424094
0.30396 0.674006 0.453498
0.416526 0.69044 0.485206
0.521004 0.709331 0.519631
0.618906 0.73138 0.557778
0.71342 0.75816 0.599603
0.809949 0.791867 0.645655
0.905257 0.8327 0.693004
0.998077 0.898985 0.760021
0.26334 0.83566 0.445518
0.418311 0.848341 0.492973
0.537133 0.860548 0.539376
0.644083 0.874296 0.58793
0.74136 0.88954 0.638849
0.830701 0.908034 0.692836
0.913329 0.931762 0.752377
0.978698 0.961273 0.812543
1 0.985748 0.830182
0.694163 0.999924 0.600671
0.773648 0.999802 0.650324
0.838437 0.999802 0.696574
0.894682 1 0.74081
0.939818 1 0.779721
0.990188 0.999298 0.839231
1 0.99881 0.90425
1 0.99881 0.90425
1 0.99881 0.90425
0.302663 0.201297 0.576562
0.320439 0.196078 0.571298
0.345953 0.192721 0.56875
0.383291 0.189502 0.567483
0.434119 0.185672 0.568444
0.504768 0.18056 0.573312
0.612055 0.176852 0.589914
0.769345 0.18851 0.621942
1 0.257481 0.712184
0.299077 0.236225 0.578561
0.317891 0.231586 0.572808
0.344976 0.228733 0.569329
0.383948 0.225971 0.567483
0.437522 0.224552 0.568689
0.512108 0.22472 0.575402
0.619928 0.228092 0.59266
0.771618 0.244282 0.618601
1 0.286336 0.684504
0.29189 0.28101 0.57644
0.313024 0.277363 0.57055
0.344518 0.277699 0.567468
0.3906 0.282368 0.567407
0.451881 0.289326 0.57171
0.53138 0.299474 0.581842
0.640253 0.312825 0.602899
0.785214 0.337301 0.628092
1 0.386023 0.682948
0.279973 0.342077 0.570947
0.308721 0.344274 0.565499
0.35021 0.352529 0.561578
0.406439 0.364721 0.564294
0.474861 0.380468 0.572168
0.559243 0.399939 0.588266
0.669062 0.425025 0.615961
0.807095 0.460319 0.645685
1 0.53109 0.70045
0.266682 0.42768 0.567361
0.311849 0.435431 0.565148
0.369879 0.44892 0.565362
0.438422 0.466163 0.568368
0.514092 0.487602 0.580819
0.601221 0.514275 0.603143
0.707607 0.547417 0.635966
0.835096 0.590204 0.669062
1 0.672709 0.724849
0.255192 0.540948 0.569329
0.327291 0.553109 0.574319
0.405783 0.569467 0.58262
0.489632 0.588891 0.594278
0.574609 0.611826 0.610849
0.663157 0.64123 0.635706
0.76321 0.677623 0.670863
0.874281 0.72253 0.70486
1 0.804608 0.759396
0.261494 0.687846 0.574426
0.365499 0.703273 0.591867
0.463035 0.720241 0.610834
0.560815 0.738781 0.632609
0.655146 0.759594 0.658274
0.747387 0.784909 0.688258
0.839658 0.81825 0.725567
0.925902 0.859892 0.763516
0.998459 0.926421 0.81651
0.348074 0.857816 0.58883
0.478492 0.869703 0.619791
0.587106 0.880934 0.651316
0.688365 0.893187 0.685725
0.781292 0.907347 0.722896
0.866438 0.925032 0.763455
0.943481 0.948913 0.810208
0.991791 0.979339 0.858473
1 0.996414 0.877516
0.742611 1 0.684276
0.814908 0.999969 0.721736
0.873579 1 0.757137
0.924651 1 0.792065
0.978027 0.999802 0.839933
1 0.99881 0.90425
1 0.99881 0.90425
1 0.99881 0.90425
1 0.99881 0.90425
0.439551 0.30602 0.793591
0.450034 0.294743 0.783093
0.468925 0.286427 0.776654
0.497887 0.279652 0.772427
0.540154 0.274388 0.771252
0.602243 0.270649 0.77409
0.697475 0.270329 0.784878
0.835676 0.284245 0.805356
1 0.358648 0.851331
0.429892 0.328954 0.791791
0.44097 0.316793 0.781048
0.459648 0.308049 0.773236
0.489601 0.302052 0.768185
0.533761 0.299413 0.765942
0.598245 0.300313 0.767727
0.693782 0.305745 0.776242
0.831815 0.32108 0.797604
1 0.392508 0.832303
0.419409 0.363226 0.78996
0.432563 0.351568 0.780148
0.454063 0.345678 0.772091
0.488624 0.344762 0.766934
0.538155 0.348287 0.764416
0.607309 0.357076 0.766003
0.704738 0.372229 0.774487
0.838788 0.39823 0.7953
1 0.473869 0.82945
0.405646 0.416052 0.78584
0.423621 0.408881 0.77612
0.451499 0.409033 0.768078
0.49398 0.415549 0.762463
0.551705 0.428 0.759899
0.627817 0.446616 0.762692
0.727184 0.472496 0.773526
0.854871 0.509453 0.796063
1 0.597787 0.827817
0.388449 0.491859 0.77847
0.415793 0.491279 0.768093
0.455558 0.4981 0.759793
0.510323 0.512261 0.752712
0.578653 0.532006 0.753277
0.659464 0.556374 0.759289
0.75816 0.588571 0.773648
0.875669 0.632319 0.797757
1 0.72575 0.828412
0.369467 0.594461 0.768322
0.416739 0.599832 0.760906
0.475456 0.612634 0.756146
0.547173 0.630945 0.754253
0.624765 0.652705 0.755901
0.708827 0.679225 0.765194
0.803128 0.713878 0.782116
0.904707 0.758618 0.805875
0.999969 0.84596 0.835431
0.363058 0.728695 0.756848
0.442618 0.739254 0.757244
0.526329 0.754513 0.761257
0.612848 0.771588 0.76669
0.698665 0.790936 0.775097
0.784176 0.814633 0.787335
0.869841 0.846113 0.805081
0.948287 0.887388 0.828428
0.999756 0.95259 0.861418
0.44593 0.881361 0.744121
0.544396 0.89427 0.758755
0.641352 0.903639 0.773007
0.73225 0.914305 0.788373
0.819806 0.926192 0.806699
0.899123 0.942153 0.827573
0.969665 0.964767 0.854444
0.998535 0.996384 0.88632
1 0.99881 0.90425
0.790524 1 0.77116
0.85185 1 0.794171
0.901015 1 0.81709
0.948943 1 0.845838
0.996826 0.999649 0.899123
1 0.99881 0.90425
1 0.99881 0.90425
1 0.99881 0.90425
1 0.99881 0.90425
0.771145 0.624689 1
0.778714 0.591272 1
0.79028 0.564904 1
0.808118 0.543847 1
0.832242 0.525856 1
0.868086 0.511543 1
0.921309 0.499336 1
0.993729 0.492653 1
1 0.512871 1
0.741238 0.62359 1
0.748608 0.588174 1
0.75819 0.560464 1
0.773846 0.538064 1
0.797757 0.520668 1
0.832334 0.506355 1
0.888334 0.496178 1
0.976333 0.495888 1
1 0.539376 1
0.712154 0.628977 1
0.718593 0.59147 1
0.72932 0.565209 1
0.74699 0.545266 1
0.773602 0.531792 1
0.811597 0.521462 1
0.873549 0.519295 1
0.966384 0.530724 1
1 0.600198 1
0.679072 0.642176 1
0.689097 0.608255 1
0.703593 0.586831 1
0.726177 0.573205 1
0.757229 0.566522 1
0.801022 0.565835 1
0.868162 0.576333 1
0.961318 0.603922 1
1 0.693141 1
0.644816 0.672251 1
0.658915 0.646372 1
0.679622 0.633387 1
0.709575 0.629755 1
0.745434 0.632349 1
0.795926 0.644053 1
0.867353 0.66833 1
0.956832 0.707408 1
1 0.797543 0.988998
0.607462 0.727611 1
0.629465 0.71545 1
0.659373 0.713695 1
0.694682 0.717891 1
0.742901 0.729732 1
0.804456 0.749783 1
0.878279 0.777523 1
0.956603 0.816983 0.971374
1 0.896284 0.934478
0.573144 0.818494 1
0.607477 0.818097 1
0.651225 0.823316 1
0.707988 0.833921 1
0.77203 0.848264 0.993149
0.839918 0.865827 0.974289
0.909941 0.889906 0.940154
0.972473 0.923964 0.908492
1 0.977874 0.905653
0.584344 0.933196 0.996963
0.650889 0.937728 0.99234
0.717357 0.943923 0.983001
0.789624 0.94934 0.95964
0.858076 0.956664 0.93637
0.92311 0.966964 0.914565
0.982238 0.983108 0.896269
1 0.998306 0.896406
1 0.99881 0.90425
0.844785 1 0.902159
0.876173 1 0.905226
0.907256 1 0.911864
0.952209 1 0.90956
0.995468 0.999802 0.906294
1 0.99881 0.90425
1 0.99881 0.90425
1 0.99881 0.90425
1 0.99881 0.90425
