subtle niceties LUT V2 beta 10 (SSH-TS reimagined).cube
TITLE "Generated by Resolve"
LUT_3D_SIZE 33
0.0129091 0.0120699 0.018555
0.030045 0.0126802 0.0193484
0.0421454 0.0149844 0.0184329
0.060914 0.0135653 0.0163882
0.0782635 0.0117647 0.0146029
0.0916304 0.0129244 0.0135805
0.10277 0.0144503 0.0134585
0.11545 0.016022 0.0130007
0.130434 0.0162356 0.0115663
0.146792 0.0161898 0.00944533
0.162951 0.0159915 0.00735485
0.180636 0.0154726 0.00541695
0.198322 0.0150454 0.00381476
0.215595 0.0160067 0.00326543
0.232029 0.0189059 0.00534066
0.249393 0.0220493 0.00766003
0.267872 0.0255131 0.0101625
0.287846 0.0289311 0.0129549
0.309377 0.0325933 0.0158999
0.332036 0.0366979 0.0187533
0.356207 0.0406806 0.0217136
0.383825 0.0459297 0.0252232
0.415595 0.0517433 0.0277104
0.447639 0.0577096 0.0297856
0.4822 0.0625925 0.0318456
0.520821 0.0670329 0.034287
0.562875 0.0706188 0.0374914
0.611566 0.0775006 0.0376287
0.661494 0.107729 0.0568399
0.718471 0.13962 0.0873579
0.784436 0.175738 0.124681
0.865965 0.220249 0.169833
0.998276 0.282063 0.231418
0.0137942 0.029633 0.0186618
0.03093 0.0297246 0.0188449
0.0455329 0.0296483 0.0192111
0.0649424 0.028336 0.0167544
0.0845045 0.0257877 0.0141146
0.100221 0.024445 0.0124819
0.113069 0.0237125 0.0116274
0.127108 0.0235904 0.0105287
0.141863 0.023682 0.00949111
0.156634 0.0242313 0.00717174
0.171817 0.0246128 0.00502022
0.188846 0.0251316 0.00296025
0.205661 0.0254215 0.00161746
0.222904 0.0255894 0.000656138
0.240879 0.0256657 0.000503548
0.259922 0.0258488 0
0.278462 0.0280766 0.00177005
0.297963 0.0316777 0.00489815
0.318685 0.0352941 0.00843824
0.341115 0.0390936 0.0117494
0.364996 0.0434882 0.0150149
0.392416 0.0491951 0.0183108
0.423774 0.054963 0.0212406
0.455756 0.0605173 0.0237888
0.490486 0.0652018 0.0255131
0.530083 0.0695354 0.0265812
0.573083 0.0745251 0.0281987
0.619043 0.094667 0.0391852
0.66804 0.120485 0.0610666
0.724147 0.145266 0.0903944
0.791623 0.183978 0.128374
0.873716 0.227314 0.172732
1 0.289311 0.235218
0.0179599 0.0435645 0.0203555
0.0303502 0.0462959 0.0161593
0.0463417 0.0467536 0.0153506
0.0653849 0.0450752 0.0155947
0.0855879 0.0428473 0.0132296
0.103075 0.0410468 0.0103609
0.114321 0.0413367 0.0111391
0.12874 0.0408331 0.0112459
0.145312 0.039704 0.0100099
0.162295 0.0387884 0.00570687
0.179614 0.0372015 0.00204471
0.198108 0.0350042 0
0.214939 0.0345312 0
0.231724 0.035111 0
0.249073 0.0352178 0
0.26746 0.0355383 0
0.286748 0.0355688 0
0.307362 0.0362554 0
0.328923 0.0385901 0
0.350927 0.0428931 0.00205997
0.374517 0.0484321 0.00495918
0.402106 0.0541085 0.00793469
0.433616 0.0601663 0.0101472
0.465934 0.0655375 0.0117647
0.501381 0.0700389 0.0125429
0.540825 0.0756085 0.0138247
0.581415 0.0927291 0.0261692
0.62565 0.111879 0.0433204
0.674617 0.134966 0.0663005
0.731731 0.163378 0.0986648
0.799222 0.198978 0.136217
0.881422 0.235019 0.176471
1 0.300252 0.241749
0.0247807 0.0569162 0.0204013
0.0348516 0.0607309 0.0142519
0.0467689 0.0632792 0.0120546
0.0637675 0.063035 0.0121462
0.0800641 0.0626535 0.0109712
0.0986496 0.0608682 0.0104219
0.114519 0.0590829 0.0105898
0.13257 0.0571756 0.0113069
0.148791 0.0561379 0.0122072
0.165576 0.0547646 0.00955215
0.183703 0.0535134 0.00337224
0.202945 0.0512856 0
0.221515 0.0484169 0
0.240177 0.0458381 0
0.258274 0.0448615 0
0.276341 0.0459297 0
0.295445 0.0469368 0
0.315801 0.0480354 0
0.337575 0.0497597 0
0.360372 0.0522621 0
0.38436 0.0550546 0
0.412009 0.0602884 0
0.443427 0.0662852 0
0.475761 0.0718547 0
0.509529 0.082414 0.00503548
0.546868 0.096376 0.014374
0.587671 0.11284 0.027924
0.632364 0.132357 0.0468605
0.681926 0.154726 0.0733349
0.739391 0.181857 0.107057
0.806851 0.213794 0.143862
0.892119 0.255772 0.188052
1 0.321355 0.255314
0.0308843 0.0695659 0.018677
0.039292 0.0736553 0.0144656
0.0514229 0.0758373 0.0138247
0.0635538 0.0783093 0.0122835
0.0798199 0.0778058 0.0129549
0.0953384 0.078294 0.0115969
0.114305 0.0756237 0.0115511
0.135195 0.0723888 0.0119173
0.152895 0.0697642 0.0129397
0.168292 0.0691234 0.0135958
0.187335 0.0682078 0.00561532
0.207202 0.0666667 0
0.225986 0.0651713 0
0.244877 0.0632334 0
0.264256 0.0613413 0
0.284169 0.0590066 0
0.304387 0.0578164 0
0.324331 0.0596017 0
0.346014 0.0619059 0
0.368536 0.0644236 0
0.392508 0.0678264 0
0.419867 0.0725567 0
0.450034 0.0796521 0
0.481086 0.0884565 0
0.514504 0.0991684 0.0028687
0.552071 0.112566 0.0133974
0.593149 0.128832 0.0285649
0.638239 0.147677 0.0502785
0.688212 0.170153 0.0780194
0.746212 0.197833 0.112688
0.814649 0.231144 0.151995
0.900786 0.271626 0.197238
1 0.338064 0.266468
0.0362097 0.0831769 0.0208896
0.0438087 0.0871443 0.0182956
0.0547036 0.0897231 0.016907
0.0680247 0.0916457 0.0155642
0.0793317 0.093843 0.0140078
0.0962234 0.0938125 0.0143435
0.113008 0.0942855 0.0113527
0.136858 0.090425 0.011902
0.155169 0.0884871 0.0125124
0.17171 0.0875715 0.0137942
0.190143 0.0869459 0.00863661
0.21088 0.0865949 0
0.230533 0.0861372 0
0.249897 0.0849165 0
0.269337 0.0834058 0
0.289509 0.0813611 0
0.310307 0.0797284 0
0.332204 0.0771038 0
0.355398 0.0750134 0
0.377783 0.078584 0
0.401724 0.0828717 0
0.428977 0.088426 0
0.45922 0.0958572 0
0.489525 0.104753 0
0.521492 0.114992 0
0.5579 0.128038 0.012192
0.59884 0.143389 0.0280461
0.644053 0.162387 0.0493782
0.69456 0.185077 0.0793774
0.753201 0.212879 0.116976
0.822141 0.246159 0.157931
0.909483 0.288289 0.205814
1 0.354559 0.276631
0.0416114 0.0965286 0.0235752
0.0485847 0.100313 0.0217594
0.0566567 0.104219 0.0202029
0.0702983 0.106035 0.0196841
0.0824598 0.108385 0.0184024
0.0962234 0.110811 0.0157321
0.114687 0.111131 0.0148623
0.135363 0.11107 0.0109865
0.156863 0.108583 0.0111696
0.175357 0.106493 0.0121004
0.193408 0.105791 0.00984207
0.214282 0.105592 0
0.234836 0.105135 0
0.254597 0.104829 0
0.274495 0.103944 0
0.294743 0.102647 0
0.315755 0.101991 0
0.337774 0.101396 0
0.361105 0.100862 0
0.385473 0.0998856 0
0.411032 0.0995346 0
0.438697 0.103426 0
0.468727 0.11078 0
0.498772 0.119326 0
0.531136 0.129931 0
0.566873 0.142718 0.00303655
0.60618 0.158343 0.024094
0.650248 0.176867 0.0496376
0.700679 0.198917 0.0795758
0.759411 0.226047 0.117952
0.82887 0.259831 0.161059
0.91754 0.303609 0.213184
1 0.37142 0.286976
0.0487984 0.113558 0.0266575
0.0551003 0.11725 0.0257267
0.0615854 0.121096 0.0251164
0.069337 0.124453 0.0248264
0.0841688 0.125917 0.0242313
0.100938 0.127794 0.0215763
0.116732 0.12987 0.01738
0.137041 0.130129 0.0150912
0.157702 0.130053 0.0104524
0.178393 0.127871 0.00900282
0.197635 0.126162 0.00825513
0.218555 0.125902 0
0.239155 0.12636 0
0.260212 0.126726 0
0.280522 0.12639 0
0.301198 0.125887 0
0.322179 0.12578 0
0.344152 0.126009 0
0.367407 0.126055 0
0.391669 0.126726 0
0.417334 0.12781 0
0.446494 0.129412 0
0.478721 0.131273 0
0.510353 0.135592 0
0.542367 0.145907 0
0.578424 0.15877 0
0.617929 0.17406 0.00784314
0.661387 0.192523 0.0354925
0.709712 0.214298 0.0731212
0.766888 0.241077 0.118303
0.836454 0.274113 0.162783
0.925521 0.317983 0.216785
1 0.388373 0.295918
0.0558175 0.130388 0.0312047
0.0621042 0.13373 0.0301366
0.0683604 0.137255 0.0294347
0.074815 0.140719 0.0286717
0.0865492 0.143496 0.0272679
0.105211 0.145006 0.0242771
0.12163 0.146761 0.020264
0.138918 0.148928 0.016556
0.160113 0.149096 0.0137636
0.181003 0.148241 0.00810254
0.201923 0.146731 0.00523384
0.222156 0.145846 0.00187686
0.242969 0.14583 0
0.264195 0.146563 0
0.285771 0.147265 0
0.30724 0.148013 0
0.328573 0.148135 0
0.350774 0.14818 0
0.373907 0.149035 0
0.39826 0.1505 0
0.42385 0.151751 0
0.452506 0.154757 0
0.484779 0.15848 0
0.516854 0.163104 0
0.551278 0.167895 0
0.589776 0.174075 0
0.629786 0.18883 0
0.673472 0.206912 0.0154269
0.722087 0.228351 0.0547189
0.77847 0.254948 0.106584
0.845212 0.287816 0.161898
0.933242 0.331334 0.219165
1 0.402075 0.298726
0.0644999 0.14667 0.0331121
0.0711681 0.149859 0.0316167
0.0778668 0.152987 0.030045
0.0855879 0.15668 0.0284886
0.0930953 0.160281 0.0272526
0.108598 0.162219 0.0255436
0.125628 0.163928 0.0220645
0.144213 0.16611 0.0173953
0.161486 0.16788 0.0154116
0.182666 0.167849 0.0115816
0.205173 0.16701 0.00537118
0.225895 0.165942 0.00390631
0.246479 0.165652 0
0.267781 0.165835 0
0.289769 0.166644 0
0.3122 0.167605 0
0.334936 0.169451 0
0.356863 0.170031 0
0.379324 0.171145 0
0.402411 0.173617 0
0.427329 0.176135 0
0.456703 0.178912 0
0.49012 0.182361 0
0.522179 0.187762 0
0.556619 0.194125 0
0.59498 0.202152 0
0.637324 0.211078 0
0.684108 0.221881 0
0.73373 0.241184 0.0306249
0.790951 0.267597 0.0870832
0.858076 0.300328 0.148348
0.943786 0.343801 0.216938
1 0.415396 0.299779
0.0753033 0.163638 0.0313726
0.0821241 0.166629 0.0307012
0.0888075 0.169955 0.0299687
0.0965591 0.173495 0.0282444
0.103655 0.17705 0.0272068
0.111498 0.180774 0.0260777
0.129595 0.182361 0.0236667
0.149279 0.184131 0.0197452
0.167224 0.186603 0.0148775
0.184298 0.188449 0.0148013
0.20708 0.188235 0.00994888
0.229664 0.187549 0.00573739
0.250202 0.186938 0.0037232
0.271107 0.186404 0
0.29308 0.18703 0
0.315801 0.187869 0
0.339345 0.18967 0
0.362966 0.191363 0
0.385611 0.193881 0
0.408469 0.195468 0
0.432639 0.198306 0
0.460502 0.202182 0
0.49247 0.207065 0
0.526619 0.210895 0
0.561303 0.217838 0
0.599741 0.226612 0
0.6421 0.237568 0
0.688701 0.249882 0
0.740688 0.26453 0.00607309
0.801801 0.282078 0.0587472
0.870863 0.312032 0.129091
0.956985 0.355383 0.203235
1 0.430304 0.297658
0.0842603 0.182727 0.0327459
0.0933242 0.185412 0.0324865
0.100069 0.188525 0.0316472
0.107469 0.192218 0.0305333
0.114382 0.195666 0.0294041
0.122103 0.199496 0.0281987
0.132342 0.202991 0.0263523
0.152926 0.204791 0.0230106
0.172137 0.20679 0.0182956
0.190494 0.208957 0.0123293
0.208835 0.210437 0.0126802
0.233326 0.210147 0.00827039
0.254749 0.209918 0.00601205
0.275029 0.209491 0.00488289
0.29662 0.209354 0
0.319585 0.209888 0
0.343114 0.211368 0
0.367041 0.213184 0
0.391058 0.215396 0
0.414511 0.219379 0
0.439704 0.221149 0
0.466468 0.225162 0
0.496544 0.23032 0
0.528466 0.235706 0
0.564538 0.241077 0
0.603281 0.24979 0
0.645502 0.261509 0
0.692134 0.275975 0
0.743984 0.292393 0
0.805173 0.311864 0.0347143
0.877211 0.335164 0.109773
0.969985 0.367269 0.183581
1 0.444816 0.285206
0.0897383 0.202213 0.0378576
0.102724 0.20412 0.0367742
0.110597 0.207141 0.0350042
0.117998 0.210712 0.0332799
0.125368 0.21416 0.0311131
0.133547 0.217914 0.0284581
0.141787 0.221897 0.0259098
0.157671 0.224628 0.0224765
0.17792 0.226719 0.0186007
0.196414 0.228809 0.0141451
0.215015 0.23125 0.00926223
0.23534 0.232822 0.0112764
0.258579 0.232563 0.00779736
0.280369 0.232136 0.0061799
0.300816 0.23212 0.00578317
0.323049 0.232273 0
0.346761 0.233127 0
0.37145 0.23444 0
0.395514 0.236912 0
0.419593 0.239902 0
0.445243 0.242985 0
0.471504 0.247791 0
0.501396 0.252155 0
0.531746 0.257618 0
0.565744 0.264057 0
0.605615 0.27129 0
0.648127 0.281971 0
0.694163 0.296712 0
0.746197 0.314351 0
0.806806 0.336049 0
0.878935 0.362539 0.0843977
0.970916 0.394736 0.1776
1 0.45832 0.269352
0.098497 0.221668 0.039292
0.112062 0.223331 0.0376898
0.122148 0.22594 0.035172
0.129274 0.229465 0.0316167
0.136385 0.232746 0.0280613
0.144442 0.236683 0.0262913
0.152728 0.240406 0.0247959
0.162661 0.245106 0.0228428
0.182055 0.247456 0.0204929
0.201678 0.249454 0.0166781
0.221302 0.251774 0.0115053
0.241199 0.254185 0.00842298
0.261204 0.255818 0.0103456
0.284489 0.255436 0.00729381
0.306264 0.255192 0.0061799
0.327474 0.255024 0.00656138
0.350164 0.255283 0
0.374594 0.256367 0
0.399741 0.258244 0
0.424353 0.261097 0
0.449577 0.264378 0
0.477394 0.26833 0
0.506035 0.274556 0
0.53695 0.278401 0
0.56875 0.284825 0
0.606409 0.292699 0
0.650645 0.301244 0
0.696269 0.315236 0
0.746471 0.333349 0
0.80676 0.356039 0
0.879438 0.384054 0.0392767
0.97081 0.420279 0.159258
1 0.482826 0.266102
0.107897 0.241367 0.0346685
0.120668 0.243137 0.0320439
0.131075 0.245655 0.0316167
0.138918 0.249134 0.0305943
0.146685 0.252705 0.0302586
0.154589 0.256184 0.0299077
0.163058 0.260166 0.028687
0.173068 0.264683 0.0266575
0.184878 0.269001 0.0244297
0.205753 0.270878 0.020798
0.226398 0.273014 0.0154116
0.247669 0.275364 0.00802625
0.267399 0.27776 0.00549325
0.288151 0.279011 0.00796521
0.311452 0.279042 0.00611887
0.333623 0.27863 0.00613413
0.355383 0.278721 0.00726329
0.378332 0.279271 0
0.40415 0.28072 0
0.429053 0.283024 0
0.454612 0.286137 0
0.482628 0.289616 0
0.513207 0.294453 0
0.542 0.300221 0
0.573129 0.306111 0
0.608865 0.312963 0
0.649454 0.322377 0
0.697307 0.333227 0
0.747524 0.350332 0
0.80647 0.372839 0
0.876783 0.401862 0
0.968734 0.440513 0.119905
1 0.505776 0.259693
0.113619 0.262699 0.0413214
0.12639 0.264317 0.042298
0.140215 0.266331 0.0424201
0.150225 0.269505 0.04094
0.157092 0.272709 0.0388342
0.165118 0.276646 0.0358129
0.173785 0.280491 0.0321813
0.184009 0.28481 0.0280766
0.195041 0.289403 0.0231327
0.211948 0.29247 0.018204
0.232776 0.294408 0.0147707
0.254551 0.297246 0.0093843
0.274586 0.299947 0.00323491
0.294148 0.302388 0.00425727
0.315297 0.303685 0.00663767
0.339101 0.303441 0.00547799
0.361944 0.303548 0.00614939
0.384054 0.304097 0.00794995
0.407904 0.304448 0
0.434348 0.305837 0
0.459785 0.308629 0
0.487327 0.312566 0
0.517464 0.316747 0
0.547936 0.321065 0
0.57998 0.32668 0
0.612238 0.334905 0
0.651408 0.342397 0
0.695781 0.353307 0
0.74873 0.36669 0
0.805646 0.388602 0
0.87364 0.416953 0
0.964401 0.456611 0.0334936
1 0.523964 0.247349
0.119738 0.284733 0.0490425
0.133425 0.28629 0.0483253
0.14786 0.288396 0.0467384
0.160601 0.290517 0.0442359
0.167514 0.294102 0.0401007
0.175952 0.297902 0.0348669
0.184817 0.301534 0.0291447
0.195636 0.305928 0.0255741
0.206821 0.310475 0.0225986
0.217823 0.315068 0.0195163
0.238422 0.317632 0.0164034
0.260578 0.320104 0.0124819
0.281529 0.322774 0.00740063
0.301732 0.325811 0.000823987
0.321447 0.327901 0.0037232
0.343847 0.329046 0.00494392
0.367773 0.32932 0.00434882
0.391424 0.329152 0.00590524
0.414313 0.329824 0.00852979
0.438453 0.330434 0.00167849
0.465339 0.332265 0
0.493706 0.335531 0
0.523735 0.339696 0
0.553445 0.343908 0
0.584863 0.348821 0
0.620417 0.355032 0
0.655421 0.364797 0
0.698039 0.373297 0
0.74548 0.386145 0
0.805188 0.403677 0
0.872251 0.431449 0
0.958495 0.469718 0
1 0.53901 0.209506
0.127199 0.30695 0.0512398
0.141131 0.308995 0.0486458
0.155795 0.31075 0.044831
0.169986 0.313024 0.039704
0.17792 0.316274 0.037232
0.186892 0.319921 0.0361791
0.195941 0.323598 0.0347601
0.206867 0.328206 0.0322118
0.21767 0.332647 0.0295872
0.228763 0.33727 0.0261387
0.241947 0.34168 0.0217441
0.265965 0.344076 0.016083
0.28864 0.346365 0.00857557
0.30956 0.349126 0.00236515
0.3299 0.352255 0
0.350134 0.354421 0.00192264
0.373404 0.355779 0.00448615
0.397772 0.356237 0.00404364
0.421912 0.35642 0.00604257
0.445594 0.356939 0.0093843
0.469673 0.3579 0.00611887
0.500114 0.359884 0
0.530465 0.363546 0
0.55967 0.367712 0
0.590265 0.37229 0
0.62414 0.378241 0
0.66215 0.384909 0
0.701427 0.396368 0
0.74963 0.405844 0
0.805417 0.421439 0
0.870161 0.445579 0
0.953933 0.482551 0
1 0.551125 0.135912
0.134478 0.33077 0.0545663
0.147997 0.332418 0.0553292
0.16286 0.334508 0.055314
0.178073 0.336904 0.0542611
0.190723 0.339117 0.0521706
0.198749 0.342779 0.0479286
0.207782 0.346853 0.0429389
0.218433 0.351217 0.0366979
0.229999 0.355703 0.0299535
0.241794 0.35996 0.0234836
0.253788 0.364965 0.0199283
0.272099 0.368856 0.0175784
0.294423 0.371603 0.0141604
0.316426 0.374273 0.00839246
0.337835 0.377188 0.00122072
0.358618 0.380087 0
0.379705 0.382559 0.00102235
0.40351 0.383948 0.00411994
0.429206 0.384298 0.00386053
0.453559 0.384771 0.00619516
0.477745 0.38558 0.0100557
0.504555 0.386328 0.00794995
0.536629 0.389227 0
0.566522 0.392584 0
0.597116 0.397101 0
0.630701 0.402228 0
0.667521 0.408591 0
0.707759 0.416724 0
0.752651 0.428855 0
0.807095 0.441306 0
0.869841 0.462364 0
0.950561 0.496712 0
1 0.563241 0.0462348
0.140307 0.355306 0.0661479
0.154894 0.357229 0.0649882
0.170672 0.359045 0.0630198
0.186938 0.361105 0.0602121
0.200763 0.363333 0.0571908
0.210636 0.366796 0.0514076
0.219532 0.37055 0.0443885
0.230701 0.375067 0.0385748
0.242222 0.379553 0.0352178
0.253651 0.384054 0.0312047
0.26598 0.388785 0.026566
0.279164 0.394369 0.0221103
0.300725 0.397345 0.0180056
0.323644 0.399817 0.0118868
0.345907 0.402518 0.0039826
0.36762 0.405768 0
0.388937 0.408576 0
0.410422 0.411688 0
0.43534 0.412833 0.0034638
0.46128 0.413672 0.00469978
0.486351 0.414374 0.00753796
0.513008 0.415396 0.0119478
0.542016 0.416602 0.00846876
0.572931 0.419196 0
0.604135 0.422812 0
0.637705 0.427283 0
0.673213 0.433188 0
0.712871 0.440421 0
0.757855 0.449577 0
0.81001 0.463905 0
0.870741 0.48101 0
0.948699 0.511925 0
1 0.57499 0
0.147692 0.380423 0.0732738
0.163684 0.3823 0.0704509
0.180636 0.384085 0.0665141
0.19585 0.386496 0.0631571
0.210422 0.388388 0.0609751
0.22356 0.391241 0.0592966
0.232273 0.395209 0.0558022
0.24332 0.399741 0.050309
0.254597 0.40441 0.0442664
0.266209 0.408789 0.0371557
0.279088 0.413474 0.0285344
0.293095 0.41854 0.0185702
0.308904 0.423392 0.01355
0.33193 0.426062 0.0119936
0.353628 0.429252 0.0099794
0.375631 0.432349 0.00477607
0.397833 0.435828 0
0.41973 0.438712 0
0.442466 0.441489 0.00138857
0.467872 0.44303 0.00419623
0.49453 0.443931 0.0056611
0.522255 0.444984 0.00917067
0.550744 0.44622 0.0141451
0.578012 0.447868 0.0132448
0.610254 0.450507 0
0.644785 0.453773 0
0.680415 0.4589 0
0.718944 0.465385 0
0.761868 0.473823 0
0.813458 0.48484 0
0.872251 0.502586 0
0.946456 0.528664 0
1 0.587701 0
0.156146 0.408515 0.0835584
0.172625 0.410468 0.0818494
0.188724 0.412238 0.0793317
0.2056 0.414557 0.0756847
0.221241 0.41677 0.0709544
0.236744 0.418845 0.0665751
0.246296 0.422507 0.0598001
0.257191 0.427192 0.0518807
0.268879 0.431449 0.0431373
0.28069 0.436103 0.0389105
0.292973 0.441016 0.0368658
0.306737 0.446311 0.0324102
0.319799 0.451865 0.0276799
0.337606 0.456092 0.0222019
0.361624 0.458625 0.0163424
0.38497 0.461707 0.00814832
0.407935 0.464897 0.0012665
0.430365 0.468681 0
0.452979 0.471809 0
0.475822 0.47483 0.00294499
0.501335 0.47689 0.00793469
0.531014 0.478004 0.0105592
0.560693 0.479332 0.0129549
0.588235 0.480919 0.0166018
0.616236 0.482506 0.0198367
0.650416 0.485313 0
0.686183 0.489021 0
0.725338 0.494087 0
0.768017 0.500999 0
0.816464 0.511101 0
0.872679 0.525704 0
0.945357 0.550011 0
1 0.602152 0
0.16492 0.438987 0.0956588
0.18114 0.440726 0.093492
0.1991 0.442603 0.0903944
0.216709 0.444907 0.0867628
0.23209 0.446967 0.0827955
0.248936 0.449042 0.0769055
0.262333 0.452049 0.073106
0.272984 0.456779 0.0682536
0.284337 0.461418 0.0618296
0.295857 0.465843 0.0545052
0.308659 0.470756 0.0452735
0.322744 0.475853 0.0335088
0.337545 0.481025 0.0191958
0.350668 0.486458 0.0170901
0.371542 0.490105 0.0164645
0.394888 0.493248 0.0143587
0.417975 0.496712 0.0117342
0.440955 0.500389 0.00520333
0.464286 0.504067 0
0.487098 0.507515 0
0.510613 0.510903 0.00679026
0.538949 0.51313 0.0123598
0.570077 0.514961 0.0144198
0.598856 0.516503 0.0174411
0.627482 0.518486 0.0204471
0.657893 0.52018 0.023682
0.693233 0.523262 0
0.730755 0.527001 0
0.772152 0.532555 0
0.819043 0.54078 0
0.873289 0.553231 0
0.943297 0.57348 0
1 0.618921 0
0.173144 0.468193 0.10724
0.190738 0.470451 0.105165
0.209247 0.472206 0.102037
0.226642 0.474372 0.099855
0.243244 0.476478 0.0966659
0.259892 0.478798 0.0921035
0.276585 0.481025 0.0858167
0.288121 0.485847 0.072694
0.299336 0.490181 0.0607004
0.311559 0.494697 0.0486763
0.324285 0.49955 0.045716
0.338018 0.504921 0.0433814
0.351385 0.510277 0.0400702
0.364858 0.515663 0.0348058
0.378531 0.521324 0.028275
0.403388 0.524239 0.0210269
0.427817 0.527504 0.0172274
0.451987 0.530617 0.0121767
0.475349 0.534539 0.0055848
0.49865 0.538949 0
0.521141 0.542733 0.0065156
0.546654 0.546807 0.0183719
0.577707 0.548775 0.021912
0.607385 0.551049 0.0220951
0.637522 0.552544 0.02327
0.668284 0.554955 0.0255589
0.700404 0.557137 0.0265812
0.737148 0.56054 0
0.776593 0.56466 0
0.822278 0.571115 0
0.875013 0.581323 0
0.941787 0.59794 0
1 0.637278 0
0.1832 0.499001 0.119173
0.20119 0.500923 0.117021
0.219333 0.503029 0.114382
0.238483 0.50518 0.110796
0.255009 0.507088 0.106966
0.272343 0.509407 0.102235
0.28983 0.511635 0.0962997
0.30457 0.515419 0.0907454
0.315953 0.520073 0.0825666
0.327276 0.524788 0.0746319
0.340124 0.529641 0.0650339
0.353979 0.534874 0.0542458
0.368185 0.539956 0.0419013
0.381857 0.545434 0.0370336
0.395285 0.55111 0.0342107
0.411841 0.556252 0.0319524
0.436988 0.559167 0.0296178
0.461128 0.562936 0.026688
0.485985 0.566629 0.0215
0.509972 0.570611 0.0138247
0.533379 0.575021 0.00701915
0.557977 0.579538 0.0168307
0.58436 0.584222 0.034287
0.614878 0.586404 0.0352483
0.64625 0.588205 0.0330358
0.67834 0.590219 0.0321813
0.710582 0.593194 0.0316625
0.744839 0.596155 0.0294499
0.78294 0.599496 0
0.826474 0.603845 0
0.876585 0.612055 0
0.940307 0.625422 0
1 0.657176 0
0.194415 0.532097 0.13193
0.212284 0.533989 0.129885
0.232273 0.535851 0.12694
0.25066 0.538247 0.12401
0.268177 0.540169 0.121019
0.286107 0.542657 0.117205
0.303334 0.54461 0.112215
0.322621 0.547799 0.104524
0.333349 0.552331 0.0913405
0.345068 0.557137 0.0763256
0.357778 0.561913 0.0709544
0.37174 0.567315 0.0669718
0.385458 0.572534 0.0606546
0.399145 0.577996 0.0534218
0.413184 0.583124 0.0438697
0.427634 0.58912 0.0361028
0.447822 0.593439 0.0359655
0.473198 0.596948 0.0355535
0.497337 0.600702 0.0361791
0.521324 0.60499 0.0356451
0.545235 0.609339 0.0310521
0.571176 0.614359 0.0233463
0.596689 0.619287 0.0366369
0.622034 0.624018 0.0540169
0.653162 0.626703 0.0545052
0.686763 0.628809 0.0489509
0.720592 0.631266 0.0446632
0.755489 0.63447 0.0399481
0.792218 0.63801 0.0324559
0.832792 0.641733 0.018677
0.879973 0.646418 0
0.940368 0.656474 0
1 0.680934 0
0.205783 0.56733 0.145541
0.226459 0.569223 0.143191
0.245594 0.571328 0.140612
0.265141 0.573343 0.137316
0.283009 0.575525 0.133791
0.301335 0.577417 0.129168
0.319738 0.579751 0.123812
0.339559 0.582361 0.118395
0.353246 0.586923 0.108064
0.364355 0.591485 0.0973373
0.37702 0.596475 0.0857557
0.391058 0.601526 0.0718547
0.404761 0.606836 0.065919
0.418448 0.612329 0.0650797
0.432105 0.617899 0.062562
0.44593 0.623682 0.0590066
0.459846 0.62974 0.0556191
0.48336 0.633646 0.0550698
0.509285 0.637201 0.054902
0.534279 0.640925 0.0542763
0.557549 0.645563 0.055787
0.583673 0.650355 0.0565194
0.611032 0.656031 0.0500496
0.634882 0.661158 0.0654612
0.660319 0.666209 0.0844282
0.694011 0.669062 0.080415
0.729274 0.671763 0.0712444
0.765057 0.6748 0.0621653
0.802396 0.678508 0.0502022
0.84239 0.681926 0.0397803
0.8869 0.684627 0.0550393
0.941161 0.691005 0.049897
1 0.708965 0.0798657
0.221347 0.605097 0.159625
0.240742 0.606943 0.157534
0.261601 0.608942 0.154757
0.281712 0.610925 0.151415
0.299611 0.612863 0.147951
0.319112 0.615045 0.143435
0.336873 0.617121 0.138537
0.358343 0.619989 0.131334
0.373983 0.623468 0.121614
