subtle niceties LUT V2 beta 11 (SSH-TS reimagined).cube
TITLE "Generated by Resolve"
LUT_3D_SIZE 33
0.0171511 0.0155642 0.0246433
0.0333867 0.0166018 0.0231785
0.0449531 0.0175937 0.024979
0.0579995 0.0193942 0.0235752
0.0815137 0.0156405 0.019028
0.0982376 0.0142672 0.0158541
0.109163 0.0159152 0.0150607
0.121202 0.0169985 0.0145113
0.135164 0.0179751 0.0130617
0.150637 0.0179446 0.0111849
0.166537 0.0179446 0.00917067
0.183825 0.0180056 0.00698863
0.201175 0.0178073 0.00546273
0.218692 0.0176852 0.00386053
0.236439 0.0184329 0.00347906
0.253697 0.0213779 0.00567636
0.271763 0.0245975 0.00849927
0.291203 0.0282444 0.0111238
0.311971 0.0318914 0.0140841
0.334447 0.0357977 0.0171054
0.358282 0.0397498 0.0204166
0.384848 0.045243 0.0235294
0.415427 0.0507362 0.0263218
0.447639 0.0563821 0.0286717
0.482048 0.0611582 0.0311284
0.519417 0.0654002 0.0339055
0.559945 0.0684367 0.0374456
0.607691 0.0765545 0.0366979
0.65655 0.105394 0.0552987
0.711131 0.134249 0.0822614
0.775296 0.167636 0.115785
0.853742 0.21059 0.157717
0.971618 0.265232 0.212177
0.018616 0.0314794 0.0255741
0.0340581 0.0332952 0.0217288
0.0482338 0.0334173 0.0217746
0.0653849 0.0329137 0.0201114
0.086656 0.0303044 0.0168612
0.103365 0.0285801 0.0142977
0.117327 0.0272831 0.0128176
0.132555 0.0258488 0.0105135
0.14847 0.024506 0.00799573
0.162844 0.0247349 0.00590524
0.177172 0.0255741 0.00434882
0.193301 0.0264439 0.00215152
0.209491 0.027039 0.00164797
0.226184 0.0274968 0.00148013
0.243565 0.0276799 0.00180056
0.262043 0.0279698 0.00163272
0.281849 0.0281376 0.000595102
0.301183 0.030808 0.00306706
0.321492 0.0341955 0.00666819
0.343542 0.0381781 0.00991836
0.367025 0.0428931 0.0130159
0.393545 0.0483253 0.0164645
0.423789 0.0541543 0.0192721
0.45623 0.0595712 0.0215305
0.490913 0.0640726 0.023209
0.529427 0.0681315 0.0240787
0.570932 0.0743572 0.026276
0.614893 0.094728 0.0389715
0.66305 0.11812 0.0589456
0.716762 0.139696 0.0850996
0.782086 0.177066 0.120027
0.861585 0.218021 0.160372
0.980316 0.275837 0.217456
0.0206455 0.0473335 0.0215457
0.0337377 0.0497749 0.0176242
0.0500191 0.0501259 0.0169223
0.0671855 0.049073 0.0169833
0.0861982 0.0476234 0.0155795
0.102739 0.0464179 0.0128939
0.115908 0.0458228 0.0129397
0.131945 0.0445106 0.0123751
0.150347 0.0419318 0.0103761
0.16791 0.0392615 0.00703441
0.185321 0.0373541 0.00260929
0.203525 0.0347295 0
0.219547 0.0350652 0
0.235309 0.0358282 0
0.25214 0.0364996 0
0.270069 0.0369116 0
0.289006 0.0376593 0
0.309041 0.0383764 0
0.330678 0.039765 0
0.353185 0.0426337 0
0.376638 0.0479744 0.00248722
0.403265 0.0532692 0.00550851
0.433738 0.0594492 0.00753796
0.466316 0.0644541 0.00921645
0.501518 0.0695811 0.0103914
0.538857 0.0781872 0.0150759
0.578286 0.0939956 0.0263828
0.621561 0.112047 0.0420539
0.669993 0.133913 0.0635843
0.72491 0.15967 0.0924392
0.790173 0.192645 0.126665
0.869154 0.225666 0.16405
0.988907 0.285298 0.221988
0.0276036 0.0607919 0.0195163
0.0386206 0.0639811 0.0148165
0.049897 0.0665446 0.0129549
0.0662242 0.0662394 0.0139773
0.0842298 0.0654917 0.014023
0.0999161 0.064744 0.0140078
0.116213 0.0629587 0.0134127
0.134859 0.0605936 0.0140688
0.152026 0.0588998 0.01355
0.170077 0.0557565 0.0116426
0.188693 0.0535592 0.00582895
0.207507 0.051545 0
0.225834 0.0487984 0
0.244083 0.0463874 0
0.261784 0.045182 0
0.279377 0.0467079 0
0.297978 0.048127 0
0.317754 0.0496529 0
0.338857 0.0519265 0
0.361364 0.0541238 0
0.385367 0.0570993 0
0.412314 0.060853 0
0.442802 0.0663157 0
0.474708 0.0737621 0.000228885
0.508476 0.0843214 0.00569162
0.544808 0.0974136 0.0141299
0.584588 0.112688 0.0263371
0.628397 0.131075 0.043183
0.67744 0.152041 0.0674601
0.732982 0.177111 0.0982071
0.798215 0.207462 0.132403
0.880217 0.245411 0.172519
1 0.302464 0.230945
0.0341497 0.0735637 0.019379
0.0429084 0.0780499 0.0150454
0.0547189 0.0802319 0.0147555
0.0652171 0.0830396 0.0138857
0.0834363 0.0822614 0.0151522
0.0989548 0.082002 0.0144503
0.116533 0.0800641 0.013962
0.13698 0.0767071 0.0144961
0.154772 0.074342 0.0152743
0.172274 0.0722057 0.0147097
0.191516 0.0698405 0.00943008
0.211139 0.0686198 0.000915541
0.229984 0.0673228 0
0.248676 0.0654612 0
0.267704 0.0637217 0
0.287495 0.0612802 0
0.30782 0.0588998 0
0.327245 0.0610971 0
0.347967 0.0637217 0
0.370138 0.0666361 0
0.394125 0.0703899 0
0.420249 0.0749828 0
0.449729 0.0819715 0
0.480598 0.090547 0
0.513954 0.100664 0.00228885
0.550683 0.112947 0.0118715
0.590845 0.127977 0.025452
0.635004 0.145769 0.0445563
0.684352 0.167025 0.0687572
0.740551 0.192676 0.100816
0.806714 0.223697 0.137224
0.889494 0.261433 0.180026
1 0.319722 0.239689
0.0389868 0.0869001 0.0224155
0.0472572 0.0909438 0.018967
0.0580453 0.0936141 0.017731
0.0704814 0.0957198 0.0166934
0.0816663 0.0979629 0.0155489
0.0995193 0.0974136 0.0162356
0.117098 0.0974899 0.0138399
0.138277 0.0952621 0.0141299
0.156893 0.0931106 0.0147402
0.174334 0.0917067 0.0155337
0.192462 0.0899825 0.0147097
0.213855 0.0893416 0.00241093
0.233783 0.0886702 0
0.252872 0.0873274 0
0.272175 0.085771 0
0.29221 0.0841688 0
0.312779 0.0826276 0
0.334554 0.0799573 0
0.357305 0.0781415 0
0.379721 0.0799573 0
0.403479 0.0847639 0
0.429679 0.0902571 0
0.459129 0.0969863 0
0.489845 0.10573 0
0.521843 0.115343 0
0.55697 0.127352 0.00906386
0.596887 0.141619 0.0224002
0.641184 0.159152 0.0411536
0.691051 0.180575 0.0668803
0.748119 0.206165 0.101823
0.814771 0.236973 0.139788
0.89839 0.276051 0.18436
1 0.3346 0.246647
0.0442817 0.100633 0.0254215
0.051667 0.104463 0.0231022
0.0601205 0.108385 0.0211795
0.0726482 0.110323 0.0208438
0.0855268 0.112596 0.0195773
0.0997787 0.114839 0.0170291
0.118349 0.115007 0.0166323
0.137591 0.115465 0.0129091
0.158267 0.113024 0.0131838
0.177356 0.110689 0.0140078
0.195544 0.108919 0.0147707
0.216052 0.108858 0.00415045
0.237171 0.108293 0
0.256901 0.107713 0
0.276967 0.106813 0
0.297017 0.106004 0
0.317968 0.10515 0
0.339818 0.104372 0
0.362799 0.103639 0
0.386969 0.102846 0
0.412573 0.102525 0
0.439841 0.104448 0
0.468971 0.111589 0
0.499474 0.119768 0
0.532036 0.129671 0
0.567193 0.14139 0
0.605692 0.155657 0.0146029
0.648371 0.172808 0.0377203
0.697902 0.193271 0.0623789
0.75494 0.21825 0.0973373
0.822263 0.249317 0.138231
0.907286 0.289647 0.186923
1 0.349264 0.252155
0.0511025 0.117037 0.0287633
0.0577401 0.120684 0.0276036
0.0645304 0.124392 0.0263523
0.0723735 0.127565 0.0256657
0.0877241 0.129244 0.0250553
0.104005 0.131258 0.0225834
0.119539 0.13315 0.0184482
0.139254 0.133532 0.0165408
0.159426 0.133425 0.0119936
0.180148 0.131304 0.0104829
0.200015 0.128756 0.0106203
0.220401 0.12871 0.00291447
0.24097 0.128542 0
0.261631 0.129229 0
0.282124 0.128847 0
0.302815 0.128588 0
0.323766 0.128466 0
0.345647 0.128283 0
0.368505 0.128344 0
0.392645 0.129183 0
0.418418 0.130098 0
0.446769 0.131441 0
0.478431 0.132525 0
0.511345 0.134813 0
0.54342 0.144289 0
0.578912 0.155947 0
0.617792 0.170138 0
0.660655 0.186877 0.0174258
0.708553 0.206897 0.0499886
0.763455 0.231373 0.0927749
0.8309 0.261692 0.134554
0.916091 0.301595 0.184787
1 0.363485 0.255665
0.0579232 0.133013 0.0328527
0.0645151 0.13666 0.0316167
0.0703746 0.139986 0.0310521
0.0768444 0.143542 0.0303349
0.0904555 0.145922 0.0287022
0.108415 0.147494 0.0256809
0.124407 0.149401 0.0221561
0.141344 0.151644 0.0182956
0.161669 0.151797 0.0152895
0.182605 0.15108 0.00991836
0.204089 0.149523 0.0065919
0.224292 0.148211 0.00460822
0.244678 0.148119 0
0.265446 0.148775 0
0.286931 0.149248 0
0.308446 0.14995 0
0.329885 0.149874 0
0.351812 0.150317 0
0.374655 0.151141 0
0.398642 0.152285 0
0.424323 0.15407 0
0.452323 0.156359 0
0.483589 0.160143 0
0.516594 0.163485 0
0.551568 0.16759 0
0.58999 0.171679 0
0.629938 0.183368 0
0.67306 0.19968 0
0.721325 0.219394 0.0256504
0.776379 0.243412 0.0689097
0.841627 0.27335 0.124804
0.925383 0.312734 0.181338
1 0.375738 0.255482
0.0670024 0.149279 0.0341955
0.0733654 0.152483 0.0327306
0.0797589 0.155581 0.0316167
0.08748 0.159289 0.0305791
0.0951553 0.163073 0.0294194
0.11133 0.164797 0.0272984
0.128542 0.166369 0.0241245
0.146395 0.168719 0.0193179
0.163256 0.170718 0.0171511
0.184619 0.170474 0.0134737
0.206989 0.169772 0.00688182
0.228321 0.168566 0.00476081
0.248356 0.168154 0.000244144
0.269306 0.168383 0
0.290837 0.168963 0
0.3131 0.16997 0
0.335683 0.171664 0
0.358022 0.17203 0
0.38056 0.172885 0
0.403922 0.174731 0
0.42858 0.177646 0
0.457084 0.180117 0
0.489021 0.183749 0
0.521462 0.189151 0
0.556298 0.194568 0
0.5944 0.201083 0
0.636515 0.208133 0
0.683406 0.216205 0
0.734218 0.231144 0
0.789975 0.254734 0.0393378
0.855558 0.284077 0.100328
0.938338 0.323201 0.168948
1 0.388708 0.254627
0.0777142 0.166293 0.0337377
0.0840772 0.169207 0.0328069
0.0909743 0.172625 0.0317998
0.0982071 0.176104 0.0307622
0.10576 0.179904 0.0294957
0.114397 0.183398 0.028336
0.132662 0.185061 0.0260471
0.151446 0.186892 0.0222171
0.168811 0.189212 0.0177462
0.186007 0.19089 0.0167239
0.208927 0.190921 0.0118257
0.231907 0.190097 0.00616464
0.252338 0.189578 0.00408942
0.27277 0.188968 0
0.294347 0.189624 0
0.316793 0.190524 0
0.340139 0.191867 0
0.363699 0.193729 0
0.387335 0.195575 0
0.409888 0.19733 0
0.434241 0.199908 0
0.461082 0.203357 0
0.491966 0.208225 0
0.525948 0.21207 0
0.560388 0.218677 0
0.598428 0.226429 0
0.640314 0.235935 0
0.687022 0.246326 0
0.739467 0.258412 0
0.80029 0.271458 0.0105898
0.869612 0.294102 0.0654154
0.953002 0.332982 0.143374
1 0.402548 0.245502
0.0861677 0.185077 0.0357061
0.0949722 0.187869 0.0352178
0.101732 0.190982 0.034287
0.10898 0.194629 0.0331884
0.116258 0.198169 0.0319219
0.123964 0.202075 0.0305638
0.135271 0.205325 0.0285191
0.155184 0.207141 0.0249943
0.174151 0.209049 0.0202029
0.192508 0.2112 0.0140536
0.210651 0.212818 0.0146944
0.235126 0.212696 0.00970474
0.25684 0.212268 0.00665293
0.277012 0.211994 0.00491341
0.298283 0.211582 0
0.320577 0.212467 0
0.343999 0.213535 0
0.368154 0.215106 0
0.392294 0.217273 0
0.416083 0.220783 0
0.441352 0.222431 0
0.466728 0.226429 0
0.496254 0.231052 0
0.52842 0.236408 0
0.563745 0.242008 0
0.601419 0.250324 0
0.642969 0.260624 0
0.689403 0.27303 0
0.741894 0.28716 0
0.802319 0.302892 0
0.873549 0.321996 0.0466926
0.965042 0.346487 0.114137
1 0.414908 0.224475
0.092668 0.204288 0.0400854
0.105379 0.206271 0.0388952
0.11252 0.209522 0.0369726
0.119844 0.212924 0.0349737
0.127611 0.216663 0.0326238
0.135714 0.220325 0.0299687
0.143923 0.224125 0.0272068
0.160021 0.226902 0.0250095
0.179583 0.228946 0.0215152
0.19794 0.231067 0.0171359
0.216861 0.233539 0.0117494
0.236637 0.235325 0.01355
0.260273 0.23505 0.00921645
0.281819 0.234684 0.00694286
0.302419 0.234516 0.0059205
0.324422 0.234668 0
0.347707 0.235142 0
0.372229 0.236316 0
0.396368 0.238453 0
0.420432 0.241535 0
0.445914 0.24448 0
0.47158 0.249287 0
0.501137 0.252964 0
0.531655 0.258396 0
0.565347 0.264714 0
0.604013 0.271611 0
0.644999 0.28188 0
0.690455 0.295033 0
0.742412 0.310796 0
0.802594 0.32929 0
0.873899 0.351278 0.0283207
0.96524 0.377218 0.113588
1 0.431022 0.206241
0.102495 0.223285 0.0402838
0.115358 0.224857 0.0384375
0.124224 0.227481 0.0355535
0.131411 0.231174 0.0318303
0.138979 0.234958 0.0305486
0.14667 0.238788 0.0291752
0.154696 0.242603 0.0278935
0.164065 0.247074 0.0260166
0.183612 0.249363 0.0234684
0.203418 0.251133 0.0197604
0.223026 0.253712 0.0143587
0.242557 0.256321 0.0108949
0.262989 0.257694 0.0121004
0.285878 0.257252 0.00854505
0.307668 0.257023 0.00688182
0.32842 0.257099 0.00672923
0.351019 0.257221 0
0.375143 0.258213 0
0.400732 0.259602 0
0.425361 0.26247 0
0.450401 0.265599 0
0.477638 0.269169 0
0.505425 0.275456 0
0.537057 0.279103 0
0.568399 0.285588 0
0.605158 0.292714 0
0.647547 0.301091 0
0.691569 0.314183 0
0.742123 0.330694 0
0.800748 0.350622 0
0.872297 0.374838 0
0.962737 0.405127 0.0962692
1 0.45716 0.204776
0.112383 0.242695 0.0339361
0.124529 0.244358 0.0349737
0.13402 0.247272 0.0346838
0.141466 0.250675 0.0340276
0.149142 0.254337 0.0337835
0.156832 0.257984 0.0330053
0.165164 0.262043 0.0315251
0.17464 0.266407 0.0294194
0.186496 0.270573 0.0271305
0.20763 0.272419 0.0231785
0.228321 0.274647 0.0173037
0.249287 0.277028 0.00979629
0.268818 0.279332 0.0084535
0.289158 0.280766 0.010193
0.312428 0.280858 0.00776684
0.334615 0.280552 0.00695811
0.356222 0.280735 0.00749218
0.379171 0.280888 0
0.404227 0.282261 0
0.429969 0.284016 0
0.455421 0.286976 0
0.482918 0.29044 0
0.512596 0.295003 0
0.542062 0.300572 0
0.57232 0.306905 0
0.607095 0.313222 0
0.646601 0.322148 0
0.693111 0.33254 0
0.742031 0.348562 0
0.799817 0.368734 0
0.86865 0.394186 0
0.958404 0.427451 0.0497902
1 0.480522 0.198734
0.117464 0.263783 0.0442054
0.130327 0.265644 0.0448157
0.143908 0.267277 0.0446632
0.152514 0.270771 0.0427558
0.15964 0.274556 0.0402838
0.167422 0.278264 0.0372015
0.176074 0.282124 0.0333715
0.186099 0.28632 0.0291142
0.196612 0.290761 0.0244297
0.213367 0.294087 0.0215305
0.234302 0.296056 0.018265
0.255711 0.298924 0.0129091
0.275731 0.30161 0.00640879
0.294942 0.303807 0.00759899
0.316396 0.304814 0.00910964
0.340032 0.304921 0.00717174
0.362631 0.305241 0.00712596
0.384741 0.305531 0.00833143
0.408194 0.305837 0.000137331
0.434089 0.307271 0
0.460304 0.309545 0
0.487358 0.313054 0
0.516716 0.31725 0
0.547463 0.321645 0
0.579629 0.327169 0
0.611048 0.335042 0
0.649256 0.342306 0
0.69163 0.352697 0
0.742718 0.36553 0
0.798154 0.385504 0
0.864866 0.411002 0
0.951827 0.445457 0
1 0.499763 0.179995
0.123934 0.285466 0.0501869
0.137331 0.287297 0.0492256
0.151598 0.289143 0.0474098
0.162631 0.291676 0.0444953
0.169818 0.295445 0.0399481
0.178256 0.299123 0.0344701
0.18706 0.302922 0.0315099
0.19733 0.30724 0.0290074
0.208011 0.311742 0.0258946
0.218753 0.316411 0.0231785
0.23978 0.318975 0.0199893
0.26186 0.321447 0.0158236
0.282551 0.324132 0.0107118
0.30251 0.327016 0.00367742
0.322103 0.329015 0.00619516
0.34435 0.330404 0.00737011
0.368231 0.330541 0.00605783
0.391546 0.33077 0.00682078
0.414511 0.330983 0.00894179
0.438148 0.331746 0.00337224
0.465339 0.33344 0
0.493645 0.335866 0
0.522652 0.339956 0
0.552972 0.344106 0
0.584649 0.349096 0
0.618982 0.3552 0
0.653269 0.364706 0
0.694911 0.372549 0
0.74165 0.384863 0
0.797284 0.401358 0
0.862211 0.426474 0
0.945556 0.460548 0
1 0.517174 0.128496
0.131151 0.307881 0.0509651
0.145525 0.309545 0.047837
0.159518 0.311299 0.0439155
0.172244 0.31371 0.0423743
0.180697 0.31722 0.0399786
0.189166 0.320958 0.0391394
0.198016 0.324559 0.037583
0.208576 0.329198 0.0349279
0.218967 0.333608 0.0321355
0.229984 0.338247 0.0282902
0.243946 0.342535 0.0237278
0.267521 0.344854 0.0180972
0.28983 0.347265 0.0116732
0.31017 0.350103 0.0059968
0.330419 0.35314 0.00077821
0.350591 0.355444 0.00515755
0.373495 0.356847 0.00679026
0.397925 0.357031 0.00601205
0.421683 0.357305 0.00709545
0.445243 0.357885 0.00979629
0.469642 0.358816 0.00656138
0.498833 0.360601 0
0.529397 0.363455 0
0.558938 0.367819 0
0.589487 0.372381 0
0.622995 0.37792 0
0.659709 0.384649 0
0.69868 0.39527 0
0.745815 0.4047 0
0.798184 0.419318 0
0.859937 0.441718 0
0.940703 0.474998 0
1 0.531426 0.0330663
0.138018 0.331014 0.0565347
0.151598 0.332753 0.057023
0.166079 0.33489 0.0568093
0.181155 0.336904 0.0555428
0.192828 0.339666 0.052781
0.20087 0.34345 0.0484627
0.209857 0.347295 0.0432288
0.220142 0.351736 0.0371557
0.231373 0.356069 0.030396
0.242893 0.360601 0.0253452
0.254627 0.365652 0.0236362
0.27332 0.36936 0.0214542
0.295384 0.371832 0.0178225
0.316854 0.374533 0.0119478
0.338293 0.377584 0.00460822
0.359014 0.380331 0
0.379828 0.382895 0.00459297
0.403433 0.384253 0.00639353
0.428779 0.384726 0.00572213
0.453223 0.385183 0.0074464
0.477607 0.38584 0.0107271
0.503166 0.386862 0.00968948
0.5346 0.389303 0
0.565316 0.392355 0
0.596765 0.396323 0
0.629465 0.401495 0
0.664714 0.407889 0
0.704387 0.415549 0
0.748699 0.427131 0
0.800824 0.439246 0
0.860166 0.458869 0
0.937804 0.489998 0
1 0.545068 0
0.14435 0.355474 0.0662852
0.159213 0.357137 0.0648814
0.174624 0.359091 0.0628214
0.189792 0.361166 0.0601358
0.20441 0.363272 0.0567025
0.212497 0.367102 0.0502937
0.221515 0.370962 0.0439765
0.232212 0.375448 0.0413672
0.24332 0.379797 0.0380407
0.254551 0.38436 0.0343786
0.266728 0.389334 0.0297398
0.279591 0.394568 0.0250401
0.302068 0.397436 0.0206912
0.324468 0.399954 0.0144808
0.346471 0.402426 0.00698863
0.367803 0.405768 0
0.388968 0.40885 0
0.410346 0.411551 0.00315862
0.434806 0.412924 0.00619516
0.460624 0.413687 0.00695811
0.48603 0.414481 0.00901808
0.511711 0.415747 0.0124514
0.539712 0.416541 0.0104982
0.57113 0.419089 0
0.602853 0.422217 0
0.635996 0.426474 0
0.670466 0.432242 0
0.709743 0.43917 0
0.753536 0.448112 0
0.803861 0.461234 0
0.861402 0.477958 0
0.934569 0.505699 0
1 0.558679 0
0.151995 0.380423 0.0726329
0.168185 0.382193 0.0694591
0.184222 0.3841 0.0655222
0.198917 0.386191 0.0630045
0.21413 0.388632 0.0627146
0.225452 0.391608 0.0603952
0.234424 0.395743 0.056611
0.244999 0.400107 0.0512398
0.255879 0.404486 0.0452277
0.267628 0.409018 0.0378882
0.280339 0.413931 0.0292821
0.294072 0.418814 0.0202335
0.30959 0.423621 0.0181888
0.332036 0.4262 0.016495
0.354376 0.429191 0.0138094
0.37586 0.432456 0.00865187
0.397665 0.436042 0.000457771
0.419455 0.438849 0
0.441459 0.441733 0.00444038
0.466743 0.443351 0.0068513
0.493935 0.4439 0.0078584
0.520684 0.445182 0.0104524
0.548623 0.446494 0.014374
0.576562 0.447913 0.0139925
0.608469 0.450416 0
0.642222 0.453361 0
0.678065 0.457893 0
0.715175 0.464378 0
0.75761 0.472221 0
0.806195 0.483162 0
0.862852 0.499718 0
0.932494 0.523552 0
1 0.5729 0
0.160159 0.407492 0.0829175
0.176425 0.409567 0.0813916
0.192294 0.411337 0.0786297
0.208499 0.413565 0.0750286
0.22446 0.415747 0.0701762
0.238773 0.418204 0.0648203
0.247822 0.422156 0.057847
0.258381 0.42649 0.0502785
0.269825 0.430823 0.0420539
0.281498 0.435554 0.0413214
0.29369 0.440375 0.0391089
0.307057 0.445792 0.0350347
0.31989 0.451225 0.0303044
0.33843 0.455207 0.0252232
0.361654 0.457816 0.0195621
0.385168 0.460639 0.0118563
0.407752 0.464027 0.00515755
0.430106 0.467658 0
0.451957 0.470603 0
0.474311 0.474113 0.00671397
0.500313 0.475944 0.011017
0.529305 0.476967 0.0123598
0.558175 0.478264 0.0143435
0.586603 0.47953 0.01738
0.614557 0.481453 0.0189517
0.647593 0.48426 0
0.682597 0.487648 0
0.720378 0.492622 0
0.762615 0.499184 0
0.808865 0.508675 0
0.863401 0.522332 0
0.932342 0.545144 0
1 0.588327 0
0.168811 0.437247 0.0942092
0.185153 0.438865 0.0918288
0.202411 0.441032 0.088838
0.219379 0.442939 0.0850385
0.235325 0.445136 0.0805676
0.251652 0.447364 0.0755627
0.263249 0.450828 0.0729076
0.273777 0.455192 0.0676738
0.284916 0.459922 0.0619821
0.296254 0.464363 0.0552224
0.309026 0.469398 0.0461128
0.322728 0.474357 0.0350958
0.337057 0.479759 0.023621
0.349798 0.484932 0.0213931
0.371511 0.488457 0.0205234
0.394491 0.491402 0.0186465
0.417411 0.494957 0.015198
0.440024 0.498436 0.00892653
0.462959 0.502266 0.000259403
0.485847 0.505592 0.00222782
0.508873 0.509163 0.0110018
0.5364 0.511421 0.014786
0.567239 0.513054 0.0163272
0.596414 0.51429 0.0189822
0.625269 0.516304 0.0210727
0.65478 0.518166 0.0234379
0.689097 0.521004 0
0.725948 0.524529 0
0.766079 0.530114 0
0.811795 0.537713 0
0.864469 0.549386 0
0.930495 0.568002 0
1 0.606699 0
0.177752 0.467079 0.105989
0.195285 0.468864 0.103517
0.212741 0.470893 0.101198
0.229557 0.472953 0.0990158
0.246876 0.475319 0.0956893
0.263127 0.477394 0.0910811
0.278752 0.479912 0.0844282
0.289113 0.484428 0.0711986
0.300038 0.489052 0.05832
0.312337 0.493568 0.0474098
0.324819 0.498329 0.0470436
0.338338 0.503822 0.0451514
0.351476 0.509178 0.042298
0.364477 0.514443 0.037705
0.378241 0.520058 0.0311131
0.403662 0.522835 0.0245975
0.427878 0.525841 0.0209964
0.451316 0.529274 0.0159152
0.47422 0.53312 0.00981155
0.497322 0.537423 0.00320439
0.519768 0.54139 0.0110475
0.544137 0.545388 0.0216983
0.574395 0.547448 0.0243229
0.605249 0.54931 0.0241093
0.634958 0.551247 0.0246586
0.665537 0.553292 0.0260166
0.697002 0.555474 0.0263218
0.732326 0.558785 0
0.771389 0.562539 0
0.815152 0.568673 0
0.865904 0.578134 0
0.929183 0.593637 0
1 0.626749 0
0.187839 0.497536 0.117815
0.205524 0.499565 0.115602
0.223209 0.501564 0.112795
0.241703 0.503746 0.109194
0.258488 0.50576 0.105165
0.275776 0.507836 0.100038
0.29276 0.510201 0.0944991
0.305455 0.514336 0.0899214
0.316609 0.518959 0.0823682
0.328084 0.523445 0.0737011
0.340749 0.528527 0.0648661
0.354376 0.533745 0.0546578
0.368231 0.538903 0.0428473
0.381628 0.544228 0.0404974
0.394842 0.549905 0.0377813
0.411643 0.555123 0.0355993
0.436591 0.558053 0.033341
0.460548 0.561608 0.0309911
0.484428 0.565118 0.026688
0.508263 0.5691 0.0188907
0.531731 0.573846 0.0112001
0.55581 0.577935 0.0209506
0.581247 0.582559 0.037583
0.612589 0.584817 0.0378882
0.643702 0.586862 0.0353094
0.675029 0.588968 0.0334478
0.707118 0.591379 0.0321813
0.74078 0.594141 0.0292821
0.778332 0.597421 0.00274662
0.82005 0.601556 0
0.868391 0.608942 0
0.929091 0.6215 0
1 0.648127 0
0.198352 0.530083 0.130465
0.216342 0.531838 0.128206
0.236591 0.533562 0.124956
0.253635 0.535866 0.122423
0.271534 0.538064 0.119417
0.289067 0.540291 0.115541
0.305913 0.542641 0.110887
0.32314 0.545968 0.102541
0.333532 0.55053 0.0902266
0.345342 0.5552 0.0744335
0.357977 0.560113 0.0709087
0.371847 0.565393 0.0674754
0.385046 0.570703 0.0624552
0.398672 0.575967 0.0557107
0.412284 0.581216 0.0473487
0.4262 0.587121 0.0409705
0.447623 0.591104 0.0403906
0.47187 0.594781 0.0396582
0.4963 0.598215 0.0396277
0.519463 0.602747 0.0403449
0.543725 0.606806 0.0353857
0.568765 0.611734 0.027863
0.593942 0.616602 0.0396277
0.619425 0.621378 0.0568704
0.650889 0.62385 0.0567025
0.683513 0.626383 0.0504768
0.71693 0.628565 0.0454871
0.751125 0.631571 0.0401465
0.78706 0.635248 0.0321813
0.826566 0.638636 0.0220798
0.871977 0.642954 0
0.929183 0.652277 0
1 0.672999 0
0.210285 0.564233 0.143557
0.230335 0.56614 0.141131
0.248859 0.568261 0.138537
0.26807 0.570016 0.134997
0.285924 0.572335 0.131334
0.303868 0.574365 0.12665
0.322057 0.576852 0.121401
0.340978 0.57937 0.116747
0.352804 0.584054 0.107271
0.363943 0.588617 0.0957198
0.376699 0.593759 0.0834974
0.390661 0.598413 0.0698863
0.404364 0.604013 0.0656596
0.417411 0.609079 0.0657664
0.430732 0.615015 0.0646677
0.444526 0.620493 0.0614939
0.458106 0.626978 0.058381
0.482673 0.629999 0.0586252
0.507424 0.633951 0.0596933
0.531746 0.63772 0.058793
0.555627 0.64242 0.0594644
0.58085 0.646952 0.0597238
0.606882 0.652781 0.0537881
0.632013 0.657389 0.0677653
0.657191 0.662776 0.0858778
0.690135 0.665751 0.0827649
0.724804 0.668315 0.0719768
0.760342 0.670878 0.0621042
0.797055 0.674617 0.0500496
0.835691 0.67837 0.0377966
0.879026 0.680598 0.0552682
0.930419 0.686503 0.0518196
1 0.70164 0.0667735
0.225193 0.600931 0.157305
0.244221 0.603052 0.15523
0.264591 0.604807 0.152224
0.283391 0.606836 0.149096
0.302342 0.609003 0.145251
0.321004 0.611337 0.140902
0.338796 0.613291 0.135851
0.359457 0.616037 0.128893
0.372976 0.620081 0.119051
