subtle niceties LUT V2 beta 15 (SSH-TS reimagined).cube
TITLE "Generated by Resolve"
LUT_3D_SIZE 33
0.0115663 0.011368 0.0174258
0.0272221 0.0118563 0.0174258
0.0388647 0.0142519 0.0179141
0.0563973 0.0157015 0.0176547
0.0764477 0.0183871 0.0172885
0.0983749 0.0188144 0.0200961
0.120333 0.0197757 0.0235904
0.141924 0.0205234 0.0248569
0.16556 0.0211795 0.0236362
0.188464 0.022797 0.0218509
0.209781 0.0243534 0.0191348
0.22974 0.0263676 0.0155032
0.248676 0.0277714 0.0113527
0.267597 0.0290837 0.0075227
0.286763 0.0301061 0.00466926
0.305196 0.0309453 0.00230411
0.323049 0.031693 0
0.341573 0.0325322 0
0.360739 0.0334478 0
0.380819 0.035172 0
0.401816 0.0382849 0
0.423453 0.0417792 0
0.44509 0.0454566 0
0.468391 0.0497597 0
0.493446 0.0547951 0
0.52105 0.0601816 0
0.551751 0.0652781 0
0.58436 0.0719463 0
0.617578 0.0795605 0
0.651377 0.0873426 0
0.686198 0.0946059 0
0.72224 0.102373 0
0.759594 0.11075 0
0.0112459 0.0270695 0.0167697
0.0280766 0.0276341 0.0188144
0.0463569 0.0279088 0.0199741
0.0656291 0.0289464 0.0196994
0.0878767 0.0303197 0.0193179
0.109834 0.0308843 0.0204013
0.130053 0.0322576 0.0220951
0.151736 0.0333867 0.0235447
0.175708 0.0340887 0.023621
0.198505 0.0351568 0.0226749
0.219669 0.036286 0.0198978
0.238621 0.0380255 0.0151217
0.25655 0.0386969 0.0116426
0.274586 0.039826 0.00706493
0.293385 0.04065 0.00354009
0.311528 0.0415656 0.00062562
0.329442 0.041886 0
0.34789 0.0435035 0
0.367178 0.0455634 0
0.386709 0.0488441 0
0.406821 0.0505989 0
0.427985 0.0535897 0
0.449165 0.0586862 0
0.472358 0.063386 0
0.497642 0.068574 0
0.525383 0.0737774 0
0.555428 0.0797284 0
0.588129 0.0876631 0
0.621637 0.095079 0
0.655482 0.102419 0
0.690349 0.109697 0
0.726757 0.117617 0
0.763912 0.126345 0
0.0175174 0.0439918 0.0145571
0.0283818 0.0472114 0.0157473
0.0480964 0.0466011 0.019791
0.0689555 0.0470893 0.0205081
0.0919509 0.0474556 0.0211643
0.114641 0.0487221 0.0205539
0.135012 0.0496834 0.020737
0.158007 0.0500801 0.021622
0.182818 0.0492866 0.0226139
0.206256 0.0471809 0.0232548
0.226932 0.0476844 0.0213931
0.245274 0.0486915 0.0174563
0.262959 0.0497902 0.0128023
0.280934 0.0509194 0.0075227
0.299641 0.0518654 0.00329595
0.3178 0.0527504 0
0.33576 0.0545663 0
0.354055 0.0561685 0
0.373053 0.0582437 0
0.392172 0.0610666 0
0.412039 0.0641642 0
0.432013 0.0684367 0
0.453788 0.0728618 0
0.477043 0.078294 0
0.502525 0.0835279 0
0.529427 0.08925 0
0.559503 0.0953384 0
0.592493 0.10277 0
0.626001 0.109773 0
0.659495 0.117449 0
0.694636 0.124681 0
0.731044 0.132921 0
0.768338 0.141161 0
0.0234989 0.0609751 0.0168154
0.035523 0.0646067 0.0154269
0.0508583 0.066331 0.0173342
0.070222 0.0667124 0.0181582
0.0941634 0.066865 0.0180056
0.116594 0.0677348 0.0177005
0.13817 0.0681926 0.0175021
0.161517 0.068101 0.0183261
0.185565 0.0672923 0.0199741
0.208194 0.0658427 0.0218509
0.230289 0.0644236 0.0214389
0.251011 0.0610208 0.0202945
0.268894 0.0618906 0.0151064
0.28719 0.0635996 0.00910964
0.306004 0.0649424 0.00349432
0.323995 0.0661936 0
0.34197 0.0685283 0
0.360311 0.0703746 0
0.379126 0.0723125 0
0.397559 0.0753796 0
0.416876 0.0788434 0
0.437217 0.0838636 0
0.459174 0.0882582 0
0.482506 0.0933547 0
0.507408 0.0984817 0
0.534112 0.103975 0
0.564324 0.109911 0
0.597177 0.116945 0
0.630137 0.124834 0
0.664073 0.131746 0
0.699245 0.139666 0
0.735439 0.147951 0
0.773297 0.156176 0
0.0323033 0.082475 0.0172122
0.0463874 0.084062 0.0172885
0.0599222 0.0865034 0.0159152
0.0723735 0.0899062 0.014435
0.095201 0.0901656 0.0162814
0.117494 0.0915999 0.0146639
0.139132 0.0920577 0.0142519
0.163607 0.0908675 0.0158846
0.18703 0.0893263 0.0180514
0.20972 0.0887617 0.0196994
0.23209 0.0877241 0.0193332
0.253239 0.0864729 0.0172427
0.27332 0.0851148 0.014023
0.292866 0.0842298 0.00968948
0.312901 0.0834974 0.00505074
0.331304 0.0851148 0
0.349142 0.0868238 0
0.367315 0.0888991 0
0.385626 0.0912642 0
0.40415 0.094667 0
0.423423 0.0976272 0
0.444251 0.101732 0
0.465812 0.106111 0
0.488777 0.11078 0
0.513985 0.115328 0
0.540932 0.120668 0
0.570321 0.126986 0
0.602762 0.134386 0
0.635996 0.141711 0
0.669993 0.149065 0
0.704738 0.157382 0
0.741222 0.165591 0
0.779309 0.173892 0
0.0417792 0.104677 0.0177615
0.0562142 0.105257 0.0192416
0.0703899 0.106645 0.0196841
0.0820935 0.109163 0.0187381
0.0959335 0.113115 0.0168917
0.117342 0.112947 0.0177462
0.141695 0.113146 0.0138705
0.163531 0.115343 0.0104219
0.186236 0.115496 0.011902
0.210208 0.114519 0.0152743
0.233204 0.113771 0.0162509
0.254871 0.113375 0.0136263
0.275669 0.112688 0.0102083
0.296437 0.111238 0.00628672
0.316915 0.110231 0.000839246
0.336156 0.10959 0
0.355108 0.108766 0
0.374105 0.108598 0
0.392981 0.110689 0
0.411749 0.113512 0
0.431174 0.116304 0
0.451575 0.120226 0
0.473136 0.124254 0
0.496803 0.128313 0
0.521706 0.132891 0
0.547707 0.138674 0
0.576776 0.145312 0
0.609125 0.152483 0
0.642496 0.15967 0
0.675898 0.16762 0
0.710979 0.175616 0
0.747707 0.183398 0
0.785428 0.191913 0
0.0503548 0.127672 0.0203555
0.0644083 0.128069 0.0214542
0.0780652 0.128908 0.0225528
0.092607 0.129809 0.0231327
0.105104 0.132815 0.0220188
0.11809 0.13669 0.0198672
0.142184 0.137255 0.018616
0.164691 0.140551 0.00817884
0.185962 0.142931 0.00303655
0.208713 0.143282 0.00454719
0.232288 0.141619 0.00863661
0.25626 0.13817 0.0116579
0.277852 0.136782 0.00799573
0.298772 0.135958 0.00247196
0.32015 0.135012 0
0.339727 0.134493 0
0.359228 0.134371 0
0.378759 0.134112 0
0.397925 0.134417 0
0.417914 0.13489 0
0.439261 0.13492 0
0.459831 0.138354 0
0.481956 0.141863 0
0.504906 0.146349 0
0.529015 0.151278 0
0.554894 0.157244 0
0.58407 0.163134 0
0.61619 0.170275 0
0.64889 0.17731 0
0.682582 0.185229 0
0.717617 0.19321 0
0.754086 0.201709 0
0.792218 0.210529 0
0.0587472 0.151369 0.0222019
0.0729229 0.151369 0.0231785
0.0855116 0.1523 0.0247501
0.0988785 0.152773 0.0260166
0.114595 0.154009 0.0270848
0.129305 0.157397 0.0253452
0.143404 0.16144 0.0227054
0.166659 0.162173 0.0189975
0.188403 0.165911 0.00396735
0.208896 0.169345 0
0.230716 0.169421 0
0.255344 0.165866 0.000411994
0.278843 0.162203 0.00233463
0.301289 0.159426 0
0.323201 0.158663 0
0.343404 0.157549 0
0.36318 0.157626 0
0.382773 0.157824 0
0.402457 0.158251 0
0.422797 0.158968 0
0.44419 0.159686 0
0.466651 0.160494 0
0.489448 0.16173 0
0.512673 0.164996 0
0.537011 0.169665 0
0.563058 0.174731 0
0.591775 0.181033 0
0.623423 0.188159 0
0.656229 0.19559 0
0.689799 0.203479 0
0.72462 0.211673 0
0.761212 0.219623 0
0.799451 0.229084 0
0.0638285 0.174014 0.0263523
0.0781109 0.17435 0.0273899
0.0924849 0.17499 0.0283207
0.104601 0.175875 0.029572
0.121309 0.176852 0.0306859
0.139818 0.178454 0.0299229
0.154833 0.182406 0.0267338
0.168261 0.186252 0.0251926
0.192157 0.188006 0.0134432
0.212329 0.192447 0
0.23125 0.19617 0
0.254383 0.19324 0
0.278859 0.188296 0
0.302312 0.184833 0
0.325689 0.18233 0
0.346746 0.180896 0
0.367025 0.180819 0
0.387396 0.180453 0
0.407492 0.181476 0
0.42797 0.182208 0
0.449226 0.183413 0
0.471153 0.185107 0
0.494072 0.186969 0
0.518364 0.189181 0
0.544228 0.191318 0
0.571298 0.19411 0
0.600122 0.199374 0
0.631739 0.206058 0
0.66421 0.214023 0
0.697398 0.222248 0
0.732464 0.230106 0
0.768917 0.238514 0
0.80679 0.247929 0
0.0708171 0.196765 0.0275273
0.0870069 0.196887 0.0286564
0.101122 0.197498 0.0294804
0.114305 0.19826 0.0305791
0.131243 0.199573 0.0317845
0.149508 0.201053 0.0322118
0.165469 0.203662 0.028809
0.180697 0.206775 0.0238499
0.195605 0.210651 0.0202945
0.217121 0.212955 0.00349432
0.235019 0.217441 0
0.252659 0.221164 0
0.278126 0.215335 0
0.303029 0.211093 0
0.327382 0.207874 0
0.349676 0.205539 0
0.370825 0.204181 0
0.391379 0.204242 0
0.412497 0.204623 0
0.433341 0.205432 0
0.454597 0.206928 0
0.476616 0.208743 0
0.499962 0.210651 0
0.52401 0.213184 0
0.549554 0.215808 0
0.576776 0.219089 0
0.607202 0.222156 0
0.639735 0.226719 0
0.672786 0.233097 0
0.706172 0.240711 0
0.740841 0.248646 0
0.777127 0.257618 0
0.815274 0.26659 0
0.0766613 0.217426 0.0237125
0.0928817 0.218006 0.0249638
0.107942 0.218692 0.0256962
0.122225 0.219898 0.0263828
0.138872 0.221622 0.0282292
0.156619 0.222538 0.0300298
0.174166 0.224292 0.0320287
0.190127 0.227558 0.0265202
0.205493 0.230594 0.0214389
0.2206 0.233677 0.0176547
0.240833 0.236683 0
0.258076 0.241398 0
0.276402 0.244114 0
0.302571 0.238666 0
0.328359 0.233875 0
0.351766 0.231296 0
0.373877 0.229328 0
0.395407 0.228717 0
0.417029 0.228672 0
0.438804 0.229297 0
0.460594 0.230686 0
0.483055 0.232425 0
0.505913 0.235126 0
0.530205 0.237247 0
0.555932 0.24065 0
0.583032 0.243397 0
0.612482 0.248081 0
0.645335 0.252796 0
0.679469 0.257435 0
0.714107 0.262364 0
0.74992 0.268406 0
0.786191 0.277333 0
0.823819 0.286458 0
0.0825513 0.237049 0.0201267
0.0981918 0.237842 0.0220188
0.114153 0.238712 0.0235142
0.129107 0.240101 0.0249638
0.145022 0.241932 0.0269627
0.162051 0.243793 0.0296025
0.180377 0.244968 0.0331426
0.197742 0.247257 0.0325933
0.213581 0.250278 0.0265354
0.228977 0.253773 0.0210117
0.244892 0.256947 0.0158236
0.264408 0.260288 0
0.281941 0.264439 0
0.302312 0.2663 0
0.328603 0.261677 0
0.353384 0.257786 0
0.376669 0.255085 0
0.399176 0.253513 0
0.421378 0.253223 0
0.443839 0.253666 0
0.466529 0.254917 0
0.489723 0.256367 0
0.513222 0.259205 0
0.537392 0.261326 0
0.562554 0.26511 0
0.589426 0.269078 0
0.619257 0.273335 0
0.65185 0.278431 0
0.685679 0.283726 0
0.719905 0.289036 0
0.755871 0.294636 0
0.793179 0.301045 0
0.832258 0.306554 0
0.0868849 0.257664 0.0232395
0.103471 0.258488 0.0249943
0.120165 0.259297 0.0265965
0.135821 0.260609 0.0279545
0.151263 0.262394 0.0293889
0.168185 0.264469 0.0311131
0.185718 0.266316 0.0331884
0.203723 0.267826 0.0362249
0.221088 0.270069 0.0327916
0.237766 0.27335 0.0251164
0.253086 0.276967 0.0182956
0.269612 0.28014 0.0103914
0.288396 0.284138 0
0.308019 0.286931 0
0.329381 0.289097 0
0.353658 0.286564 0
0.378561 0.282612 0
0.402182 0.280781 0
0.425437 0.279973 0
0.448722 0.279835 0
0.471962 0.280598 0
0.495705 0.282292 0
0.519799 0.28394 0
0.544533 0.286885 0
0.570382 0.290379 0
0.597421 0.294438 0
0.626871 0.299001 0
0.659205 0.304112 0
0.692836 0.309941 0
0.726955 0.315969 0
0.762524 0.322545 0
0.799634 0.328435 0
0.838315 0.334981 0
0.0951095 0.278767 0.0233768
0.111055 0.279576 0.0249943
0.127138 0.280476 0.0264134
0.142962 0.281559 0.0278935
0.158831 0.283482 0.0286412
0.175189 0.285786 0.0296025
0.191653 0.28777 0.0308232
0.20856 0.289647 0.0324407
0.226413 0.291096 0.033753
0.244282 0.293889 0.0292515
0.261799 0.297108 0.0227207
0.277745 0.301274 0.0160067
0.294545 0.305013 0.00823987
0.314305 0.309255 0
0.335424 0.312673 0
0.35584 0.31545 0
0.378882 0.314611 0
0.403906 0.311406 0
0.428519 0.309331 0
0.452979 0.308598 0
0.477424 0.3084 0
0.502007 0.309773 0
0.526818 0.311589 0
0.552102 0.314122 0
0.578439 0.317311 0
0.605768 0.321202 0
0.63537 0.325582 0
0.667475 0.331365 0
0.700801 0.337423 0
0.734371 0.343603 0
0.769436 0.350118 0
0.806241 0.357305 0
0.844678 0.364294 0
0.104509 0.300206 0.0162814
0.119875 0.300877 0.0178988
0.135393 0.301747 0.0191806
0.151232 0.3028 0.0203708
0.166918 0.305074 0.0220188
0.182361 0.307439 0.0237736
0.198352 0.309834 0.0263218
0.215274 0.312078 0.029572
0.232868 0.314427 0.033341
0.251408 0.316533 0.035462
0.269825 0.319738 0.0313268
0.28751 0.323339 0.0243076
0.30341 0.327672 0.0177157
0.321416 0.331716 0.0075227
0.342046 0.336919 0
0.362448 0.340368 0
0.383261 0.343008 0
0.40502 0.34461 0
0.431571 0.341619 0
0.456992 0.340002 0
0.482429 0.339696 0
0.507729 0.340078 0
0.533394 0.341665 0
0.55935 0.344091 0
0.58613 0.346868 0
0.613672 0.35053 0
0.643702 0.355673 0
0.676112 0.361196 0
0.709041 0.367269 0
0.742184 0.372992 0
0.776913 0.379904 0
0.813458 0.387274 0
0.851591 0.394919 0
0.112215 0.322789 0.019791
0.128038 0.323613 0.0217899
0.143816 0.324529 0.023743
0.160082 0.325536 0.0258335
0.176425 0.327382 0.027924
0.191669 0.329793 0.0298314
0.207691 0.332174 0.0321202
0.224079 0.334539 0.0349126
0.240909 0.337194 0.0379034
0.258915 0.339208 0.0419776
0.277623 0.34197 0.0405127
0.295705 0.345266 0.0341192
0.31339 0.349355 0.0247349
0.330495 0.353979 0.0157626
0.349889 0.358923 0.00190738
0.36994 0.364553 0
0.390341 0.368277 0
0.411353 0.371725 0
0.432486 0.375479 0
0.459358 0.372976 0
0.486229 0.371267 0
0.512139 0.371557 0
0.538491 0.372656 0
0.565301 0.373968 0
0.592905 0.376547 0
0.621515 0.380697 0
0.651957 0.384878 0
0.684153 0.39028 0
0.716625 0.395682 0
0.749752 0.402457 0
0.784298 0.409369 0
0.820508 0.416419 0
0.858183 0.424323 0
0.121416 0.345846 0.0241398
0.137423 0.346563 0.0259403
0.153277 0.347234 0.027863
0.168368 0.348302 0.0294499
0.186435 0.349538 0.0313878
0.201495 0.351949 0.0322576
0.217121 0.35436 0.0333867
0.232547 0.357153 0.0345464
0.249348 0.359518 0.0364996
0.266773 0.362142 0.0387732
0.284276 0.36466 0.0408179
0.303655 0.367651 0.0390631
0.322499 0.371572 0.0339818
0.341253 0.376257 0.0245823
0.35874 0.38172 0.0200198
0.378103 0.386938 0.0012665
0.398138 0.392782 0
0.418692 0.397208 0
0.439719 0.40177 0
0.46125 0.406424 0
0.487984 0.405295 0
0.515633 0.404456 0
0.543572 0.404089 0
0.571099 0.405341 0
0.599084 0.407752 0
0.627741 0.41059 0
0.65864 0.414679 0
0.691783 0.41976 0
0.724544 0.425452 0
0.757382 0.4318 0
0.791928 0.4383 0
0.827375 0.445594 0
0.864698 0.45304 0
0.134768 0.369482 0.0205692
0.149355 0.36994 0.0222629
0.163989 0.370794 0.0237888
0.179187 0.37142 0.0255131
0.197467 0.372732 0.0267185
0.211917 0.375189 0.0272526
0.226764 0.377478 0.0293736
0.242222 0.380499 0.0314336
0.258518 0.383413 0.0342718
0.275593 0.385916 0.0385443
0.293416 0.388739 0.0432898
0.312749 0.391867 0.0461128
0.33193 0.395209 0.0437018
0.351705 0.399573 0.0372015
0.370901 0.405341 0.0273289
0.387259 0.410727 0.0255131
0.407172 0.415885 0.00204471
0.427451 0.422232 0
0.448203 0.42768 0
0.47013 0.432975 0
0.492103 0.437903 0
0.51838 0.439323 0
0.546426 0.438712 0
0.575158 0.439094 0
0.6038 0.440742 0
0.632746 0.443244 0
0.664286 0.446464 0
0.697734 0.45127 0
0.731609 0.45623 0
0.765408 0.462043 0
0.798993 0.467979 0
0.834272 0.475441 0
0.871626 0.483665 0
0.146685 0.395026 0.0230106
0.161456 0.395544 0.024445
0.176211 0.396063 0.0263981
0.191501 0.396918 0.028336
0.209247 0.39794 0.0307469
0.224247 0.399908 0.0324559
0.239063 0.402197 0.0346075
0.254612 0.405173 0.0368353
0.270268 0.407813 0.0402838
0.286885 0.41091 0.0443275
0.304784 0.413474 0.0495308
0.323156 0.41651 0.0555428
0.342351 0.420096 0.0551461
0.362493 0.424231 0.0492103
0.382773 0.429358 0.0395361
0.400824 0.435248 0.0299992
0.41677 0.440909 0.030808
0.4374 0.446342 0.00556954
0.458457 0.453376 0
0.478935 0.46041 0
0.500893 0.466255 0
0.522972 0.472557 0
0.548028 0.475303 0
0.577325 0.474983 0
0.606989 0.475715 0
0.637201 0.477699 0
0.669535 0.480766 0
0.703243 0.485206 0
0.736507 0.489158 0
0.769909 0.494179 0
0.805814 0.499199 0
0.841337 0.506493 0
0.877897 0.51397 0.00531014
0.15938 0.422004 0.0276493
0.174655 0.422263 0.0300298
0.189242 0.422766 0.0321965
0.203433 0.423224 0.0343786
0.221088 0.424308 0.0369268
0.237644 0.426047 0.0385443
0.252537 0.428672 0.0396887
0.267384 0.431128 0.0410925
0.28278 0.434348 0.0426947
0.29955 0.437507 0.0446174
0.316716 0.440696 0.047364
0.334813 0.443641 0.054551
0.354162 0.446738 0.0615396
0.374319 0.450355 0.0611887
0.395102 0.455207 0.0556802
0.414237 0.460838 0.0462501
0.43122 0.466575 0.0395056
0.447105 0.472435 0.0417639
0.468696 0.478538 0.0135653
0.49044 0.485695 0
0.511376 0.493706 0
0.532189 0.501518 0
0.554711 0.508675 0
0.579309 0.514046 0
0.61033 0.513878 0
0.640665 0.514977 0
0.67248 0.517098 0
0.706142 0.520287 0
0.74078 0.524605 0
0.775082 0.529137 0
0.809567 0.534066 0
0.84596 0.538216 0.0276188
0.88368 0.545541 0.0399481
0.176959 0.451804 0.0262303
0.191012 0.451591 0.0286564
0.204807 0.451728 0.0307774
0.219303 0.452552 0.0333104
0.236622 0.453391 0.036408
0.253132 0.454749 0.0394598
0.267369 0.456779 0.0417182
0.282094 0.45922 0.045304
0.297719 0.462165 0.0488441
0.31368 0.465064 0.0535286
0.330556 0.468025 0.0590524
0.348608 0.470863 0.0657816
0.367178 0.474159 0.0730755
0.387213 0.477821 0.0759289
0.408484 0.482521 0.071397
0.427924 0.487465 0.0636301
0.445945 0.493462 0.0554055
0.463081 0.499641 0.0495308
0.478935 0.50573 0.0538949
0.502052 0.511879 0.0220951
0.524163 0.519158 0
0.545861 0.527428 0
0.566934 0.535897 0
0.588144 0.544884 0
0.611048 0.553292 0
0.641688 0.55491 0
0.675471 0.555886 0
0.709957 0.558465 0
0.743496 0.562051 0
0.777066 0.565805 0
0.81268 0.569665 0.00062562
0.849241 0.575082 0.0291752
0.887068 0.579919 0.0669413
0.192248 0.482139 0.0359503
0.206241 0.481941 0.0382696
0.220859 0.482002 0.0408026
0.23537 0.482551 0.0430304
0.251881 0.483177 0.0461128
0.26978 0.483864 0.0495613
0.283864 0.486503 0.0511482
0.298665 0.488823 0.0537881
0.313741 0.491447 0.0570687
0.329503 0.494469 0.0609751
0.346517 0.497597 0.0657359
0.363668 0.500694 0.0713359
0.381735 0.50428 0.0769207
0.401862 0.507622 0.085359
0.423072 0.51133 0.0855726
0.442924 0.516091 0.0807355
0.461738 0.521523 0.0730297
0.479042 0.527489 0.0670481
0.49543 0.533959 0.0662089
0.511299 0.540063 0.073167
0.534722 0.545632 0.0480659
0.558633 0.553323 0.0041352
0.581292 0.56173 0
0.603983 0.570932 0
0.626612 0.580468 0
0.649622 0.58996 0
0.678737 0.594171 0
0.710979 0.598306 0
0.745022 0.601923 0
0.779706 0.604822 0
0.814298 0.609064 0
0.850431 0.61294 0.0260319
0.888273 0.618097 0.0698405
0.21503 0.516854 0.0307164
0.227878 0.516701 0.0338598
0.24126 0.516701 0.0371252
0.255009 0.51635 0.0405737
0.272084 0.517205 0.0439002
0.289647 0.518486 0.0469062
0.303456 0.5205 0.0483253
0.317708 0.523095 0.0503548
0.332525 0.525292 0.0552682
0.348119 0.527565 0.060914
0.364096 0.529885 0.0684672
0.380865 0.532464 0.0760662
0.398825 0.535363 0.0855116
0.418173 0.537957 0.0967117
0.439231 0.541054 0.104952
0.458885 0.545403 0.103471
0.477455 0.550317 0.0981003
0.495033 0.556405 0.0923018
0.512352 0.562844 0.0879683
0.529229 0.569726 0.0870527
0.546273 0.576181 0.0912032
0.570504 0.581918 0.0660868
0.594614 0.589136 0.0318303
0.618219 0.597055 0
0.641611 0.605295 0
0.665873 0.614908 0
0.691417 0.625162 0
0.721828 0.630701 0
0.753155 0.635752 0
0.784985 0.640513 0
0.818998 0.645167 0
0.854398 0.649958 0.0158389
0.891585 0.654459 0.0715038
0.230808 0.548501 0.0454719
0.244739 0.548287 0.0482948
0.258595 0.548424 0.0513161
0.272938 0.548562 0.0546578
0.289708 0.54934 0.0584726
0.306935 0.550286 0.0629587
0.321691 0.551614 0.0668193
0.336095 0.553796 0.0706188
0.350851 0.556008 0.0755016
0.366049 0.55819 0.0806744
0.38233 0.560845 0.0870985
0.399084 0.563653 0.0937514
0.416648 0.566674 0.101411
0.435782 0.56968 0.109773
0.456733 0.573068 0.11931
0.476417 0.576593 0.121248
0.495674 0.581415 0.117754
0.513191 0.586831 0.113115
0.530007 0.592584 0.110964
0.546883 0.599313 0.111254
0.562493 0.606165 0.117281
0.580133 0.612634 0.121508
0.605722 0.61886 0.103456
0.631342 0.625864 0.071458
0.656367 0.633783 0.0353552
0.681407 0.641962 0
0.70779 0.651438 0
0.735286 0.660243 0
0.765179 0.666804 0
0.796033 0.671977 0
0.828687 0.677333 0
0.86302 0.682139 0.041825
0.899107 0.687724 0.0929427
0.253559 0.583856 0.0513313
0.266743 0.583886 0.0547951
0.280064 0.583551 0.0583963
0.294057 0.583856 0.0619669
0.310628 0.584283 0.0665751
0.328634 0.585245 0.0709239
0.343435 0.58677 0.0739452
0.357473 0.589197 0.0769207
0.372305 0.591379 0.0801099
0.38761 0.594003 0.0854963
0.403464 0.596307 0.092958
0.419745 0.598718 0.101061
0.437018 0.601205 0.109926
0.455711 0.603738 0.12015
0.475837 0.606638 0.13164
0.495995 0.609216 0.141817
0.514717 0.61355 0.141115
0.531685 0.618265 0.138262
0.548089 0.623789 0.138048
0.565072 0.630289 0.137591
0.581506 0.637003 0.140368
0.597482 0.644648 0.146746
0.616403 0.650919 0.149096
0.642634 0.656504 0.140307
0.668467 0.662776 0.125643
0.695354 0.670451 0.098909
0.722866 0.679026 0.0646677
0.751431 0.687755 0.0309148
0.779706 0.696345 0
0.809049 0.702739 0.0133059
0.840452 0.708324 0.0456855
0.873503 0.714778 0.085481
0.90837 0.719997 0.129839
0.276783 0.619593 0.0595407
0.289647 0.619654 0.0629892
0.303136 0.619669 0.0667124
0.317143 0.619867 0.070985
0.333303 0.62034 0.075639
0.3505 0.620844 0.0813764
0.365301 0.621881 0.0860914
0.379309 0.62414 0.090074
0.393973 0.625864 0.0957656
0.408682 0.628077 0.101884
0.424552 0.630457 0.108888
0.44094 0.632685 0.117357
0.457771 0.634607 0.127428
0.475761 0.637186 0.137819
0.495659 0.63917 0.150561
0.515816 0.642283 0.161593
0.534478 0.646097 0.165133
0.551781 0.651392 0.161761
0.568948 0.65716 0.159762
0.585595 0.662959 0.15993
0.601404 0.669047 0.164324
0.616388 0.675792 0.172961
0.631876 0.683391 0.181628
0.65211 0.690303 0.183688
0.680247 0.695048 0.179995
0.707805 0.702098 0.17052
0.73637 0.708476 0.15996
0.765789 0.716045 0.145403
0.795087 0.724025 0.129015
0.824338 0.732067 0.111589
0.854459 0.738506 0.122896
0.886046 0.744518 0.152468
0.919631 0.750774 0.17998
0.302296 0.658137 0.0680247
0.314595 0.657862 0.0728466
0.32752 0.65771 0.0781109
0.340673 0.657481 0.0832532
0.357076 0.657816 0.0887007
0.374334 0.658381 0.0943465
0.389532 0.659449 0.0990921
0.403037 0.661372 0.103441
0.41735 0.66334 0.108568
0.432502 0.66511 0.115969
0.448142 0.66743 0.123781
0.464027 0.669398 0.132555
0.481025 0.671794 0.141497
0.499352 0.673961 0.152407
0.518791 0.676112 0.165255
0.538216 0.678523 0.177722
0.556176 0.68162 0.187961
0.572457 0.685405 0.189792
0.5888 0.690669 0.190112
0.605905 0.696727 0.189578
0.62295 0.703716 0.191058
0.638926 0.710521 0.195972
0.654185 0.717556 0.204807
0.668513 0.725429 0.215473
0.69073 0.731685 0.212284
0.719081 0.735897 0.220493
0.749004 0.74226 0.221424
0.779385 0.748608 0.22005
0.809506 0.754772 0.218509
0.839399 0.761334 0.215564
0.870329 0.767865 0.214405
0.901427 0.774929 0.2224
0.933349 0.781384 0.242374
0.326024 0.695933 0.0893111
0.339025 0.695674 0.0933547
0.352285 0.695933 0.0978256
0.365759 0.695781 0.102678
0.381826 0.69601 0.108339
0.398688 0.696193 0.114122
0.414099 0.697368 0.119966
0.428153 0.699001 0.125612
0.442283 0.700648 0.131579
