subtle niceties LUT V2 beta 8 (SSH-TS reimagined).cube
TITLE "Generated by Resolve"
LUT_3D_SIZE 5
0.0135653 0.0119173 0.0166323
0.105379 0.0274815 0.0231479
0.235798 0.0370489 0.0290837
0.406241 0.0718853 0.0552987
0.781826 0.185153 0.163165
0.0366522 0.126253 0.0344091
0.150835 0.139467 0.0173495
0.289616 0.137377 0.0192264
0.44387 0.172335 0.064271
0.814588 0.25774 0.177768
0.00062562 0.281041 0.0719615
0.164828 0.299184 0.042649
0.348226 0.311498 0.00416571
0.537942 0.318349 0
0.862425 0.404761 0.163317
0 0.487846 0.21088
0.188159 0.509819 0.163745
0.380621 0.544259 0.0348058
0.619974 0.562264 0.0241398
0.980941 0.586175 0.1411
0 0.896834 0.3794
0.333745 0.905486 0.341207
0.54435 0.927367 0.343618
0.728054 0.959411 0.388296
0.953552 0.989166 0.616938
0.0455329 0.045304 0.116381
0.141634 0.0492561 0.127611
0.249027 0.070222 0.142977
0.432822 0.0696727 0.148211
0.809842 0.164569 0.208576
0.043122 0.154223 0.136629
0.156176 0.163378 0.15964
0.311955 0.168078 0.151736
0.457008 0.20528 0.180667
0.840406 0.258534 0.224079
0.0214847 0.299199 0.193576
0.207935 0.318914 0.18497
0.349737 0.35137 0.168978
0.56492 0.354055 0.154269
0.883055 0.432212 0.261479
0 0.508797 0.246143
0.235554 0.534646 0.233524
0.396719 0.576288 0.213672
0.641032 0.602029 0.20296
0.995697 0.633951 0.273121
0 0.920851 0.373724
0.361654 0.92929 0.412024
0.583719 0.952621 0.440528
0.741054 0.978393 0.574182
0.977478 0.995331 0.782559
0.105348 0.0985733 0.267231
0.182818 0.121706 0.252949
0.312352 0.0762036 0.294697
0.437766 0.128008 0.334752
0.833188 0.187106 0.35845
0.0496529 0.185565 0.300237
0.220005 0.196643 0.277455
0.336828 0.195254 0.330617
0.476585 0.257359 0.33193
0.89192 0.249531 0.340856
0.0898146 0.339117 0.310826
0.220966 0.347097 0.351232
0.363485 0.377981 0.372869
0.605631 0.385214 0.354223
0.896422 0.480735 0.440955
0 0.563149 0.297841
0.208865 0.582513 0.360586
0.467155 0.594995 0.42501
0.640955 0.647059 0.438056
1 0.686748 0.478248
0.131548 0.926619 0.576654
0.370855 0.963302 0.529122
0.646113 0.974136 0.587594
0.809689 0.998459 0.701335
0.940581 1 0.934371
0.196307 0.18117 0.476204
0.241505 0.19678 0.471672
0.359625 0.212528 0.460136
0.54023 0.130159 0.517708
0.86424 0.294545 0.613809
0.148959 0.252018 0.500847
0.287297 0.271748 0.470558
0.415686 0.28069 0.469276
0.557519 0.292165 0.52047
0.877272 0.388128 0.586999
0.0642405 0.371466 0.552285
0.227466 0.391577 0.551125
0.459434 0.414801 0.518044
0.618158 0.4215 0.607156
0.947951 0.522148 0.60763
0.128664 0.595865 0.544778
0.277638 0.619165 0.569848
0.477089 0.638544 0.615412
0.654841 0.679103 0.672419
1 0.707118 0.655375
0.0592813 0.99472 0.582223
0.405615 1 0.643305
0.738476 0.990478 0.739269
0.862394 1 0.868406
0.93254 1 0.999146
0.495018 0.459144 1
0.510384 0.443153 0.997177
0.556298 0.449363 0.96968
0.672526 0.488289 0.922087
1 0.311604 1
0.466117 0.482628 1
0.506111 0.471946 0.986465
0.555215 0.471687 0.964813
0.682353 0.520546 0.903914
1 0.397101 0.999619
0.315145 0.544671 1
0.436133 0.548135 0.993729
0.599359 0.563516 0.930312
0.762036 0.575753 0.903471
1 0.607111 0.979217
0 0.67808 1
0.163439 0.690562 1
0.502037 0.719661 0.996628
0.82446 0.739132 0.919158
1 0.807111 0.990021
0.474449 0.997467 0.936217
0.512581 1 0.945006
0.77348 1 0.982452
0.930251 1 0.99762
0.93254 1 0.999146
