subtle niceties LUT V2 beta 3 (SSH-TS reimagined).cube
TITLE "Generated by Resolve"
LUT_3D_SIZE 5
0.00825513 0.00720226 0.00747692
0.129686 0.0112459 0.0182193
0.280613 0.00242618 0.0385748
0.479896 0 0.09308
0.945037 0 0.269429
0.0233463 0.141558 0.00520333
0.149584 0.144549 0.0116732
0.302083 0.127642 0.0144961
0.525048 0.0789654 0.0679942
0.985718 0.126894 0.26302
0.000244144 0.304738 0
0.149584 0.317479 0
0.348501 0.335607 0.000869764
0.587564 0.361212 0.0167544
0.997131 0.463554 0.252659
0 0.56437 0
0.192294 0.594675 0
0.452155 0.629191 0.00015259
0.693004 0.676768 0.16643
1 0.777829 0.45716
0.49221 0.994919 0.148394
0.671748 0.995148 0.399847
0.80029 0.995926 0.554681
0.886809 0.996796 0.629496
0.995865 0.993271 0.633295
0.0576486 0.038407 0.149035
0.162478 0.040238 0.150225
0.300237 0.0178073 0.158206
0.502831 0 0.180987
0.962798 0 0.32549
0.0670634 0.169482 0.131334
0.180697 0.173785 0.145464
0.309346 0.177981 0.156435
0.536171 0.154665 0.179095
1 0.196872 0.337041
0.0243381 0.325948 0.0752728
0.216724 0.342809 0.138643
0.384695 0.375799 0.188556
0.610269 0.416693 0.237171
0.999756 0.5234 0.388708
0 0.595285 0
0.283986 0.627405 0.0865034
0.512505 0.667781 0.247471
0.734707 0.720897 0.390723
0.999298 0.823133 0.57847
0.564111 0.99823 0.355871
0.735149 0.997864 0.521859
0.853056 0.998596 0.644221
0.931411 1 0.709895
1 0.995041 0.754955
0.150668 0.0918135 0.321477
0.225711 0.0939345 0.319066
0.339239 0.0820478 0.323781
0.538079 0.0310216 0.342184
0.989288 0 0.446693
0.148699 0.209995 0.307012
0.233448 0.214847 0.30135
0.358099 0.223331 0.324529
0.575158 0.220737 0.356893
1 0.218463 0.460639
0.110979 0.365301 0.297536
0.274952 0.386175 0.323522
0.436759 0.423667 0.370489
0.638895 0.482612 0.42948
0.999435 0.600702 0.549264
0.0759899 0.632883 0.286091
0.37499 0.665858 0.372869
0.583749 0.707713 0.465522
0.782879 0.767559 0.565499
0.998123 0.87274 0.700938
0.648615 0.999649 0.520592
0.80322 0.99942 0.637186
0.911437 1 0.734127
0.999893 0.998672 0.837507
1 0.99881 0.90425
0.302663 0.201297 0.576562
0.345953 0.192721 0.56875
0.434119 0.185672 0.568444
0.612055 0.176852 0.589914
1 0.257481 0.712184
0.29189 0.28101 0.57644
0.344518 0.277699 0.567468
0.451881 0.289326 0.57171
0.640253 0.312825 0.602899
1 0.386023 0.682948
0.266682 0.42768 0.567361
0.369879 0.44892 0.565362
0.514092 0.487602 0.580819
0.707607 0.547417 0.635966
1 0.672709 0.724849
0.261494 0.687846 0.574426
0.463035 0.720241 0.610834
0.655146 0.759594 0.658274
0.839658 0.81825 0.725567
0.998459 0.926421 0.81651
0.742611 1 0.684276
0.873579 1 0.757137
0.978027 0.999802 0.839933
1 0.99881 0.90425
1 0.99881 0.90425
0.771145 0.624689 1
0.79028 0.564904 1
0.832242 0.525856 1
0.921309 0.499336 1
1 0.512871 1
0.712154 0.628977 1
0.72932 0.565209 1
0.773602 0.531792 1
0.873549 0.519295 1
1 0.600198 1
0.644816 0.672251 1
0.679622 0.633387 1
0.745434 0.632349 1
0.867353 0.66833 1
1 0.797543 0.988998
0.573144 0.818494 1
0.651225 0.823316 1
0.77203 0.848264 0.993149
0.909941 0.889906 0.940154
1 0.977874 0.905653
0.844785 1 0.902159
0.907256 1 0.911864
0.995468 0.999802 0.906294
1 0.99881 0.90425
1 0.99881 0.90425
