subtle niceties LUT V2 beta 2 (SSH-TS reimagined).cube
TITLE "Generated by Resolve"
LUT_3D_SIZE 5
0.00662242 0.00662242 0.00662242
0.134203 0.0101778 0.00755322
0.298543 0 0.00628672
0.516228 0 0.0149386
1 0.0871595 0.139818
0.0291447 0.14551 0.0321508
0.154498 0.151247 0.0341497
0.313588 0.146441 0.0188296
0.551629 0.140185 0.019501
1 0.260166 0.163684
0.0065156 0.316899 0.0289769
0.175021 0.328801 0.049836
0.361547 0.35082 0.0780652
0.605356 0.388785 0.109651
1 0.516823 0.259434
0.00529488 0.586999 0.0781109
0.26125 0.612268 0.151446
0.475166 0.646159 0.239277
0.703655 0.694545 0.349935
1 0.797223 0.547921
0.536431 1 0.533471
0.6813 1 0.63418
0.79118 1 0.727733
0.870161 1 0.777646
0.996811 1 0.767102
0.0317845 0.0224765 0.160647
0.150988 0.0305333 0.153475
0.307393 0.0221714 0.143679
0.535271 0 0.127489
1 0.0775769 0.217166
0.0513924 0.163607 0.164523
0.170153 0.170184 0.170184
0.307866 0.182116 0.168734
0.552789 0.18851 0.156893
1 0.296849 0.261952
0.0498054 0.329534 0.18291
0.216388 0.34461 0.218799
0.382559 0.380743 0.253208
0.615579 0.432242 0.283055
1 0.561532 0.398581
0.0711528 0.608865 0.253208
0.312825 0.636591 0.324331
0.516625 0.675669 0.40354
0.731411 0.729595 0.502892
1 0.832624 0.662104
0.585931 1 0.620722
0.730266 1 0.711635
0.834806 1 0.794476
0.907073 1 0.843595
1 1 0.867552
0.085893 0.0430152 0.346838
0.188022 0.0536507 0.33724
0.324224 0.0570687 0.330877
0.550256 0.0527962 0.326497
1 0.107774 0.372885
0.0947585 0.185977 0.336889
0.199451 0.195468 0.32546
0.337652 0.209842 0.339529
0.575357 0.228275 0.350668
1 0.305089 0.399359
0.0830701 0.355123 0.358541
0.24918 0.376104 0.376928
0.415915 0.416266 0.416312
0.626169 0.482322 0.46717
1 0.619348 0.568917
0.138582 0.634577 0.43801
0.368032 0.664073 0.497108
0.566445 0.704875 0.568536
0.763424 0.76527 0.654154
0.994064 0.872099 0.782315
0.64715 1 0.720729
0.783459 1 0.794461
0.882994 1 0.865721
0.976211 1 0.944289
0.996826 1 1
0.199649 0.110674 0.618448
0.264836 0.107118 0.605676
0.379995 0.112261 0.596887
0.588952 0.132555 0.601953
1 0.293217 0.682582
0.184237 0.216938 0.618372
0.260563 0.218662 0.603876
0.394598 0.240848 0.599329
0.609033 0.281666 0.616922
1 0.407233 0.661463
0.168399 0.389593 0.621454
0.299657 0.415778 0.614771
0.464286 0.461295 0.624949
0.671366 0.528145 0.673487
1 0.672053 0.752346
0.212573 0.669993 0.676692
0.415869 0.70222 0.705135
0.613443 0.743389 0.743786
0.802426 0.804608 0.805158
0.985428 0.91545 0.89987
0.71696 1 0.839277
0.840146 1 0.888731
0.93901 1 0.951247
0.996826 1 1
0.996826 1 1
0.623713 0.520302 1
0.645472 0.444846 1
0.699245 0.397452 1
0.814115 0.376364 1
1 0.448005 1
0.546532 0.521187 1
0.565255 0.439429 1
0.624384 0.399939 1
0.761654 0.405447 1
1 0.548714 1
0.459892 0.570581 1
0.502678 0.523552 1
0.598871 0.532296 1
0.766506 0.596521 1
1 0.765805 1
0.39263 0.744961 1
0.509071 0.758144 1
0.673167 0.798535 1
0.843976 0.857786 1
0.993149 0.959777 0.992981
0.786145 1 1
0.851225 1 1
0.962692 1 1
0.996826 1 1
0.996826 1 1
