subtle niceties LUT V2 beta 11 (SSH-TS reimagined).cube
TITLE "Generated by Resolve"
LUT_3D_SIZE 5
0.0171511 0.0155642 0.0246433
0.135164 0.0179751 0.0130617
0.271763 0.0245975 0.00849927
0.482048 0.0611582 0.0311284
0.971618 0.265232 0.212177
0.0579232 0.133013 0.0328527
0.161669 0.151797 0.0152895
0.329885 0.149874 0
0.551568 0.16759 0
1 0.375738 0.255482
0.123934 0.285466 0.0501869
0.208011 0.311742 0.0258946
0.368231 0.330541 0.00605783
0.584649 0.349096 0
1 0.517174 0.128496
0.187839 0.497536 0.117815
0.316609 0.518959 0.0823682
0.436591 0.558053 0.033341
0.643702 0.586862 0.0353094
1 0.648127 0
0.411536 0.872053 0.245792
0.553719 0.88368 0.228122
0.636133 0.917418 0.293797
0.752331 0.955749 0.393072
0.979919 1 0.508858
0.019379 0.0409094 0.145541
0.159594 0.0395819 0.14403
0.281315 0.0604562 0.142016
0.48954 0.0585184 0.152743
0.956634 0.25864 0.294255
0.0251926 0.162112 0.159594
0.165988 0.173754 0.173312
0.343908 0.17908 0.163592
0.571557 0.186755 0.161273
1 0.397543 0.346639
0.0913405 0.31107 0.194598
0.219043 0.34519 0.156252
0.374441 0.375845 0.138155
0.622034 0.381918 0.156008
1 0.564157 0.359213
0.206531 0.519951 0.210513
0.33315 0.547051 0.220584
0.43032 0.596139 0.229541
0.648386 0.634531 0.19791
1 0.701854 0.310201
0.454292 0.890013 0.299001
0.57052 0.907378 0.361196
0.641657 0.947402 0.417533
0.791882 0.992004 0.416815
0.990021 1 0.685756
0.0221714 0.0863355 0.304021
0.162951 0.108034 0.292943
0.338262 0.0749065 0.307439
0.511833 0.0943465 0.332265
0.928557 0.274891 0.428122
0.0303807 0.192264 0.317449
0.175494 0.201175 0.329641
0.372427 0.187137 0.353155
0.557778 0.228138 0.365377
1 0.389273 0.491707
0.0318914 0.347524 0.356893
0.189593 0.36878 0.376837
0.381018 0.393454 0.397375
0.612879 0.434943 0.421592
1 0.608957 0.593362
0.146654 0.55436 0.403311
0.233082 0.602335 0.378454
0.439963 0.644053 0.36939
0.676463 0.675975 0.38941
1 0.788632 0.575341
0.396246 0.920867 0.50277
0.547356 0.943023 0.516442
0.675013 0.983886 0.509575
0.817685 1 0.594308
0.940017 1 0.981018
0.0486305 0.140017 0.530114
0.187533 0.175937 0.512551
0.343481 0.20734 0.496345
0.593988 0.155886 0.54226
0.984222 0.319127 0.655543
0.0741894 0.259083 0.519219
0.168856 0.247761 0.551797
0.36434 0.257481 0.558679
0.613672 0.266575 0.576303
0.991089 0.417472 0.666087
0.0261082 0.392309 0.557305
0.200534 0.40853 0.57116
0.382406 0.426276 0.602274
0.677852 0.407843 0.636515
1 0.576822 0.769924
0.0504768 0.596551 0.615579
0.194934 0.632227 0.627894
0.456016 0.650553 0.671031
0.669245 0.693385 0.69958
1 0.8056 0.796124
0.265766 0.95935 0.697841
0.447501 0.993042 0.673594
0.647654 1 0.702129
0.881773 1 0.81413
0.919234 1 1
0.22089 0.35288 1
0.328084 0.356802 1
0.458274 0.388754 0.995285
0.641352 0.448157 0.931655
1 0.449332 1
0.15697 0.409644 1
0.235386 0.402045 1
0.414694 0.422675 1
0.625101 0.460197 0.960678
1 0.518441 1
0.259525 0.546441 0.999939
0.183597 0.532143 1
0.379767 0.503288 1
0.648295 0.526497 1
1 0.586831 1
0 0.689494 1
0.168399 0.693996 1
0.41474 0.724086 1
0.661494 0.739055 1
1 0.754025 1
0.274922 0.987396 0.999084
0.425986 1 0.996811
0.727687 0.996246 1
0.914717 1 1
0.919234 1 1
