subtle niceties LUT V2 beta 9 (SSH-TS reimagined).cube
TITLE "Generated by Resolve"
LUT_3D_SIZE 33
0.0136721 0.012314 0.018677
0.033814 0.0119173 0.0177462
0.0489815 0.0130007 0.0154879
0.064622 0.0124666 0.0152132
0.0801709 0.0111238 0.0153506
0.0952163 0.0108492 0.0137331
0.107958 0.0112917 0.012726
0.122637 0.0108949 0.0113527
0.136767 0.0117494 0.0100862
0.151461 0.0128176 0.00840772
0.166583 0.0134737 0.00674449
0.18352 0.0141604 0.00509651
0.200565 0.0151064 0.0037232
0.218051 0.0159609 0.00265507
0.234745 0.0188754 0.00440986
0.252125 0.0221103 0.00682078
0.271 0.025391 0.00926223
0.291203 0.0288701 0.011902
0.312673 0.032578 0.0148318
0.33579 0.0363622 0.0178225
0.360052 0.0403601 0.0209812
0.387976 0.0457923 0.0241245
0.420035 0.0518349 0.0265049
0.452201 0.0571908 0.0286107
0.487007 0.0615396 0.0311742
0.52578 0.0652476 0.0343481
0.568917 0.0684062 0.0360266
0.618097 0.0793011 0.0377661
0.670161 0.0995651 0.0543679
0.729641 0.118929 0.0770886
0.800107 0.144091 0.107652
0.887816 0.178592 0.147356
1 0.225345 0.202457
0.0159152 0.0286107 0.0205081
0.0294652 0.0302129 0.0209049
0.0463722 0.0294652 0.0207675
0.0608225 0.0292058 0.022385
0.0731518 0.0307774 0.0207675
0.0866102 0.0318151 0.0204318
0.101961 0.0306249 0.0201114
0.119875 0.0291295 0.0186923
0.140597 0.0251164 0.0153201
0.157015 0.0249332 0.0114748
0.17322 0.0248264 0.00791943
0.19086 0.0249943 0.00466926
0.208087 0.0250706 0.00267033
0.225513 0.0253452 0.00144961
0.243458 0.0257877 0.000991836
0.262333 0.0264744 0.000610361
0.281773 0.0280613 0.00077821
0.301518 0.0314641 0.00375372
0.322576 0.0347601 0.00737011
0.345205 0.0388952 0.0103761
0.369085 0.0433356 0.013611
0.396918 0.0491646 0.0166629
0.428702 0.055436 0.0190433
0.461311 0.0604715 0.020798
0.497017 0.0648203 0.0219425
0.536889 0.0686961 0.0227207
0.580148 0.0768749 0.0265965
0.626596 0.0933394 0.0397955
0.677699 0.108782 0.0573434
0.737362 0.128878 0.0822766
0.809277 0.158175 0.116014
0.895399 0.184558 0.15082
1 0.236881 0.211063
0.0237278 0.0417639 0.0218204
0.0307774 0.0468147 0.0163577
0.046891 0.0472725 0.0156558
0.063508 0.0461738 0.0180056
0.0784466 0.0459297 0.0179751
0.0935073 0.0462196 0.0161593
0.10663 0.0462806 0.0168612
0.123537 0.045243 0.0165408
0.143053 0.0424048 0.0153811
0.160357 0.0412757 0.0124056
0.177874 0.040116 0.00915541
0.196963 0.0383764 0.00561532
0.215534 0.0365148 0.00325017
0.233402 0.035874 0.000808728
0.25153 0.0357824 0
0.270253 0.0360113 0
0.289845 0.0364385 0
0.310399 0.0374914 0
0.332586 0.0396124 0
0.355245 0.0433356 9.15541e-05
0.379141 0.0487678 0.00259403
0.407187 0.0541695 0.00537118
0.439261 0.0603647 0.00720226
0.472145 0.0656291 0.00782788
0.507881 0.0698711 0.00901808
0.546197 0.0800488 0.016907
0.588357 0.093492 0.027924
0.634775 0.108797 0.0429084
0.686503 0.125917 0.0637675
0.746746 0.147189 0.092195
0.817716 0.170672 0.12459
0.907134 0.204761 0.165194
1 0.258976 0.229404
0.029221 0.0560311 0.0213474
0.0355688 0.0615854 0.0141604
0.0476539 0.0638437 0.0122225
0.063798 0.0636454 0.0138857
0.0784009 0.0620737 0.0193942
0.09308 0.0623178 0.0199741
0.109331 0.0621195 0.0172885
0.128756 0.0608682 0.0155184
0.146731 0.0592203 0.0163577
0.164569 0.0569619 0.0149538
0.182071 0.0564736 0.0105135
0.201038 0.0554818 0.00563058
0.220462 0.0525368 0.00259403
0.239963 0.0496834 0.000549325
0.259495 0.0475929 0
0.278553 0.0477302 0
0.298344 0.0486152 0
0.319112 0.0498512 0
0.341115 0.052018 0
0.364233 0.054551 0
0.388602 0.0580453 0
0.4168 0.0621805 0
0.448524 0.0682383 0
0.480537 0.076112 0.000991836
0.514717 0.0862287 0.00709545
0.553384 0.0978256 0.0166323
0.595621 0.110994 0.0298466
0.642496 0.12604 0.0482185
0.694591 0.14345 0.0720684
0.755398 0.164904 0.103151
0.827253 0.19144 0.138689
0.917906 0.223911 0.180514
1 0.279088 0.247318
0.0315404 0.0703288 0.0186313
0.0401007 0.0745403 0.0145113
0.0523537 0.0768902 0.0140383
0.064271 0.07953 0.0126192
0.0794995 0.0784314 0.0172274
0.0931868 0.0773785 0.0234073
0.109621 0.0768292 0.0227207
0.131701 0.0751659 0.0183108
0.150729 0.073518 0.0162661
0.168765 0.071046 0.0166934
0.18613 0.071519 0.0110628
0.205127 0.0717327 0.00509651
0.223926 0.0712596 0
0.243275 0.0704356 0
0.263478 0.0680095 0
0.284581 0.0650034 0
0.306355 0.0613413 0
0.327199 0.0626535 0
0.349432 0.0648508 0
0.372427 0.0673075 0
0.396811 0.0711376 0
0.424521 0.0761273 0
0.455238 0.0834821 0
0.48632 0.0915389 9.15541e-05
0.520607 0.100999 0.00715648
0.55906 0.112566 0.0179446
0.601816 0.125612 0.0336919
0.648539 0.141146 0.0534218
0.700954 0.159365 0.0799878
0.762249 0.182132 0.113771
0.834531 0.209155 0.151781
0.926024 0.243336 0.196353
1 0.298772 0.264363
0.0367437 0.0841382 0.0213321
0.0446784 0.0881361 0.0184787
0.0555428 0.0910658 0.0172122
0.068986 0.0929885 0.0158846
0.0799725 0.0951553 0.0146944
0.0957198 0.094255 0.0206455
0.110323 0.0926375 0.0288396
0.133562 0.0923171 0.0218814
0.153735 0.0914473 0.0179446
0.172473 0.090135 0.0158541
0.190616 0.0898299 0.0120546
0.209003 0.0923629 0.00303655
0.227649 0.0938582 0
0.246738 0.093904 0
0.266926 0.0929122 0
0.288075 0.0907759 0
0.310033 0.0889296 0
0.333165 0.0856947 0
0.357809 0.0819562 0
0.381476 0.08336 0
0.405951 0.0874952 0
0.433585 0.09337 0
0.464485 0.10074 0
0.495216 0.108751 0
0.528206 0.118013 0.00471504
0.565225 0.128801 0.0212253
0.607233 0.142138 0.0375219
0.654261 0.157916 0.0596933
0.707027 0.176913 0.0900282
0.768185 0.199954 0.124987
0.840757 0.227436 0.164492
0.933211 0.263935 0.213687
1 0.321614 0.285817
0.0422827 0.0977035 0.0240482
0.0495003 0.101534 0.0221408
0.0576486 0.105715 0.0205539
0.0712444 0.107759 0.0201114
0.0835584 0.110063 0.0188602
0.097673 0.112337 0.016556
0.11397 0.111543 0.0247501
0.133288 0.110689 0.0274968
0.155566 0.110216 0.0205386
0.175906 0.108858 0.0157168
0.194736 0.1084 0.0120699
0.213062 0.11075 0.00137331
0.23125 0.113436 0
0.250111 0.115007 0
0.270069 0.115648 0
0.291096 0.115404 0
0.313405 0.114153 0
0.336858 0.112596 0
0.361547 0.111421 0
0.386999 0.109972 0
0.413733 0.108248 0
0.442786 0.10959 0
0.473503 0.117342 0
0.504143 0.125338 0
0.537011 0.135348 0
0.573892 0.14696 0.0170901
0.614572 0.160632 0.0392309
0.659739 0.175769 0.0679789
0.711635 0.194553 0.0994583
0.772717 0.217334 0.135897
0.845457 0.246509 0.1785
0.938674 0.283482 0.229419
1 0.347402 0.307378
0.0496681 0.115038 0.0273747
0.0562295 0.118868 0.0263981
0.0628672 0.122713 0.0257267
0.0706798 0.126055 0.0252537
0.0856184 0.127764 0.0247196
0.102602 0.129641 0.0221256
0.118288 0.13164 0.0185397
0.136736 0.13106 0.0252842
0.157107 0.130938 0.0229953
0.178882 0.130037 0.015259
0.199634 0.128664 0.00909438
0.218433 0.130556 0.000518807
0.236576 0.133364 0
0.254673 0.137362 0
0.274052 0.139361 0
0.294881 0.140627 0
0.316762 0.141146 0
0.339986 0.141054 0
0.364904 0.140795 0
0.390509 0.141299 0
0.41767 0.141299 0
0.448188 0.141878 0
0.481651 0.142794 0
0.514214 0.14519 0
0.546975 0.154788 0
0.583673 0.167391 0.00808728
0.624033 0.181689 0.0337987
0.668894 0.198138 0.0671855
0.719295 0.216892 0.107774
0.778027 0.239277 0.149416
0.849714 0.267521 0.193545
0.942504 0.30573 0.247425
1 0.380789 0.331029
0.0568856 0.131945 0.0318608
0.063386 0.135531 0.0307927
0.0694285 0.139055 0.0301518
0.0758679 0.142763 0.0295415
0.088014 0.14551 0.0280461
0.106538 0.147173 0.0251316
0.123262 0.148943 0.0213931
0.140795 0.151217 0.018677
0.160739 0.150729 0.0214237
0.18204 0.150362 0.0157473
0.20444 0.149722 0.00595102
0.223621 0.149752 0.00343328
0.242115 0.151949 0
0.260426 0.155581 0
0.278965 0.159976 0
0.298619 0.163943 0
0.320378 0.165438 0
0.343755 0.166155 0
0.368582 0.166979 0
0.393957 0.168566 0
0.420798 0.17026 0
0.451209 0.172305 0
0.48484 0.175479 0
0.518273 0.178561 0
0.553277 0.18349 0
0.59176 0.190082 0
0.633005 0.201389 0.0270848
0.677378 0.218784 0.0634928
0.727199 0.239002 0.10898
0.785824 0.262623 0.156558
0.855634 0.291203 0.20647
0.944198 0.330678 0.265965
1 0.413077 0.351888
0.0660716 0.148608 0.0336309
0.0721599 0.151751 0.0321355
0.0781109 0.155093 0.0306401
0.0853742 0.15938 0.0297856
0.0919966 0.163149 0.0287633
0.108125 0.165011 0.0271
0.126329 0.166522 0.024033
0.14583 0.168811 0.019028
0.163485 0.170459 0.0180362
0.184558 0.170291 0.0172122
0.207813 0.16997 0.00784314
0.229068 0.169833 0.00442512
0.248234 0.170413 0
0.26688 0.173022 0
0.285527 0.177005 0
0.304677 0.181888 0
0.324422 0.187915 0
0.347173 0.189899 0
0.371038 0.192126 0
0.396521 0.193774 0
0.423178 0.196384 0
0.454047 0.198947 0
0.487511 0.20293 0
0.520867 0.207843 0
0.556451 0.213199 0
0.595636 0.220813 0
0.638102 0.23006 0.00700389
0.684077 0.242573 0.0521706
0.734844 0.259022 0.107958
0.792599 0.284031 0.15967
0.861692 0.31397 0.215503
0.94818 0.358144 0.277897
1 0.445304 0.371801
0.0766918 0.165866 0.0328069
0.0829175 0.169039 0.0319677
0.0886854 0.172427 0.0311284
0.0953689 0.176577 0.0299382
0.101442 0.180468 0.0292973
0.109056 0.184283 0.0286107
0.128405 0.185992 0.0266575
0.149355 0.187762 0.0229343
0.168826 0.189914 0.0178225
0.186786 0.191821 0.0175021
0.209613 0.191684 0.0134585
0.23331 0.19118 0.00614939
0.253819 0.191089 0.00404364
0.272984 0.192065 0
0.292134 0.195117 0
0.311513 0.19939 0
0.331655 0.204929 0
0.352453 0.211063 0
0.374884 0.216464 0
0.399619 0.21854 0
0.425452 0.221286 0
0.454704 0.225284 0
0.489174 0.229587 0
0.523262 0.234028 0
0.558785 0.240436 0
0.598016 0.248875 0
0.640909 0.259464 0
0.687602 0.27216 0.0179446
0.738903 0.288258 0.0842298
0.797971 0.308553 0.153475
0.867124 0.336294 0.219547
0.951293 0.384009 0.287816
1 0.47599 0.385199
0.0820325 0.185245 0.0374151
0.094377 0.187762 0.0344091
0.100191 0.191623 0.0338293
0.10631 0.195697 0.0330053
0.112169 0.199557 0.0319829
0.11873 0.203845 0.0311894
0.128954 0.207385 0.0298466
0.151583 0.208957 0.0267338
0.172885 0.210742 0.0216068
0.19292 0.212818 0.0147097
0.211994 0.214527 0.0154879
0.237385 0.214527 0.00981155
0.259083 0.21442 0.00677501
0.279759 0.214405 0.00500496
0.299458 0.21561 0
0.319265 0.21886 0
0.339544 0.223407 0
0.36022 0.229358 0
0.381796 0.235782 0
0.404303 0.243275 0
0.429191 0.247044 0
0.457206 0.251301 0
0.489769 0.256077 0
0.523033 0.261784 0
0.559747 0.26775 0
0.599161 0.276219 0
0.642374 0.286625 0
0.689799 0.300114 0
0.741344 0.316793 0.0360266
0.801434 0.337987 0.126101
0.870771 0.364569 0.203723
0.956085 0.406821 0.286198
1 0.503914 0.394766
0.0840467 0.205219 0.0453651
0.105165 0.206897 0.0385595
0.111696 0.210651 0.0367285
0.117525 0.214313 0.0349279
0.123445 0.218265 0.03299
0.12987 0.222705 0.030869
0.136126 0.227039 0.0288853
0.153262 0.230076 0.0276646
0.176013 0.231785 0.0246738
0.196857 0.233722 0.0196994
0.217807 0.235874 0.0124361
0.239185 0.237598 0.0141604
0.263218 0.237629 0.00952163
0.285161 0.237705 0.00721752
0.306233 0.237842 0.00605783
0.326818 0.239292 0
0.347204 0.242588 0
0.368292 0.247456 0
0.389883 0.253544 0
0.411643 0.260441 0
0.434577 0.267765 0
0.460883 0.275624 0
0.492622 0.280232 0
0.524071 0.286213 0
0.559686 0.29276 0
0.599603 0.300877 0
0.642527 0.311269 0
0.689998 0.32459 0
0.741924 0.34107 0
0.802396 0.362509 0.0709392
0.873289 0.390051 0.179217
0.961196 0.427283 0.273106
1 0.523491 0.388327
0.0925307 0.224781 0.0480354
0.113939 0.226261 0.0401923
0.124025 0.229282 0.0350652
0.129015 0.233448 0.0321202
0.13463 0.237644 0.0313878
0.140703 0.241871 0.030808
0.147097 0.246311 0.0301976
0.15491 0.251713 0.0294499
0.177874 0.253391 0.0278935
0.200259 0.255329 0.024033
0.222248 0.257298 0.0183261
0.244694 0.259648 0.0122072
0.266178 0.261189 0.012665
0.28957 0.26128 0.00901808
0.311864 0.26128 0.00733959
0.333486 0.261631 0.00701915
0.354864 0.263294 0
0.376059 0.26685 0
0.398062 0.272129 0
0.420447 0.278462 0
0.442603 0.285451 0
0.468009 0.293721 0
0.496559 0.303853 0
0.527138 0.309651 0
0.560861 0.316426 0
0.599023 0.324788 0
0.641825 0.334585 0
0.688655 0.347417 0
0.740917 0.363577 0
0.801572 0.384253 0
0.872541 0.411612 0.126711
0.962463 0.449424 0.250095
1 0.539361 0.375692
0.10338 0.244816 0.0426642
0.122377 0.246311 0.0384222
0.134447 0.249454 0.0355383
0.140475 0.253513 0.0357824
0.146075 0.257328 0.0358587
0.152148 0.261646 0.0354467
0.158663 0.266377 0.0344091
0.166155 0.271397 0.033051
0.178485 0.2757 0.0316014
0.202457 0.277577 0.0281071
0.226032 0.279271 0.0222171
0.250004 0.281621 0.0142214
0.271916 0.283772 0.0108339
0.293202 0.285634 0.0120546
0.317113 0.285756 0.00901808
0.339803 0.285939 0.0078584
0.362081 0.286351 0.00794995
0.383917 0.288136 0
0.406394 0.292073 0
0.428611 0.29752 0
0.451896 0.304112 0
0.476875 0.31194 0
0.504341 0.321248 0
0.531792 0.331243 0
0.56257 0.340169 0
0.599222 0.347951 0
0.640772 0.358053 0
0.687236 0.369528 0
0.738857 0.384833 0
0.799222 0.404898 0
0.870542 0.431128 0.0455482
0.959899 0.468467 0.204562
1 0.551843 0.357717
0.0995499 0.266865 0.0606088
0.121782 0.26836 0.0560922
0.144396 0.270024 0.0476081
0.153033 0.273915 0.0435645
0.158038 0.277958 0.0413214
0.163729 0.282216 0.0383612
0.16994 0.286778 0.0352789
0.177569 0.292088 0.0318608
0.18584 0.297398 0.0301823
0.204425 0.300496 0.029633
0.229328 0.302068 0.0264439
0.254383 0.304555 0.0206149
0.277409 0.307012 0.0124056
0.299397 0.309255 0.0102083
0.321294 0.310872 0.0115053
0.345769 0.311238 0.00906386
0.368933 0.311696 0.00851453
0.391806 0.312459 0.00892653
0.414588 0.314 0.00125124
0.437613 0.318257 0
0.460502 0.323751 0
0.485924 0.331228 0
0.513313 0.339956 0
0.540429 0.349248 0
0.56965 0.359899 0
0.603403 0.371664 0
0.642237 0.380911 0
0.687373 0.392157 0
0.736645 0.406134 0
0.796185 0.424964 0
0.866407 0.450202 0
0.955139 0.486076 0.133181
1 0.56025 0.336187
0.100786 0.289555 0.0703136
0.126009 0.290837 0.0635233
0.150454 0.292424 0.0527962
0.164065 0.295628 0.0440375
0.168795 0.299626 0.0395514
0.174884 0.304006 0.0369726
0.181537 0.308354 0.0356603
0.189654 0.313726 0.034165
0.197971 0.318975 0.0328374
0.20647 0.324468 0.0319066
0.232029 0.326436 0.0301213
0.257664 0.328817 0.0268864
0.282048 0.33109 0.0198825
0.305287 0.333593 0.00982681
0.327901 0.335622 0.00941482
0.3505 0.337392 0.0107729
0.375509 0.337789 0.00889601
0.39942 0.338628 0.00888075
0.42295 0.339727 0.0100404
0.44654 0.341207 0.00396735
0.470039 0.345617 0
0.495659 0.351766 0
0.523415 0.360082 0
0.550057 0.368673 0
0.578195 0.378607 0
0.609796 0.390463 0
0.645579 0.405127 0
0.68835 0.415045 0
0.736614 0.428138 0
0.793591 0.44535 0
0.862959 0.469017 0
0.951156 0.503059 0.0597696
1 0.570306 0.318288
0.108339 0.312474 0.0713512
0.135744 0.313649 0.0608377
0.158541 0.315251 0.0520027
0.175967 0.317998 0.0459449
0.181888 0.322194 0.0453803
0.188128 0.326329 0.0446174
0.194629 0.330739 0.0427863
0.202594 0.336019 0.0407263
0.210727 0.341558 0.0383459
0.219287 0.347127 0.0353399
0.233127 0.351522 0.032105
0.261357 0.353567 0.0297551
0.286748 0.356023 0.0254063
0.310964 0.358419 0.0186465
0.334264 0.361257 0.00877394
0.357015 0.363409 0.0104372
0.380713 0.365225 0.0113832
0.406058 0.366003 0.00975052
0.430976 0.366857 0.0100404
0.455299 0.367849 0.0114595
0.479408 0.369909 0.00796521
0.50544 0.374731 0
0.532937 0.381216 0
0.559945 0.389349 0
0.588129 0.398642 0
0.619516 0.409537 0
0.652918 0.422385 0
0.691096 0.43798 0
0.736996 0.450843 0
0.792996 0.466087 0
0.859388 0.488136 0
0.946715 0.520333 0
1 0.581598 0.289967
0.104799 0.337453 0.0878157
0.132723 0.338506 0.0829786
0.158663 0.340398 0.0744945
0.184344 0.34197 0.0614786
0.195773 0.345266 0.053666
0.201389 0.349752 0.049012
0.207599 0.354528 0.0436561
0.215228 0.35967 0.0390936
0.223697 0.364996 0.0381933
0.232578 0.370504 0.0381781
0.241856 0.376394 0.0379034
0.263706 0.379934 0.0369726
0.290227 0.382223 0.0337072
0.316014 0.384482 0.0271458
0.340688 0.387335 0.018143
0.364569 0.390127 0.00817884
0.388006 0.392401 0.010605
0.412268 0.39443 0.0117952
0.438285 0.395605 0.010605
0.46363 0.396811 0.0113069
0.488624 0.398215 0.0130159
0.515206 0.400351 0.0107729
0.543603 0.405768 0
0.570184 0.411933 0
0.598184 0.419974 0
0.628672 0.43003 0
0.661814 0.441993 0
0.698817 0.45565 0
0.740215 0.472297 0
0.79266 0.488319 0
0.856809 0.508003 0
0.941573 0.537911 0
1 0.595712 0.251377
0.103593 0.362966 0.0999008
0.13608 0.363806 0.093492
0.166201 0.364965 0.0827802
0.191028 0.367086 0.0690623
0.208621 0.369558 0.0556039
0.214878 0.374029 0.0526436
0.221515 0.378592 0.0511025
0.229679 0.3841 0.0489662
0.237995 0.389487 0.0463417
0.246555 0.394873 0.0442817
0.255772 0.400763 0.0419471
0.265934 0.406912 0.0393835
0.294789 0.408957 0.0357519
0.320897 0.411505 0.0326543
0.346563 0.413901 0.0262608
0.371252 0.416922 0.017792
0.39556 0.420172 0.00909438
0.419211 0.422858 0.0145113
0.444724 0.42501 0.016083
0.471412 0.42623 0.0138705
0.497429 0.427634 0.0138399
0.524956 0.429511 0.015259
0.553704 0.431937 0.0122377
0.580865 0.437339 0
0.608713 0.443717 0
0.639048 0.452155 0
0.671382 0.462699 0
0.707362 0.475471 0
0.747036 0.49044 0
0.794659 0.508995 0
0.856138 0.528481 0
0.937896 0.555474 0
1 0.609613 0.214252
0.108659 0.388495 0.107469
0.143709 0.389624 0.100084
0.171054 0.391089 0.0939193
0.19678 0.392859 0.0850843
0.219883 0.39501 0.0717937
0.230228 0.398795 0.0646525
0.236408 0.403693 0.0597696
0.243977 0.409155 0.0536812
0.251804 0.414527 0.0470893
0.260243 0.420081 0.0397498
0.269841 0.425895 0.0399939
0.280385 0.432303 0.0413214
0.297444 0.437095 0.0438239
0.324819 0.439475 0.0433356
0.351705 0.441947 0.0383917
0.377401 0.444862 0.0300755
0.403037 0.447959 0.018677
0.428107 0.451072 0.0117342
0.452399 0.454185 0.0175326
0.478477 0.456565 0.0191653
0.505379 0.458427 0.0177768
0.533944 0.460273 0.0182345
0.563684 0.462348 0.018616
0.591867 0.464866 0.0152285
0.619593 0.470268 0
0.649378 0.476875 0
0.681697 0.485756 0
0.716609 0.496971 0
0.755199 0.51046 0
0.800641 0.527367 0
0.857542 0.548623 0
0.934203 0.574182 0
1 0.623621 0.1823
0.10869 0.417762 0.122942
0.144518 0.418738 0.116457
0.177447 0.419959 0.106386
0.206851 0.421653 0.0929427
0.230106 0.423651 0.0779583
0.245151 0.427115 0.0650187
0.251072 0.431495 0.0583505
0.259968 0.437125 0.0594492
0.268681 0.442435 0.0588235
0.277302 0.448112 0.0572824
0.286503 0.453834 0.0547951
0.296803 0.460243 0.0518044
0.306859 0.466773 0.0484779
0.32987 0.470329 0.0471046
0.357595 0.472526 0.0452583
0.384939 0.475349 0.0400092
0.411002 0.478706 0.0328679
0.436622 0.482307 0.0234531
0.461662 0.485924 0.0199741
0.486076 0.489509 0.0268406
0.513115 0.492073 0.0269322
0.543526 0.493858 0.0239414
0.574304 0.49601 0.0231174
0.602747 0.49897 0.0227512
0.631632 0.501991 0.0210117
0.661738 0.50695 0
0.693141 0.513512 0
0.727321 0.522744 0
0.765057 0.534447 0
0.808652 0.54931 0
0.86154 0.568215 0
0.932662 0.594217 0
1 0.638514 0.159564
0.103822 0.449516 0.137545
0.147189 0.450111 0.131472
0.184726 0.451179 0.121736
0.213428 0.452827 0.112367
0.238331 0.454856 0.102037
0.262364 0.457237 0.0872969
0.271046 0.461601 0.0802777
0.278355 0.46714 0.0733196
0.286122 0.472755 0.0657664
0.29424 0.478279 0.0565347
0.303746 0.484398 0.0519265
0.314229 0.490761 0.0518654
0.324742 0.497139 0.0535439
0.335164 0.503792 0.0568856
0.362951 0.506508 0.0587625
0.391287 0.508934 0.0556344
0.418677 0.512245 0.0491493
0.445823 0.51545 0.0405737
0.472129 0.519448 0.0311742
0.497002 0.523507 0.0283055
0.521355 0.527672 0.039826
0.551446 0.530327 0.0387274
0.583566 0.532921 0.0339208
0.613397 0.535714 0.0311589
0.643351 0.538506 0.0286259
0.674342 0.542077 0.0244602
0.706279 0.546807 0.00898756
0.73959 0.553353 0
0.776043 0.562753 0
0.818235 0.575067 0
0.868254 0.591455 0
0.934569 0.613901 0
1 0.654063 0.161746
0.102556 0.480125 0.152773
0.150515 0.480674 0.147539
0.187686 0.481712 0.140017
0.221729 0.483406 0.127794
0.249409 0.48484 0.112367
0.275502 0.487098 0.0914626
0.28658 0.491127 0.0776226
0.294835 0.496727 0.0744335
0.30367 0.502235 0.0743877
0.312398 0.507637 0.0732738
0.321752 0.513695 0.0710307
0.332052 0.520241 0.0671855
0.342229 0.526635 0.0625772
0.352697 0.533196 0.0631876
0.368963 0.538552 0.0658274
0.398001 0.541482 0.0671855
0.426307 0.544503 0.065919
0.453315 0.547967 0.063386
0.480629 0.551507 0.0559396
0.507134 0.555993 0.0453498
0.532387 0.560449 0.0428168
0.558938 0.56495 0.0550393
0.591211 0.568368 0.0534829
0.622293 0.571221 0.0470588
0.653468 0.574014 0.0415808
0.685405 0.577661 0.0356298
0.718517 0.581613 0.0271916
0.751904 0.586465 0.0255589
0.78706 0.592996 0.00863661
0.828046 0.602579 0
0.875868 0.615793 0
0.936645 0.634806 0
1 0.669612 0.191821
0.106203 0.511589 0.166232
0.154543 0.512383 0.161105
0.197482 0.513268 0.152529
0.231205 0.514626 0.141772
0.258808 0.516457 0.131746
0.286549 0.518517 0.116442
0.307164 0.521385 0.100679
0.314595 0.527138 0.0937972
0.322271 0.532753 0.0864424
0.330388 0.538537 0.0778668
0.339879 0.544457 0.0763256
0.350515 0.550713 0.0770886
0.360784 0.55729 0.0777447
0.371283 0.563897 0.0788281
0.382055 0.570642 0.0804761
0.404288 0.575036 0.0833448
0.433661 0.577859 0.0831159
0.462165 0.581262 0.0815137
0.490242 0.584817 0.0789044
0.516716 0.589319 0.076463
0.542947 0.594018 0.0664073
0.570428 0.59913 0.0656138
0.598047 0.604212 0.0807965
0.629297 0.607507 0.0809491
0.661768 0.610864 0.0655375
0.695155 0.614557 0.0552529
0.72932 0.618738 0.0441291
0.764584 0.62327 0.0293736
0.799496 0.627283 0.050721
0.838102 0.633768 0.0590524
0.883497 0.643717 0.0692149
0.941939 0.658442 0.103761
1 0.6878 0.232471
0.106157 0.54609 0.182223
0.161471 0.546868 0.177707
0.204166 0.547478 0.170367
0.241947 0.548867 0.159777
0.271443 0.550484 0.147066
0.300465 0.552422 0.12845
0.326207 0.554711 0.104845
0.334508 0.560235 0.103456
0.34316 0.565927 0.100923
0.351659 0.571633 0.0979782
0.360662 0.577356 0.0927749
0.370642 0.584054 0.0858778
0.380941 0.590387 0.0847334
0.391714 0.597131 0.0876936
0.402213 0.603784 0.0917067
0.413184 0.610803 0.098909
0.441581 0.614191 0.105974
0.471199 0.61738 0.106157
0.499718 0.620874 0.105821
0.527947 0.624857 0.10454
0.554223 0.629694 0.102983
0.58233 0.635126 0.0966049
0.611475 0.640406 0.096849
0.63621 0.646204 0.115496
0.66688 0.649912 0.125246
0.700481 0.653513 0.121523
0.735546 0.657542 0.11426
0.770916 0.662181 0.10602
0.80795 0.667231 0.092668
0.848447 0.671336 0.105318
0.892256 0.676722 0.135943
0.946319 0.687922 0.177523
1 0.715694 0.258335
0.118242 0.582376 0.197742
0.172259 0.582742 0.192767
0.218784 0.583642 0.184726
0.255146 0.584939 0.175372
0.287709 0.586343 0.162448
0.316701 0.588159 0.14519
0.344335 0.590478 0.124392
0.355932 0.595514 0.111833
0.363745 0.601495 0.102937
0.373068 0.606744 0.105196
0.382986 0.612711 0.107424
0.393317 0.619074 0.10782
0.403555 0.62565 0.107317
0.413779 0.631968 0.106691
0.424445 0.638926 0.11075
0.435233 0.645716 0.115648
0.451514 0.652003 0.123033
0.480919 0.655207 0.131533
0.510292 0.658976 0.13492
0.539055 0.662699 0.136034
0.566155 0.667536 0.136339
0.594659 0.672786 0.136889
0.623789 0.678904 0.13077
0.649836 0.684901 0.131518
0.674372 0.690929 0.155062
0.705211 0.694545 0.17409
0.739086 0.69839 0.184192
0.772717 0.702678 0.190982
0.808331 0.707256 0.197833
0.846845 0.712291 0.206394
0.890501 0.71751 0.218692
0.943084 0.725673 0.24155
1 0.748501 0.299413
0.130831 0.620829 0.21445
0.188586 0.621378 0.209186
0.233494 0.622049 0.201465
0.274495 0.623331 0.190295
0.30576 0.624613 0.177783
0.335698 0.626581 0.164126
0.362905 0.628687 0.148867
0.381674 0.633173 0.135805
0.389319 0.638804 0.128908
