subtle niceties LUT V2 beta 12 (SSH-TS reimagined).cube
TITLE "Generated by Resolve"
LUT_3D_SIZE 33
0.00874342 0.00762951 0.011429
0.0194247 0.0087892 0.0117952
0.0281987 0.0100099 0.0138247
0.0397192 0.0115206 0.0146029
0.0546578 0.0122683 0.0131533
0.0677501 0.0140688 0.0135958
0.0803845 0.0161898 0.0144961
0.0944991 0.0179294 0.0157473
0.111406 0.01944 0.0159762
0.130373 0.0195621 0.0142214
0.149523 0.0194247 0.0119783
0.16997 0.019089 0.00923171
0.190326 0.0184482 0.00695811
0.210758 0.0177615 0.00451667
0.231464 0.0180972 0.0034638
0.251499 0.0211795 0.00561532
0.271351 0.024567 0.00848402
0.291203 0.0282444 0.0111238
0.311971 0.0318914 0.0140841
0.334447 0.0357977 0.0171054
0.358282 0.0397498 0.0204166
0.384848 0.045243 0.0235294
0.415427 0.0507362 0.0263218
0.447639 0.0563821 0.0286717
0.482048 0.0611582 0.0311284
0.519417 0.0654002 0.0339055
0.559945 0.0684367 0.0374456
0.607385 0.0776532 0.0379034
0.654353 0.112367 0.0644999
0.706767 0.146548 0.10045
0.768139 0.185611 0.141344
0.842527 0.235462 0.192172
0.955459 0.297871 0.255985
0.0100099 0.0192874 0.0146181
0.0206607 0.0218662 0.0154269
0.0340124 0.0235142 0.0153811
0.0491493 0.0244297 0.0161593
0.065568 0.0255589 0.0151369
0.0802319 0.0274052 0.0136263
0.0950484 0.0275731 0.0135805
0.111574 0.0273289 0.0132143
0.129198 0.0266423 0.0131228
0.146014 0.0270237 0.0118563
0.163394 0.0278172 0.00956741
0.182757 0.0284123 0.00643931
0.201755 0.0289158 0.00521859
0.220966 0.029221 0.00436408
0.240467 0.0291905 0.00401312
0.260685 0.0290379 0.0030518
0.281682 0.0283818 0.000900282
0.301167 0.030808 0.00308232
0.321492 0.0341955 0.00666819
0.343542 0.0381781 0.00991836
0.367025 0.0428931 0.0130159
0.393545 0.0483253 0.0164645
0.423789 0.0541543 0.0192721
0.45623 0.0595712 0.0215305
0.490913 0.0640726 0.023209
0.529427 0.0681315 0.0240787
0.570733 0.0750134 0.0270237
0.613413 0.0994583 0.0448768
0.659892 0.127291 0.0722972
0.711955 0.152819 0.104768
0.774029 0.196353 0.148226
0.849714 0.243626 0.196674
0.962844 0.309728 0.264073
0.0148318 0.0333257 0.0148775
0.0262303 0.0374762 0.0130922
0.0418097 0.0394446 0.0143435
0.0565042 0.041413 0.0144198
0.0729229 0.0421912 0.0161898
0.0871748 0.0431525 0.0170596
0.101411 0.0439002 0.0170138
0.118593 0.0438392 0.0167697
0.137957 0.0424659 0.0159762
0.15639 0.0408026 0.0143587
0.17528 0.0398718 0.0105135
0.195346 0.0379187 0.00608835
0.213764 0.0381781 0.00309758
0.231525 0.0387579 0.002121
0.249851 0.0390631 0.00103761
0.268589 0.0389715 0.000411994
0.287968 0.0392615 9.15541e-05
0.308385 0.0394903 4.57771e-05
0.330373 0.0403449 0
0.35314 0.04271 0
0.376638 0.0479744 0.00248722
0.403265 0.0532692 0.00550851
0.433738 0.0594492 0.00753796
0.466316 0.0644541 0.00921645
0.501442 0.0697948 0.0106203
0.538369 0.0796674 0.0168154
0.576791 0.0984054 0.0320439
0.618769 0.119829 0.0532692
0.665446 0.145678 0.0830854
0.718151 0.175891 0.118517
0.780362 0.21416 0.159609
0.856474 0.252171 0.20235
0.970275 0.320226 0.271122
0.0232395 0.0487221 0.015198
0.033814 0.0535286 0.0126192
0.0468757 0.0571908 0.0119326
0.0616617 0.0591897 0.0132753
0.0777905 0.0609598 0.0130312
0.0918746 0.0615854 0.0155947
0.106569 0.061265 0.0179599
0.12578 0.0597848 0.0208896
0.144442 0.0590372 0.0201572
0.163256 0.0567788 0.0191196
0.182162 0.0556649 0.0154726
0.201831 0.0544747 0.0102998
0.221271 0.0521553 0.00495918
0.240528 0.0499428 0.000442512
0.258976 0.0486152 0
0.277195 0.0496376 0
0.29633 0.0505684 0
0.316579 0.0515602 0
0.338003 0.0534066 0
0.360769 0.0552682 0
0.384985 0.0578927 0
0.412039 0.0614481 0
0.442603 0.0668193 0
0.47425 0.0749676 0.00175479
0.50753 0.0869154 0.00898756
0.543038 0.102068 0.0205844
0.581704 0.119997 0.0374304
0.624018 0.141634 0.0609293
0.671138 0.166445 0.0940871
0.72433 0.195789 0.13022
0.786648 0.230915 0.170092
0.864973 0.274418 0.216892
0.979812 0.339498 0.2851
0.0311437 0.0647898 0.0157626
0.0402838 0.0703593 0.0136721
0.0541695 0.0732128 0.0139925
0.0664378 0.0762951 0.0137484
0.0817884 0.0784161 0.0147555
0.0962997 0.0800031 0.0133669
0.111925 0.0792706 0.0159915
0.131167 0.0774395 0.0188144
0.149722 0.0745861 0.0233768
0.168215 0.0727855 0.022858
0.187121 0.0711376 0.019791
0.20589 0.0708019 0.0142672
0.224781 0.0700389 0.00833143
0.244022 0.0684977 0.00323491
0.263813 0.0669108 0
0.284459 0.0644846 0
0.305684 0.0619669 0
0.325536 0.063798 0
0.346609 0.066041 0
0.36907 0.0686198 0
0.393301 0.0720531 0
0.419379 0.0768597 0
0.448661 0.0844587 0
0.479057 0.0941329 0.00131228
0.511879 0.105531 0.00962844
0.547738 0.119753 0.0227817
0.586664 0.137392 0.0417334
0.629191 0.158404 0.0684215
0.676539 0.183261 0.101534
0.730159 0.213169 0.138643
0.793072 0.249088 0.180636
0.871885 0.292515 0.229694
0.989532 0.358831 0.299245
0.0387427 0.0804913 0.0193027
0.0485389 0.084947 0.0175326
0.0608377 0.0883345 0.0168612
0.0730755 0.0916762 0.0161135
0.0843824 0.094789 0.0153811
0.0998398 0.0960861 0.0157626
0.116686 0.0974594 0.0126345
0.135241 0.0971389 0.0135958
0.152804 0.0954604 0.0165255
0.170718 0.0929885 0.021088
0.1897 0.0895857 0.024445
0.208713 0.0901198 0.0184024
0.227665 0.0903639 0.0120241
0.246784 0.0896315 0.0056611
0.266697 0.088426 0
0.287617 0.0869917 0
0.309148 0.08542 0
0.331868 0.0830396 0
0.355428 0.0809491 0
0.378256 0.0828412 0
0.402228 0.087129 0
0.428428 0.0927291 0
0.457618 0.100099 0
0.487785 0.110033 0
0.518883 0.121523 0.00633249
0.552773 0.136019 0.0249943
0.591531 0.15256 0.0437934
0.63418 0.173083 0.070573
0.681865 0.198154 0.105806
0.736141 0.228077 0.145281
0.79939 0.263783 0.188403
0.87863 0.308721 0.239475
0.998657 0.375387 0.311238
0.0465095 0.096376 0.0227207
0.0573129 0.100053 0.0216831
0.0688182 0.104005 0.0204166
0.0801251 0.10724 0.0196689
0.0907607 0.110765 0.0183719
0.102434 0.113954 0.016434
0.118929 0.115068 0.0153811
0.13695 0.117021 0.00791943
0.155032 0.116487 0.00700389
0.173175 0.114412 0.0107576
0.192004 0.111284 0.0165713
0.211322 0.108888 0.0203403
0.230243 0.108843 0.0146487
0.249104 0.109178 0.00724804
0.269444 0.108873 0.000869764
0.290288 0.108385 0
0.312291 0.107652 0
0.33521 0.106889 0
0.359182 0.106172 0
0.384237 0.105394 0
0.41059 0.105119 0
0.438224 0.107301 0
0.46714 0.114961 0
0.496986 0.124422 0
0.528618 0.136141 0
0.562478 0.150301 0.0150301
0.599298 0.16759 0.0411078
0.639963 0.188113 0.0739757
0.687419 0.211887 0.107927
0.741695 0.240955 0.147051
0.805341 0.277073 0.192615
0.885451 0.323644 0.247776
1 0.391592 0.322316
0.0553445 0.115084 0.0264134
0.0665904 0.117983 0.0262608
0.0783398 0.120699 0.0255131
0.0883955 0.123476 0.0246281
0.0991226 0.126329 0.0228733
0.10988 0.129885 0.0200504
0.120546 0.13312 0.0169375
0.138231 0.13463 0.0135958
0.157 0.137087 0.000961318
0.176043 0.137118 0
0.19527 0.134417 3.0518e-05
0.215183 0.131609 0.00808728
0.233997 0.129656 0.0116732
0.252399 0.129702 0.0113375
0.272068 0.130297 0.00306706
0.293172 0.130632 0
0.315099 0.130816 0
0.338231 0.130755 0
0.362356 0.1308 0
0.38764 0.131563 0
0.41442 0.132448 0
0.443503 0.134081 0
0.475593 0.135973 0
0.508415 0.139788 0
0.539635 0.15082 0
0.573892 0.164675 0
0.611139 0.181613 0.0230564
0.651865 0.201801 0.0578012
0.697063 0.225925 0.103334
0.748623 0.255116 0.150439
0.812436 0.290272 0.195819
0.892607 0.3364 0.251881
1 0.407141 0.331579
0.0618906 0.132647 0.0302281
0.0742504 0.134646 0.0301061
0.0859998 0.136431 0.0300145
0.0979171 0.138415 0.0292515
0.109148 0.14107 0.0267033
0.11841 0.144762 0.023743
0.127657 0.148455 0.0213474
0.139651 0.152422 0.0176394
0.158007 0.154437 0.0101625
0.178073 0.156924 0
0.19852 0.158099 0
0.219501 0.153613 0
0.238834 0.15108 0.00140383
0.257389 0.150347 0.00331121
0.275944 0.150332 0.00318914
0.295705 0.151568 0
0.317891 0.152102 0
0.341009 0.152865 0
0.365316 0.153796 0
0.390707 0.15491 0
0.417655 0.156588 0
0.446815 0.158892 0
0.478904 0.162936 0
0.512291 0.167178 0
0.547082 0.172946 0
0.584726 0.179767 0
0.623056 0.194446 0.00370794
0.664057 0.214069 0.0380102
0.70959 0.237797 0.0853437
0.761196 0.26659 0.138125
0.821988 0.302281 0.194476
0.900282 0.348257 0.255329
1 0.419806 0.332174
0.0700542 0.149157 0.0316167
0.0821851 0.150851 0.0314031
0.0933852 0.152575 0.0310674
0.105547 0.154818 0.0304265
0.117601 0.157153 0.0291142
0.126497 0.160449 0.0268711
0.135439 0.163989 0.0250248
0.145586 0.168246 0.0233158
0.158236 0.172244 0.0192416
0.178286 0.174594 0.0062562
0.200061 0.177844 0
0.223407 0.17705 0
0.243992 0.173251 0
0.263447 0.171267 0
0.282368 0.170581 0
0.301305 0.171298 0
0.320439 0.17348 0
0.343267 0.174548 0
0.367239 0.175723 0
0.392248 0.177646 0
0.418372 0.180514 0
0.448463 0.182895 0
0.481773 0.186542 0
0.515068 0.192279 0
0.550286 0.198657 0
0.588144 0.206943 0
0.629328 0.216785 0
0.674403 0.229053 0.0178988
0.722438 0.248783 0.0610666
0.774731 0.277104 0.120241
0.835782 0.312245 0.181979
0.912428 0.358648 0.251637
1 0.432914 0.330266
0.0790875 0.16643 0.0315709
0.090135 0.168109 0.0318151
0.101534 0.17023 0.0318303
0.113161 0.172366 0.0315099
0.124743 0.174853 0.0305791
0.135927 0.177371 0.0292668
0.144854 0.181094 0.0278782
0.154726 0.185 0.0269017
0.164874 0.18912 0.0263066
0.178424 0.193103 0.0208438
0.200153 0.196368 0.00263981
0.225025 0.198367 0
0.248707 0.197665 0
0.26923 0.193713 0
0.289097 0.192111 0
0.308476 0.191867 0
0.328038 0.193072 0
0.347738 0.195621 0
0.369818 0.19826 0
0.394003 0.200381 0
0.420249 0.203052 0
0.448783 0.2065 0
0.481132 0.211337 0
0.516609 0.215183 0
0.552117 0.222187 0
0.590585 0.230991 0
0.632197 0.242283 0
0.677791 0.255573 0.0117189
0.72813 0.271901 0.0479744
0.785473 0.291341 0.100389
0.849943 0.321294 0.164599
0.927321 0.367361 0.237385
1 0.446281 0.323232
0.0872663 0.185199 0.0338903
0.0982528 0.187396 0.0340734
0.109667 0.189227 0.0343786
0.121172 0.191608 0.0343023
0.132418 0.193896 0.0337377
0.143969 0.196521 0.0327001
0.155123 0.19942 0.0308995
0.164752 0.203464 0.0297551
0.174594 0.207416 0.0294652
0.184894 0.211475 0.0296483
0.199695 0.215885 0.0224918
0.225147 0.218921 0
0.25098 0.219684 0
0.274556 0.219867 0
0.295766 0.216175 0
0.316121 0.214771 0
0.336217 0.214633 0
0.356329 0.216037 0
0.376455 0.218936 0
0.397543 0.223087 0
0.423056 0.225635 0
0.450309 0.22977 0
0.481621 0.23447 0
0.515328 0.239857 0
0.55201 0.245533 0
0.590997 0.254093 0
0.633204 0.26537 0
0.679362 0.279683 0
0.730571 0.296895 0.0373083
0.788357 0.317479 0.0938582
0.855436 0.343313 0.153323
0.9402 0.37818 0.221332
1 0.457465 0.309026
0.0937972 0.204379 0.0382849
0.106188 0.206378 0.0372778
0.117952 0.208362 0.0370184
0.129519 0.210513 0.0364691
0.141115 0.213016 0.0353704
0.152972 0.215396 0.0336767
0.164645 0.21796 0.0314641
0.175341 0.221653 0.0306554
0.18529 0.225879 0.0301976
0.195773 0.229862 0.0304875
0.20679 0.234226 0.0323186
0.223178 0.239277 0.0232853
0.251194 0.240879 0
0.276875 0.241398 0
0.300801 0.241596 0
0.323018 0.239094 0
0.343999 0.237201 0
0.364935 0.23711 0
0.385046 0.239109 0
0.405356 0.242878 0
0.42707 0.246845 0
0.452461 0.251728 0
0.482429 0.256474 0
0.514702 0.262043 0
0.549889 0.268482 0
0.58999 0.275502 0
0.632471 0.285985 0
0.678782 0.300069 0
0.730526 0.3178 0.0162661
0.789181 0.339727 0.0743877
0.857252 0.367041 0.144442
0.942733 0.40174 0.218448
1 0.470024 0.298054
0.103029 0.223331 0.0393683
0.115679 0.224887 0.0377813
0.127703 0.226612 0.0364691
0.138735 0.229206 0.0343023
0.149813 0.231937 0.0340581
0.160769 0.234745 0.0334783
0.172244 0.237415 0.0328069
0.185565 0.240528 0.0312352
0.195651 0.244938 0.030045
0.207065 0.248661 0.0294957
0.219516 0.252903 0.0293736
0.231525 0.257542 0.0324712
0.24976 0.261936 0.0207828
0.27776 0.262791 0
0.303807 0.263081 0
0.328008 0.263142 0
0.351003 0.261112 0
0.372641 0.259693 0
0.394293 0.2598 0
0.414633 0.262943 0
0.435676 0.266773 0
0.458946 0.271321 0
0.485481 0.277485 0
0.516167 0.282826 0
0.549172 0.289464 0
0.587488 0.296788 0
0.631357 0.305333 0
0.677073 0.318608 0
0.728634 0.336034 0
0.78706 0.358038 0.0407416
0.856657 0.386313 0.124376
0.942657 0.423331 0.207034
1 0.488746 0.299092
0.112383 0.242695 0.0339361
0.124529 0.244358 0.0349737
0.135943 0.246799 0.0354162
0.146883 0.249256 0.0360266
0.157931 0.251942 0.0369421
0.168917 0.254597 0.037171
0.180529 0.257603 0.0364996
0.193668 0.260746 0.0349889
0.206104 0.264424 0.033051
0.21735 0.268559 0.0307469
0.230396 0.272633 0.0280156
0.244862 0.276585 0.0260624
0.257588 0.281025 0.0294347
0.277043 0.284871 0.0178073
0.305135 0.286091 0
0.331487 0.286213 0
0.356527 0.286366 0
0.380163 0.284581 0
0.402655 0.283452 0
0.424292 0.284031 0
0.445167 0.287343 0
0.468193 0.291508 0
0.493629 0.297032 0
0.520272 0.303197 0
0.550393 0.310048 0
0.58558 0.317342 0
0.626642 0.326497 0
0.674586 0.337148 0
0.725551 0.353307 0
0.784634 0.374502 0.00666819
0.853162 0.402365 0.0865492
0.940185 0.440665 0.185122
1 0.504936 0.296712
0.117464 0.263783 0.0442054
0.130327 0.265644 0.0448157
0.143908 0.267277 0.0446632
0.155764 0.269932 0.0440528
0.166537 0.272725 0.0430152
0.177554 0.275486 0.0410925
0.188983 0.278492 0.0380713
0.201633 0.281804 0.0343633
0.214328 0.285451 0.0298009
0.227024 0.28954 0.0274052
0.240742 0.293172 0.0261997
0.256046 0.297475 0.0246738
0.270634 0.301396 0.0244602
0.283146 0.305821 0.0297398
0.304967 0.308965 0.0152132
0.33344 0.310002 0
0.360037 0.310674 0
0.385504 0.310948 0
0.410101 0.309575 0
0.433371 0.308309 0
0.45539 0.309483 0
0.477638 0.313329 0
0.502297 0.318166 0
0.528466 0.323507 0
0.556268 0.330236 0
0.587823 0.337896 0
0.625422 0.34667 0
0.66923 0.357366 0
0.722042 0.370443 0
0.779965 0.390494 0
0.848035 0.417121 0.0348821
0.934401 0.45481 0.148684
1 0.517678 0.284108
0.123934 0.285466 0.0501869
0.137331 0.287297 0.0492256
0.151598 0.289143 0.0474098
0.164218 0.291279 0.045182
0.174777 0.294163 0.0420691
0.18587 0.297093 0.037644
0.196918 0.300206 0.0354925
0.209827 0.3037 0.0337835
0.223056 0.307347 0.03122
0.236713 0.311009 0.0288396
0.250721 0.315099 0.0265202
0.266361 0.319066 0.0248722
0.281804 0.322957 0.0242771
0.296712 0.32697 0.0242008
0.309728 0.331304 0.0301518
0.333562 0.334447 0.0128023
0.362325 0.335332 0
0.389776 0.33576 0
0.416266 0.335775 0
0.441489 0.335225 0
0.46569 0.334249 0
0.489067 0.33576 0
0.512917 0.340185 0
0.538262 0.344976 0
0.565225 0.350881 0
0.594842 0.358175 0
0.628229 0.367437 0
0.668635 0.377218 0
0.716899 0.389853 0
0.774594 0.406516 0
0.842649 0.431724 0
0.927306 0.467384 0.0966506
1 0.530098 0.254551
0.131151 0.307881 0.0509651
0.145525 0.309545 0.047837
0.159518 0.311299 0.0439155
0.172808 0.313573 0.0426337
0.184298 0.31632 0.0416266
0.195315 0.319341 0.0419471
0.206806 0.322194 0.0414893
0.220081 0.325994 0.0398413
0.233097 0.329549 0.0378119
0.246601 0.333349 0.0344396
0.260807 0.337301 0.0300908
0.276143 0.341558 0.0254368
0.292714 0.345373 0.0215
0.308675 0.349203 0.0204776
0.324285 0.353414 0.0214237
0.337346 0.358007 0.0323796
0.362905 0.361013 0.0109255
0.392203 0.361898 0
0.420249 0.362234 0
0.447272 0.362646 0
0.473579 0.362646 0
0.499413 0.3617 0
0.524926 0.363348 0
0.549264 0.368002 0
0.574838 0.373144 0
0.603357 0.379568 0
0.634958 0.387533 0
0.671366 0.39826 0
0.71693 0.409705 0
0.771252 0.424628 0
0.836286 0.44683 0
0.920211 0.480583 0.0457771
1 0.540734 0.218158
0.138018 0.331014 0.0565347
0.151598 0.332753 0.057023
0.166079 0.33489 0.0568093
0.181155 0.336904 0.0555428
0.194415 0.339269 0.0535592
0.205722 0.342214 0.0508431
0.217426 0.345312 0.0468757
0.229755 0.349126 0.0416876
0.242527 0.352941 0.0353857
0.255772 0.356878 0.0307469
0.270695 0.360876 0.0297704
0.286687 0.364981 0.0283207
0.302632 0.368841 0.0264439
0.319097 0.372732 0.023743
0.336049 0.376806 0.0217594
0.352117 0.380911 0.0219272
0.365545 0.385718 0.0357061
0.392905 0.388556 0.00929274
0.423301 0.389624 0
0.452018 0.390143 0
0.479988 0.39057 0
0.508019 0.390692 0
0.535866 0.390249 0
0.561318 0.392264 0
0.586938 0.39646 0
0.614282 0.402228 0
0.644312 0.409506 0
0.678477 0.418448 0
0.718624 0.430762 0
0.76939 0.444541 0
0.832486 0.463981 0
0.914412 0.495003 0.0166629
1 0.552071 0.188769
0.14435 0.355474 0.0662852
0.159213 0.357137 0.0648814
0.174624 0.359091 0.0628214
0.189792 0.361166 0.0601358
0.204471 0.363256 0.0567483
0.215869 0.366262 0.052079
0.227298 0.369467 0.047013
0.240452 0.373251 0.0455787
0.253941 0.376883 0.0432898
0.267399 0.380728 0.0404364
0.281865 0.384924 0.0363622
0.29749 0.389212 0.0320745
0.313497 0.3935 0.028397
0.330144 0.397391 0.0239261
0.347631 0.400946 0.0197452
0.365011 0.405173 0.0186007
0.381552 0.409735 0.0205692
0.396094 0.414542 0.0352941
0.424262 0.417411 0.0075227
0.454704 0.418982 0
0.484306 0.419989 0
0.513558 0.421241 0
0.544106 0.42121 0
0.572183 0.420783 0
0.599161 0.422217 0
0.6262 0.426581 0
0.655024 0.432914 0
0.688273 0.440818 0
0.725887 0.451102 0
0.770413 0.465614 0
0.829343 0.482994 0
0.907546 0.510353 0
1 0.564141 0.164401
0.151995 0.380423 0.0726329
0.168185 0.382193 0.0694591
0.184222 0.3841 0.0655222
0.198917 0.386191 0.0630045
0.21413 0.388632 0.0627146
0.227253 0.391165 0.0614328
0.239155 0.394537 0.0592813
0.252537 0.398138 0.055436
0.265583 0.401877 0.0504921
0.278965 0.405875 0.0437781
0.29276 0.410391 0.0353857
0.307637 0.414832 0.0263523
0.323857 0.419196 0.0250095
0.341115 0.422889 0.0246281
0.359091 0.42681 0.0250095
0.376486 0.430976 0.0246281
0.39408 0.435508 0.0235447
0.410803 0.439979 0.0263523
0.426352 0.445014 0.0396277
0.45568 0.448096 0.00807202
0.48777 0.4495 0
0.518669 0.451118 0
0.550484 0.45243 0
0.580789 0.453559 0
0.609171 0.453208 0
0.637903 0.454337 0
0.667979 0.458061 0
0.698985 0.46508 0
0.73489 0.473915 0
0.776913 0.486275 0
0.828519 0.50396 0
0.901656 0.52784 0
1 0.577188 0.144274
0.160159 0.407492 0.0829175
0.176425 0.409567 0.0813916
0.192294 0.411337 0.0786297
0.208499 0.413565 0.0750286
0.22446 0.415747 0.0701762
0.239277 0.418082 0.0651255
0.251301 0.421302 0.0599527
0.264149 0.425025 0.0537423
0.27718 0.428885 0.0463722
0.291279 0.432883 0.0469215
0.30605 0.436912 0.0458686
0.322103 0.441459 0.0427558
0.337469 0.446006 0.0386206
0.353643 0.450355 0.0339055
0.370642 0.454414 0.0295109
0.389136 0.458427 0.024506
0.407706 0.462715 0.0230716
0.425895 0.467247 0.0225986
0.442405 0.471946 0.0297704
0.458061 0.477729 0.0462501
0.487678 0.481331 0.0127413
0.521477 0.483574 0
0.554833 0.485466 0
0.587228 0.486915 0
0.618051 0.488792 0
0.647898 0.488487 0
0.678141 0.489815 0
0.709941 0.494026 0
0.745617 0.50042 0
0.785199 0.510704 0
0.833509 0.525582 0
0.89897 0.548455 0.00434882
1 0.591592 0.132036
0.168811 0.437247 0.0942092
0.185153 0.438865 0.0918288
0.202411 0.441032 0.088838
0.219379 0.442939 0.0850385
0.235325 0.445136 0.0805676
0.251652 0.447364 0.0755627
0.265156 0.45037 0.0741588
0.278843 0.453925 0.0709544
0.292592 0.457938 0.0668956
0.306035 0.461738 0.0613565
0.320363 0.466285 0.0529641
0.335073 0.470878 0.0421759
0.350042 0.47599 0.0305943
0.366003 0.48011 0.0293736
0.384085 0.484291 0.0295415
0.402472 0.488212 0.0300603
0.42121 0.492653 0.0309911
0.439567 0.497032 0.0315557
0.457755 0.501854 0.0336614
0.474769 0.507179 0.0408331
0.490867 0.513207 0.0575113
0.522301 0.517327 0.0179751
0.557992 0.520455 0
0.591104 0.522911 0
0.623636 0.525612 0
0.656413 0.528069 0
0.688151 0.527611 0
0.720607 0.528664 0
0.755108 0.532982 0
0.794308 0.540185 0
0.840406 0.552254 0
0.900938 0.571191 0
1 0.608743 0.136156
0.177752 0.467079 0.105989
0.195285 0.468864 0.103517
0.212741 0.470893 0.101198
0.229557 0.472953 0.0990158
0.246876 0.475319 0.0956893
0.263127 0.477394 0.0910811
0.279103 0.47982 0.0846418
0.292988 0.483467 0.0739147
0.305837 0.487572 0.0623178
0.319417 0.491722 0.0521859
0.33431 0.495766 0.0532998
0.3505 0.50045 0.0528573
0.366369 0.504921 0.0512703
0.382025 0.5093 0.0475929
0.398169 0.514076 0.0414588
0.41619 0.518547 0.0355077
0.435401 0.522637 0.0349126
0.454459 0.527016 0.0350347
0.473014 0.531762 0.0372931
0.490913 0.537087 0.0447089
0.506325 0.543221 0.0621653
0.523156 0.550179 0.077409
0.55787 0.554513 0.0256962
0.593545 0.558099 0
0.627405 0.561349 0
0.661387 0.564858 0
0.69601 0.568383 0
0.729442 0.568231 0
0.764416 0.569192 0
0.802838 0.573571 0
0.847425 0.582223 0
0.904601 0.597436 0
1 0.62829 0.142504
0.187839 0.497536 0.117815
0.205524 0.499565 0.115602
0.223209 0.501564 0.112795
0.241703 0.503746 0.109194
0.258488 0.50576 0.105165
0.275776 0.507836 0.100038
0.29276 0.510201 0.0944991
0.307927 0.513726 0.0916609
0.322225 0.51754 0.0864424
0.336126 0.521355 0.0795911
0.350805 0.525841 0.0720531
0.366033 0.530556 0.0627298
0.38088 0.535348 0.0512398
0.397253 0.539712 0.050309
0.413718 0.54432 0.0488136
0.431006 0.549126 0.0476844
0.449729 0.553384 0.0474098
0.468635 0.557992 0.0493477
0.487541 0.562554 0.0522927
0.506203 0.567636 0.054963
0.523873 0.573541 0.0636912
0.539422 0.580179 0.0871901
0.556756 0.588434 0.100359
0.592737 0.593332 0.0381628
0.628702 0.597421 0
0.664347 0.601312 0
0.699931 0.605692 0
0.736461 0.610773 0
0.772503 0.610193 0
0.810758 0.611078 0
0.854139 0.616373 0
0.909209 0.627375 1.5259e-05
0.997452 0.651728 0.129198
0.198352 0.530083 0.130465
0.216342 0.531838 0.128206
0.236591 0.533562 0.124956
0.253635 0.535866 0.122423
0.271534 0.538064 0.119417
0.289067 0.540291 0.115541
0.305913 0.542641 0.110887
0.3243 0.545678 0.103334
0.337987 0.549416 0.0935378
0.351934 0.553521 0.0796216
0.366873 0.557794 0.0777752
0.383383 0.56228 0.0761578
0.398901 0.566857 0.0725567
0.414832 0.571374 0.0669261
0.430503 0.575906 0.059266
0.447181 0.58088 0.0536965
0.465934 0.585199 0.054612
0.484733 0.590005 0.0569162
0.504051 0.594446 0.0632944
0.522286 0.599878 0.074342
0.540276 0.605203 0.0849775
0.557641 0.611643 0.0999161
0.57261 0.619516 0.124453
0.590967 0.628473 0.123827
0.626657 0.634104 0.0574197
0.664378 0.639109 0
0.702174 0.643854 0
0.739727 0.649699 0
0.778424 0.656413 0
0.817166 0.655482 0
0.859937 0.655924 0
0.912886 0.662303 0
0.996078 0.679561 0.124666
0.210285 0.564233 0.143557
0.230335 0.56614 0.141131
0.248859 0.568261 0.138537
0.26807 0.570016 0.134997
0.285924 0.572335 0.131334
0.303868 0.574365 0.12665
0.322057 0.576852 0.121401
0.340978 0.57937 0.116747
0.356268 0.5832 0.109743
0.370214 0.587045 0.100465
0.385061 0.591592 0.0901961
0.400702 0.595743 0.0780194
0.416663 0.600641 0.0753643
0.432898 0.604746 0.0775311
0.449516 0.609628 0.0783246
0.467002 0.613886 0.0767834
0.484382 0.619089 0.0749371
0.503044 0.62324 0.0774853
0.521828 0.628382 0.0836957
0.540215 0.633341 0.0906081
0.558145 0.639185 0.103182
0.575494 0.645182 0.122133
0.591989 0.652888 0.140917
0.604486 0.660929 0.168353
0.626017 0.670314 0.15462
0.661234 0.677668 0.0857557
0.700206 0.683864 0
0.740017 0.690028 0
0.779965 0.697719 0
0.821439 0.704829 0
0.865309 0.701808 0
0.915267 0.703197 0
0.994553 0.7131 0.109026
0.225193 0.600931 0.157305
0.244221 0.603052 0.15523
0.264591 0.604807 0.152224
0.283391 0.606836 0.149096
0.302342 0.609003 0.145251
0.321004 0.611337 0.140902
0.338796 0.613291 0.135851
0.359457 0.616037 0.128893
0.375311 0.619501 0.120729
